; generated by PrusaSlicer 2.2.0+win64 on 2020-09-25 at 02:02:23 UTC

; 

; external perimeters extrusion width = 0.45mm
; perimeters extrusion width = 0.45mm
; infill extrusion width = 0.45mm
; solid infill extrusion width = 0.45mm
; top infill extrusion width = 0.40mm
; first layer extrusion width = 0.42mm

M73 P0 R110
M73 Q0 S111
M201 X1000 Y1000 Z200 E5000 ; sets maximum accelerations, mm/sec^2
M203 X200 Y200 Z12 E120 ; sets maximum feedrates, mm/sec
M204 P1250 R1250 T1250 ; sets acceleration (P, T) and retract acceleration (R), mm/sec^2
M205 X8.00 Y8.00 Z0.40 E4.50 ; sets the jerk limits, mm/sec
M205 S0 T0 ; sets the minimum extruding and travel feed rate, mm/sec
M107
M862.3 P "MK3S" ; printer model check
M862.1 P0.4 ; nozzle diameter check
M115 U3.9.0 ; tell printer latest fw version
G90 ; use absolute coordinates
M83 ; extruder relative mode
M104 S215 ; set extruder temp
M140 S60 ; set bed temp
M190 S60 ; wait for bed temp
M109 S215 ; wait for extruder temp
G28 W ; home all without mesh bed level
G80 ; mesh bed leveling
G1 Y-3.0 F1000.0 ; go outside print area
G92 E0.0
G1 X60.0 E9.0 F1000.0 ; intro line
M73 Q0 S111
M73 P0 R110
G1 X100.0 E12.5 F1000.0 ; intro line
G92 E0.0
M221 S95

; Don't change E values below. Excessive value can damage the printer.
M907 E430 ; set extruder motor current
G21 ; set units to millimeters
G90 ; use absolute coordinates
M83 ; use relative distances for extrusion
M900 K0.05 ; Filament gcode LA 1.5
M900 K30 ; Filament gcode LA 1.0
;BEFORE_LAYER_CHANGE
G92 E0.0
;0.2


G1 E-0.80000 F2100.00000
G1 Z0.600 F10800.000
;AFTER_LAYER_CHANGE
;0.2
G1 X134.512 Y36.507
G1 Z0.200
G1 E0.80000 F2100.00000
M204 S1000
G1 F1200.000
G1 X134.881 Y35.791 E0.02525
G1 X135.263 Y35.378 E0.01763
G1 X135.759 Y35.042 E0.01877
G1 X136.317 Y34.833 E0.01869
G1 X136.906 Y34.758 E0.01863
G1 X211.956 Y34.758 E2.35313
G1 X212.940 Y34.952 E0.03144
G1 X213.750 Y35.486 E0.03045
G1 X214.297 Y36.284 E0.03033
G1 X214.453 Y36.765 E0.01585
G1 X214.510 Y37.276 E0.01613
G1 X214.510 Y117.586 E2.51806
G1 X214.063 Y137.678 E0.63012
G1 X213.917 Y138.444 E0.02444
G1 X213.555 Y139.127 E0.02425
G1 X213.143 Y139.571 E0.01899
G1 X212.644 Y139.906 E0.01885
G1 X212.053 Y140.126 E0.01975
G1 X211.457 Y140.199 E0.01884
G1 X137.440 Y140.199 E2.32074
G1 X136.623 Y140.064 E0.02597
G1 X135.900 Y139.688 E0.02554
G1 X135.477 Y139.300 E0.01803
G1 X135.153 Y138.837 E0.01769
G1 X134.938 Y138.320 E0.01757
G1 X134.834 Y137.735 E0.01863
G1 X134.384 Y117.586 E0.63192
G1 X134.384 Y37.297 E2.51740
G1 X134.503 Y36.566 E0.02323
G1 F8640.000
G1 X134.881 Y35.791 E-0.19915
G1 X135.263 Y35.378 E-0.12986
G1 X135.759 Y35.042 E-0.13826
G1 X136.317 Y34.833 E-0.13765
G1 X136.906 Y34.758 E-0.13720
G1 X136.984 Y34.758 E-0.01787
G1 E-0.04000 F2100.00000
G1 Z0.800 F10800.000
G1 X132.892 Y113.957
G1 Z0.200
G1 E0.80000 F2100.00000
G1 F1200.000
G1 X132.787 Y113.769 E0.00674
G1 X132.517 Y112.967 E0.02653
G1 X132.371 Y111.924 E0.03303
G1 X132.370 Y43.843 E2.13462
G1 X132.480 Y42.934 E0.02872
G1 X132.712 Y42.162 E0.02528
G1 X132.902 Y41.801 E0.01277
G1 X132.595 Y41.128 E0.02321
G1 X132.389 Y40.057 E0.03418
G1 X132.370 Y37.378 E0.08399
G1 X132.839 Y35.533 E0.05972
G1 X133.580 Y34.406 E0.04229
G1 X134.562 Y33.551 E0.04081
G1 X135.771 Y32.976 E0.04199
G1 X137.090 Y32.744 E0.04198
G1 X184.409 Y32.748 E1.48366
G1 X185.025 Y32.854 E0.01958
G1 X199.912 Y32.854 E0.46679
G1 X200.458 Y32.744 E0.01746
G1 X211.917 Y32.752 E0.35929
G1 X213.372 Y33.062 E0.04665
G1 X214.722 Y33.836 E0.04879
G1 X215.730 Y34.955 E0.04722
G1 X216.342 Y36.309 E0.04658
G1 X216.524 Y37.487 E0.03738
G1 X216.512 Y39.988 E0.07843
G1 X216.258 Y41.251 E0.04040
G1 X216.002 Y41.787 E0.01862
G1 X216.108 Y41.977 E0.00682
G1 X216.379 Y42.785 E0.02671
G1 X216.524 Y43.831 E0.03312
G1 X216.524 Y111.945 E2.13567
G1 X216.347 Y113.081 E0.03605
G1 X216.016 Y113.925 E0.02841
G1 X216.109 Y114.097 E0.00614
G1 X216.410 Y115.033 E0.03083
G1 X216.522 Y115.899 E0.02738
G1 X216.522 Y117.833 E0.06064
G1 X216.352 Y118.716 E0.02818
G1 X216.351 Y137.811 E0.59873
G1 X215.875 Y139.688 E0.06071
G1 X215.129 Y140.814 E0.04236
G1 X214.146 Y141.672 E0.04089
G1 X212.948 Y142.247 E0.04166
G1 X211.610 Y142.484 E0.04261
G1 X137.313 Y142.485 E2.32955
G1 X136.405 Y142.371 E0.02867
G1 X135.546 Y142.101 E0.02824
G1 X134.347 Y141.375 E0.04396
G1 X133.422 Y140.376 E0.04269
G1 X132.813 Y139.179 E0.04210
G1 X132.542 Y137.784 E0.04455
G1 X132.543 Y118.716 E0.59787
G1 X132.372 Y117.835 E0.02813
G1 X132.371 Y115.825 E0.06301
G1 X132.675 Y114.387 E0.04611
G1 X132.865 Y114.010 E0.01321
G1 F8640.000
G1 X132.787 Y113.769 E-0.05852
G1 X132.517 Y112.967 E-0.19540
G1 X132.371 Y111.924 E-0.24327
G1 X132.371 Y110.786 E-0.26281
G1 E-0.04000 F2100.00000
G1 Z0.800 F10800.000
G1 X215.570 Y41.807
G1 Z0.200
G1 E0.80000 F2100.00000
G1 F1200.000
G1 X215.758 Y42.120 E0.01142
G1 X216.016 Y42.888 E0.02542
G1 X216.147 Y43.844 E0.03025
G1 X216.146 Y111.930 E2.13480
G1 X215.978 Y113.001 E0.03399
G1 X215.595 Y113.961 E0.03241
G1 X215.758 Y114.236 E0.01002
G1 X216.045 Y115.131 E0.02949
G1 X216.146 Y115.934 E0.02536
G1 X216.145 Y117.814 E0.05895
G1 X215.975 Y118.678 E0.02762
G1 X215.974 Y137.787 E0.59914
G1 X215.518 Y139.562 E0.05746
G1 X214.831 Y140.581 E0.03856
G1 X213.920 Y141.369 E0.03776
G1 X212.811 Y141.895 E0.03848
G1 X211.594 Y142.107 E0.03872
G1 X137.324 Y142.108 E2.32869
G1 X136.502 Y142.006 E0.02597
G1 X135.682 Y141.748 E0.02697
G1 X134.567 Y141.068 E0.04096
G1 X133.719 Y140.141 E0.03939
G1 X133.162 Y139.034 E0.03886
G1 X132.919 Y137.766 E0.04046
G1 X132.920 Y118.679 E0.59849
G1 X132.749 Y117.816 E0.02757
G1 X132.748 Y115.846 E0.06178
G1 X133.038 Y114.493 E0.04338
G1 X133.327 Y113.943 E0.01949
G1 X133.137 Y113.626 E0.01157
G1 X132.880 Y112.864 E0.02524
G1 X132.748 Y111.911 E0.03015
G1 X132.748 Y43.855 E2.13387
G1 X132.846 Y43.027 E0.02613
G1 X133.068 Y42.290 E0.02413
G1 X133.325 Y41.815 E0.01695
G1 X132.961 Y41.033 E0.02704
G1 X132.763 Y40.003 E0.03288
G1 X132.747 Y37.401 E0.08159
G1 X133.196 Y35.658 E0.05642
G1 X133.879 Y34.637 E0.03852
G1 X134.788 Y33.854 E0.03763
G1 X135.908 Y33.328 E0.03879
G1 X137.106 Y33.122 E0.03812
G1 X184.392 Y33.125 E1.48263
G1 X184.991 Y33.232 E0.01907
G1 X199.952 Y33.232 E0.46909
M73 Q0 S110
M73 P0 R109
G1 X200.478 Y33.122 E0.01686
G1 X211.860 Y33.125 E0.35687
G1 X213.213 Y33.405 E0.04332
G1 X214.463 Y34.111 E0.04500
G1 X215.429 Y35.185 E0.04529
G1 X215.987 Y36.438 E0.04300
G1 X216.147 Y37.499 E0.03366
G1 X216.136 Y39.967 E0.07739
G1 X215.893 Y41.151 E0.03787
G1 X215.597 Y41.753 E0.02106
G1 X215.137 Y41.828 F10800.000
G1 F1200.000
G1 X215.408 Y42.262 E0.01606
G1 X215.653 Y42.991 E0.02410
G1 X215.770 Y43.856 E0.02738
G1 X215.769 Y111.915 E2.13394
G1 X215.609 Y112.922 E0.03198
G1 X215.331 Y113.635 E0.02399
G1 X215.139 Y113.946 E0.01146
G1 X215.407 Y114.377 E0.01590
G1 X215.674 Y115.197 E0.02705
G1 X215.769 Y115.946 E0.02367
G1 X215.768 Y117.795 E0.05797
G1 X215.597 Y118.640 E0.02705
G1 X215.597 Y137.764 E0.59961
G1 X215.187 Y139.380 E0.05229
G1 X214.563 Y140.315 E0.03523
G1 X213.732 Y141.041 E0.03460
G1 X212.719 Y141.528 E0.03526
G1 X211.577 Y141.730 E0.03634
G1 X137.335 Y141.731 E2.32781
G1 X136.596 Y141.641 E0.02335
G1 X135.856 Y141.413 E0.02430
G1 X134.824 Y140.792 E0.03775
G1 X134.042 Y139.946 E0.03612
G1 X133.527 Y138.935 E0.03557
G1 X133.296 Y137.748 E0.03791
G1 X133.297 Y118.641 E0.59910
G1 X133.126 Y117.797 E0.02699
G1 X133.125 Y115.866 E0.06054
G1 X133.401 Y114.601 E0.04059
G1 X133.766 Y113.928 E0.02399
G1 X133.487 Y113.483 E0.01647
G1 X133.243 Y112.760 E0.02392
G1 X133.125 Y111.898 E0.02727
G1 X133.125 Y43.865 E2.13313
G1 X133.212 Y43.119 E0.02355
G1 X133.423 Y42.419 E0.02294
G1 X133.750 Y41.828 E0.02117
G1 X133.327 Y40.937 E0.03091
G1 X133.137 Y39.949 E0.03156
G1 X133.125 Y37.423 E0.07920
G1 X133.529 Y35.839 E0.05125
G1 X134.147 Y34.904 E0.03515
G1 X134.974 Y34.183 E0.03442
G1 X135.999 Y33.695 E0.03558
G1 X137.122 Y33.499 E0.03577
G1 X184.375 Y33.502 E1.48156
G1 X184.956 Y33.609 E0.01854
G1 X199.993 Y33.609 E0.47147
G1 X200.499 Y33.499 E0.01624
G1 X211.805 Y33.499 E0.35448
G1 X213.057 Y33.749 E0.04002
G1 X214.206 Y34.389 E0.04123
G1 X215.098 Y35.368 E0.04154
G1 X215.618 Y36.521 E0.03965
G1 X215.770 Y37.512 E0.03145
G1 X215.759 Y39.947 E0.07632
G1 X215.530 Y41.048 E0.03529
G1 X215.164 Y41.774 E0.02549
G1 F8640.000
G1 X215.408 Y42.262 E-0.12602
G1 X215.653 Y42.991 E-0.17748
G1 X215.770 Y43.856 E-0.20163
G1 X215.770 Y44.960 E-0.25487
G1 E-0.04000 F2100.00000
G1 Z0.800 F10800.000
G1 X137.138 Y33.876
G1 Z0.200
G1 E0.80000 F2100.00000
G1 F1200.000
G1 X184.357 Y33.879 E1.48051
G1 X184.921 Y33.986 E0.01799
G1 X200.036 Y33.986 E0.47394
G1 X200.521 Y33.876 E0.01559
G1 X211.786 Y33.876 E0.35320
G1 X212.952 Y34.113 E0.03730
G1 X213.993 Y34.701 E0.03749
G1 X214.797 Y35.597 E0.03775
G1 X215.263 Y36.649 E0.03608
G1 X215.392 Y37.525 E0.02776
G1 X215.382 Y39.925 E0.07527
G1 X215.166 Y40.945 E0.03267
G1 X214.700 Y41.850 E0.03191
G1 X215.059 Y42.406 E0.02075
G1 X215.290 Y43.094 E0.02275
G1 X215.392 Y43.869 E0.02451
G1 X215.392 Y111.901 E2.13310
G1 X215.250 Y112.804 E0.02869
G1 X214.986 Y113.480 E0.02273
G1 X214.699 Y113.933 E0.01681
G1 X214.699 Y113.963 F10800.000
G1 F1200.000
G1 X215.057 Y114.519 E0.02073
G1 X215.302 Y115.264 E0.02458
G1 X215.392 Y115.958 E0.02195
G1 X215.391 Y117.775 E0.05697
G1 X215.220 Y118.601 E0.02646
G1 X215.220 Y137.741 E0.60011
G1 X214.855 Y139.198 E0.04710
G1 X214.264 Y140.084 E0.03338
G1 X213.506 Y140.738 E0.03140
G1 X212.581 Y141.176 E0.03208
G1 X211.562 Y141.353 E0.03245
G1 X137.347 Y141.354 E2.32694
G1 X136.660 Y141.269 E0.02171
G1 X135.990 Y141.060 E0.02199
G1 X135.044 Y140.484 E0.03473
G1 X134.339 Y139.712 E0.03280
G1 X133.876 Y138.790 E0.03234
G1 X133.673 Y137.730 E0.03382
G1 X133.674 Y118.602 E0.59977
G1 X133.503 Y117.777 E0.02641
G1 X133.502 Y115.887 E0.05927
G1 X133.762 Y114.711 E0.03776
G1 X134.195 Y113.935 E0.02785
G1 X134.195 Y113.896 F10800.000
G1 F1200.000
G1 X133.836 Y113.339 E0.02078
G1 X133.606 Y112.657 E0.02258
G1 X133.502 Y111.886 E0.02439
G1 X133.502 Y43.876 E2.13240
G1 X133.578 Y43.212 E0.02097
G1 X133.778 Y42.548 E0.02173
G1 X134.176 Y41.842 E0.02542
G1 X133.692 Y40.841 E0.03483
G1 X133.510 Y39.895 E0.03021
G1 X133.502 Y37.446 E0.07678
G1 X133.885 Y35.966 E0.04795
G1 X134.444 Y35.137 E0.03136
G1 X135.200 Y34.486 E0.03127
G1 X136.135 Y34.047 E0.03239
G1 X137.138 Y33.876 E0.03191
G1 F8640.000
G1 X136.135 Y34.047 E-0.23498
G1 X135.200 Y34.486 E-0.23849
G1 X134.444 Y35.137 E-0.23027
G1 X134.308 Y35.339 E-0.05625
G1 E-0.04000 F2100.00000
G1 Z0.800 F10800.000
G1 X134.195 Y41.027
G1 Z0.200
G1 E0.80000 F2100.00000
G1 F1200.000
G1 X134.044 Y40.705 E0.01115
G1 X133.884 Y39.844 E0.02746
G1 X133.879 Y37.469 E0.07445
G1 X134.216 Y36.150 E0.04270
G1 X134.742 Y35.369 E0.02951
G1 X135.423 Y34.790 E0.02803
G1 X136.269 Y34.400 E0.02920
G1 X137.153 Y34.253 E0.02811
G1 X184.338 Y34.256 E1.47944
G1 X184.884 Y34.363 E0.01743
G1 X200.082 Y34.363 E0.47652
G1 X200.544 Y34.253 E0.01491
G1 X211.768 Y34.253 E0.35191
G1 X212.796 Y34.457 E0.03285
G1 X213.736 Y34.979 E0.03372
G1 X214.466 Y35.779 E0.03398
G1 X214.894 Y36.731 E0.03272
G1 X215.015 Y37.538 E0.02557
G1 X215.005 Y39.904 E0.07418
G1 X214.803 Y40.839 E0.03001
G1 X214.699 Y41.039 E0.00707
G1 X214.322 Y41.706 F10800.000
G1 F1200.000
G1 X214.227 Y41.820 E0.00462
G1 X214.322 Y41.963 E0.00536
G1 X214.699 Y42.534 F10800.000
G1 F1200.000
G1 X214.926 Y43.196 E0.02195
G1 X215.015 Y43.881 E0.02164
G1 X215.015 Y111.886 E2.13227
G1 X214.891 Y112.687 E0.02540
G1 X214.699 Y113.180 E0.01659
G1 X214.322 Y113.820 F10800.000
G1 F1200.000
G1 X214.237 Y113.950 E0.00488
G1 X214.322 Y114.079 E0.00482
G1 X214.699 Y114.650 F10800.000
G1 F1200.000
G1 X214.931 Y115.331 E0.02257
G1 X215.015 Y115.970 E0.02021
G1 X215.014 Y117.755 E0.05595
G1 X214.843 Y118.561 E0.02586
G1 X214.843 Y137.717 E0.60061
G1 X214.498 Y139.072 E0.04383
G1 X213.968 Y139.849 E0.02952
G1 X213.282 Y140.434 E0.02826
G1 X212.446 Y140.824 E0.02891
G1 X211.546 Y140.976 E0.02862
G1 X137.359 Y140.977 E2.32607
G1 X136.725 Y140.897 E0.02005
G1 X136.126 Y140.707 E0.01970
G1 X135.302 Y140.208 E0.03019
G1 X134.662 Y139.516 E0.02956
G1 X134.241 Y138.691 E0.02905
G1 X134.050 Y137.712 E0.03127
G1 X134.051 Y118.562 E0.60045
G1 X133.880 Y117.756 E0.02580
G1 X133.879 Y115.908 E0.05797
G1 X134.124 Y114.822 E0.03489
G1 X134.195 Y114.697 E0.00452
G1 X134.572 Y114.037 F10800.000
G1 F1200.000
G1 X134.651 Y113.900 E0.00495
G1 X134.572 Y113.781 E0.00446
G1 X134.195 Y113.210 F10800.000
G1 F1200.000
G1 X133.969 Y112.554 E0.02176
G1 X133.879 Y111.874 E0.02151
G1 X133.879 Y43.887 E2.13167
G1 X133.951 Y43.273 E0.01939
G1 X134.132 Y42.679 E0.01947
G1 X134.195 Y42.568 E0.00401
G1 X134.572 Y41.909 F10800.000
G1 F1200.000
G1 X134.648 Y41.777 E0.00476
G1 X134.572 Y41.685 E0.00373
G1 X134.572 Y40.943 F10800.000
G1 F1200.000
G1 X134.742 Y41.305 E0.01253
G1 X135.181 Y41.811 E0.02102
G1 X134.864 Y42.150 E0.01455
G1 X134.572 Y42.659 E0.01840
G1 F8640.000
G1 X134.864 Y42.150 E-0.13550
G1 X135.181 Y41.811 E-0.10715
G1 X134.742 Y41.305 E-0.15480
G1 X134.572 Y40.943 E-0.09225
G1 E-0.31030 F2100.00000
G1 Z0.800 F10800.000
G1 X134.572 Y113.106
G1 Z0.200
G1 E0.80000 F2100.00000
M73 Q1 S109
G1 F1200.000
G1 X135.146 Y113.958 E0.03219
G1 X134.908 Y114.209 E0.01084
G1 X134.572 Y114.785 E0.02088
G1 F8640.000
G1 X134.908 Y114.209 E-0.15377
G1 X135.146 Y113.958 E-0.07986
G1 X134.572 Y113.106 E-0.23709
G1 E-0.32928 F2100.00000
G1 Z0.800 F10800.000
G1 X134.428 Y127.986
G1 Z0.200
G1 E0.80000 F2100.00000
M73 P1 R108
G1 F1200.000
G1 X134.427 Y137.695 E0.30439
G1 X134.590 Y138.546 E0.02719
G1 X134.959 Y139.282 E0.02582
G1 X135.523 Y139.901 E0.02626
G1 X136.262 Y140.355 E0.02718
G1 X136.822 Y140.532 E0.01841
G1 X137.371 Y140.600 E0.01734
G1 X211.530 Y140.599 E2.32520
G1 X212.356 Y140.457 E0.02628
G1 X213.096 Y140.105 E0.02570
G1 X213.701 Y139.582 E0.02509
G1 X214.166 Y138.889 E0.02615
G1 X214.466 Y137.694 E0.03863
G1 X214.466 Y128.047 E0.30249
G1 F8640.000
G1 X214.466 Y131.338 E-0.76000
G1 E-0.04000 F2100.00000
G1 Z0.800 F10800.000
G1 X214.322 Y114.753
G1 Z0.200
G1 E0.80000 F2100.00000
G1 F1200.000
G1 X213.750 Y113.904 E0.03212
G1 X213.955 Y113.692 E0.00923
G1 X214.322 Y113.109 E0.02161
G1 F8640.000
G1 X213.955 Y113.692 E-0.15914
G1 X213.750 Y113.904 E-0.06801
G1 X214.322 Y114.753 E-0.23653
G1 E-0.33633 F2100.00000
G1 Z0.800 F10800.000
G1 X214.322 Y42.638
G1 Z0.200
G1 E0.80000 F2100.00000
G1 F1200.000
G1 X213.746 Y41.781 E0.03236
G1 X214.074 Y41.418 E0.01536
G1 X214.322 Y40.946 E0.01670
G1 F8640.000
G1 X214.074 Y41.418 E-0.12297
G1 X213.746 Y41.781 E-0.11314
G1 X214.322 Y42.638 E-0.23830
G1 E-0.32559 F2100.00000
G1 Z0.800 F10800.000
G1 X184.303 Y35.011
G1 Z0.200
G1 E0.80000 F2100.00000
G1 F1200.000
G1 X184.643 Y35.073 E0.01083
G1 X184.767 Y35.117 E0.00415
G1 X200.180 Y35.117 E0.48324
G1 X200.594 Y35.007 E0.01345
G1 X211.731 Y35.007 E0.34918
G1 X212.535 Y35.165 E0.02570
G1 X213.266 Y35.569 E0.02618
G1 X213.833 Y36.190 E0.02639
G1 X214.169 Y36.940 E0.02575
G1 X214.261 Y37.564 E0.01978
G1 X214.258 Y39.792 E0.06986
G1 X214.110 Y40.538 E0.02384
G1 X213.753 Y41.218 E0.02410
G1 X213.163 Y41.847 E0.02701
G1 X213.546 Y42.160 E0.01551
G1 X214.012 Y42.843 E0.02591
G1 X214.192 Y43.366 E0.01736
G1 X214.261 Y43.905 E0.01701
G1 X214.261 Y111.857 E2.13062
G1 X214.163 Y112.490 E0.02006
G1 X213.956 Y113.010 E0.01755
G1 X213.653 Y113.464 E0.01713
G1 X213.154 Y113.955 E0.02195
G1 X213.546 Y114.276 E0.01589
G1 X214.011 Y114.957 E0.02587
G1 X214.189 Y115.470 E0.01702
G1 X214.261 Y115.996 E0.01663
G1 X214.260 Y117.713 E0.05382
G1 X214.089 Y118.479 E0.02461
G1 X214.089 Y128.043 E0.29987
G1 F8640.000
G1 X214.089 Y124.751 E-0.76000
G1 E-0.04000 F2100.00000
G1 Z0.800 F10800.000
G1 X134.805 Y127.982
G1 Z0.200
G1 E0.80000 F2100.00000
G1 F1200.000
G1 X134.805 Y118.479 E0.29798
G1 X134.635 Y117.714 E0.02456
G1 X134.633 Y115.950 E0.05533
G1 X134.825 Y115.100 E0.02730
G1 X135.220 Y114.423 E0.02458
G1 X135.739 Y113.904 E0.02301
G1 X135.348 Y113.584 E0.01586
G1 X134.882 Y112.902 E0.02589
G1 X134.704 Y112.382 E0.01723
G1 X134.633 Y111.849 E0.01686
G1 X134.633 Y43.909 E2.13021
G1 X134.688 Y43.430 E0.01512
