; generated by PrusaSlicer 2.2.0+win64 on 2020-09-22 at 14:59:18 UTC

; 

; external perimeters extrusion width = 0.45mm
; perimeters extrusion width = 0.45mm
; infill extrusion width = 0.45mm
; solid infill extrusion width = 0.45mm
; top infill extrusion width = 0.40mm
; first layer extrusion width = 0.42mm

M73 P0 R205
M73 Q0 S207
M201 X1000 Y1000 Z1000 E5000 ; sets maximum accelerations, mm/sec^2
M203 X200 Y200 Z12 E120 ; sets maximum feedrates, mm/sec
M204 P1250 R1250 T1250 ; sets acceleration (P, T) and retract acceleration (R), mm/sec^2
M205 X8.00 Y8.00 Z0.40 E4.50 ; sets the jerk limits, mm/sec
M205 S0 T0 ; sets the minimum extruding and travel feed rate, mm/sec
M107
M862.3 P "MK3S" ; printer model check
M862.1 P0.4 ; nozzle diameter check
M115 U3.8.1 ; tell printer latest fw version
G90 ; use absolute coordinates
M83 ; extruder relative mode
M104 S215 ; set extruder temp
M140 S60 ; set bed temp
M190 S60 ; wait for bed temp
M109 S215 ; wait for extruder temp
G28 W ; home all without mesh bed level
G80 ; mesh bed leveling
G1 Y-3.0 F1000.0 ; go outside print area
G92 E0.0
G1 X60.0 E9.0 F1000.0 ; intro line
M73 Q0 S207
M73 P0 R205
G1 X100.0 E12.5 F1000.0 ; intro line
G92 E0.0
M221 S95
G21 ; set units to millimeters
G90 ; use absolute coordinates
M83 ; use relative distances for extrusion
M900 K30 ; Filament gcode
;BEFORE_LAYER_CHANGE
G92 E0.0
;0.2


G1 E-0.80000 F2100.00000
G1 Z0.600 F10800.000
;AFTER_LAYER_CHANGE
;0.2
G1 X36.655 Y65.141
G1 Z0.200
G1 E0.80000 F2100.00000
M204 S1000
G1 F1200.000
G1 X37.338 Y65.033 E0.02169
G1 X137.893 Y63.039 E3.15344
G1 X211.911 Y63.038 E2.32080
G1 X212.780 Y63.187 E0.02762
G1 X213.548 Y63.614 E0.02755
G1 X214.134 Y64.272 E0.02765
G1 X214.466 Y65.070 E0.02708
G1 X217.291 Y85.579 E0.64914
G1 X217.293 Y168.200 E2.59050
G1 X217.194 Y168.877 E0.02146
G1 X216.944 Y169.474 E0.02030
G1 X216.555 Y169.991 E0.02028
G1 X216.020 Y170.416 E0.02142
G1 X215.410 Y170.684 E0.02089
G1 X214.721 Y170.792 E0.02187
G1 X114.157 Y172.786 E3.15374
G1 X34.606 Y172.786 E2.49426
G1 X33.928 Y172.686 E0.02147
G1 X33.335 Y172.437 E0.02017
G1 X32.818 Y172.047 E0.02029
G1 X32.393 Y171.513 E0.02141
G1 X32.121 Y170.889 E0.02135
G1 X32.018 Y170.177 E0.02254
G1 X32.018 Y87.584 E2.58967
G1 X34.818 Y67.189 E0.64545
G1 X34.967 Y66.673 E0.01685
G1 X35.230 Y66.183 E0.01745
G1 X35.607 Y65.741 E0.01821
G1 X36.048 Y65.408 E0.01731
G1 X36.600 Y65.165 E0.01891
G1 F8640.000
G1 X37.338 Y65.033 E-0.17316
G1 X39.879 Y64.983 E-0.58684
G1 E-0.04000 F2100.00000
G1 Z0.800 F10800.000
G1 X32.489 Y82.765
G1 Z0.200
G1 E0.80000 F2100.00000
G1 F1200.000
G1 X32.490 Y67.524 E0.47786
G1 X32.678 Y66.312 E0.03846
G1 X33.134 Y65.230 E0.03681
G1 X33.894 Y64.220 E0.03964
G1 X34.867 Y63.451 E0.03888
G1 X36.002 Y62.950 E0.03891
G1 X37.228 Y62.746 E0.03898
G1 X100.499 Y62.749 E1.98381
G1 X111.850 Y62.773 E0.35590
G1 X113.232 Y63.106 E0.04455
G1 X113.607 Y63.332 E0.01373
G1 X114.212 Y63.697 F10800.000
G1 F1200.000
G1 X114.546 Y63.898 E0.01224
G1 X115.539 Y65.035 E0.04733
G1 X116.041 Y66.092 E0.03667
G1 X116.270 Y67.182 E0.03492
G1 X116.297 Y83.244 E0.50364
G1 X116.921 Y83.623 E0.02288
G1 X118.049 Y84.685 E0.04860
G1 X118.753 Y85.968 E0.04589
G1 X119.057 Y87.439 E0.04708
G1 X119.056 Y170.280 E2.59744
G1 X118.956 Y171.147 E0.02735
G1 X118.697 Y172.008 E0.02821
G1 X118.418 Y172.513 E0.01808
G1 X118.207 Y172.894 F10800.000
G1 F1200.000
G1 X118.123 Y173.047 E0.00547
G1 X116.714 Y174.350 E0.06016
G1 X115.595 Y174.852 E0.03845
G1 X114.425 Y175.066 E0.03731
G1 X110.076 Y175.057 E0.13634
G1 X109.138 Y174.858 E0.03007
G1 X108.428 Y174.505 E0.02488
G1 X108.136 Y174.669 E0.01048
G1 X106.679 Y175.071 E0.04739
G1 X82.356 Y175.071 E0.76265
G1 X80.442 Y174.428 E0.06330
G1 X79.851 Y173.972 E0.02340
G1 X79.247 Y173.368 E0.02678
G1 X79.005 Y172.974 E0.01449
G1 X78.774 Y172.597 F10800.000
G1 F1200.000
G1 X78.521 Y172.184 E0.01519
G1 X78.189 Y170.868 E0.04257
G1 X78.189 Y103.117 E2.12428
G1 X51.097 Y103.117 E0.84946
G1 X50.988 Y171.559 E2.14598
G1 X50.736 Y172.261 E0.02336
G1 X50.555 Y172.597 E0.01197
G1 X50.339 Y172.974 F10800.000
G1 F1200.000
G1 X49.452 Y173.962 E0.04164
G1 X48.383 Y174.665 E0.04011
G1 X47.087 Y175.045 E0.04233
G1 X41.815 Y175.025 E0.16532
G1 X40.688 Y174.687 E0.03687
G1 X40.385 Y174.524 E0.01079
G1 X39.767 Y174.816 E0.02145
G1 X38.742 Y175.056 E0.03301
G1 X34.444 Y175.069 E0.13474
G1 X33.242 Y174.867 E0.03824
G1 X32.176 Y174.405 E0.03643
G1 X31.211 Y173.673 E0.03797
G1 X30.448 Y172.714 E0.03842
G1 X29.933 Y171.554 E0.03981
G1 X29.731 Y170.333 E0.03880
G1 X29.730 Y87.466 E2.59822
G1 X29.989 Y86.099 E0.04363
G1 X30.609 Y84.864 E0.04331
G1 X31.706 Y83.732 E0.04946
G1 X32.410 Y83.342 E0.02522
G1 X32.758 Y83.583 F10800.000
G1 F1200.000
G1 X32.867 Y83.525 E0.00388
G1 X32.867 Y82.790 E0.02302
G1 F8640.000
G1 X32.867 Y83.525 E-0.16951
G1 X32.758 Y83.583 E-0.02855
G1 E-0.60194 F2100.00000
G1 Z0.800 F10800.000
G1 X32.347 Y83.805
G1 Z0.200
G1 E0.80000 F2100.00000
G1 F1200.000
G1 X31.955 Y84.017 E0.01397
G1 X30.931 Y85.061 E0.04586
G1 X30.354 Y86.196 E0.03992
G1 X30.108 Y87.484 E0.04111
G1 X30.109 Y170.318 E2.59719
M73 Q0 S206
M73 P0 R204
G1 X30.288 Y171.425 E0.03517
G1 X30.759 Y172.501 E0.03682
G1 X31.458 Y173.387 E0.03540
G1 X32.385 Y174.090 E0.03647
G1 X33.369 Y174.511 E0.03355
G1 X34.459 Y174.692 E0.03465
G1 X38.718 Y174.679 E0.13355
G1 X39.658 Y174.455 E0.03031
G1 X40.399 Y174.098 E0.02577
G1 X40.820 Y174.333 E0.01511
G1 X41.845 Y174.648 E0.03362
G1 X47.010 Y174.676 E0.16194
G1 X48.201 Y174.333 E0.03888
G1 X49.189 Y173.691 E0.03694
G1 X49.838 Y172.974 E0.03030
G1 X50.128 Y172.597 F10800.000
G1 F1200.000
G1 X50.386 Y172.120 E0.01701
G1 X50.622 Y171.463 E0.02189
G1 X50.720 Y102.740 E2.15477
G1 X78.566 Y102.740 E0.87309
G1 X78.566 Y170.844 E2.13535
G1 X78.879 Y172.062 E0.03946
G1 X79.209 Y172.597 E0.01970
G1 X79.441 Y172.974 F10800.000
G1 F1200.000
G1 X79.529 Y173.117 E0.00526
G1 X80.109 Y173.697 E0.02571
G1 X80.647 Y174.110 E0.02127
G1 X82.386 Y174.694 E0.05754
G1 X106.653 Y174.694 E0.76086
G1 X108.008 Y174.313 E0.04412
G1 X108.412 Y174.073 E0.01474
G1 X109.243 Y174.495 E0.02924
G1 X110.098 Y174.680 E0.02741
G1 X114.408 Y174.689 E0.13514
G1 X115.503 Y174.485 E0.03494
G1 X116.531 Y174.019 E0.03537
G1 X117.736 Y172.903 E0.05150
G1 X117.984 Y172.521 F10800.000
G1 F1200.000
G1 X118.342 Y171.879 E0.02307
G1 X118.583 Y171.086 E0.02599
G1 X118.679 Y170.269 E0.02577
G1 X118.679 Y87.457 E2.59650
G1 X118.409 Y86.124 E0.04265
G1 X117.733 Y84.894 E0.04402
G1 X116.679 Y83.913 E0.04514
G1 X116.188 Y83.619 E0.01794
G1 X115.920 Y83.518 E0.00898
G1 X115.896 Y67.238 E0.51043
G1 X115.690 Y66.230 E0.03226
G1 X115.236 Y65.261 E0.03355
G1 X114.324 Y64.204 E0.04377
G1 X113.516 Y63.711 E0.02970
G1 X112.647 Y63.351 F10800.000
G1 F1200.000
G1 X111.827 Y63.150 E0.02649
G1 X100.499 Y63.127 E0.35517
G1 X37.244 Y63.123 E1.98331
G1 X36.089 Y63.318 E0.03674
G1 X35.043 Y63.785 E0.03591
G1 X34.149 Y64.499 E0.03587
G1 X33.450 Y65.436 E0.03665
G1 X33.035 Y66.435 E0.03392
G1 X32.867 Y67.538 E0.03499
G1 X32.867 Y80.017 E0.39128
G1 X33.244 Y80.043 F10800.000
G1 F1200.000
G1 X33.244 Y83.753 E0.11632
G1 X32.695 Y84.043 E0.01946
G1 X32.284 Y84.260 F10800.000
G1 F1200.000
G1 X32.201 Y84.303 E0.00295
G1 X31.254 Y85.259 E0.04219
G1 X30.702 Y86.343 E0.03813
G1 X30.485 Y87.501 E0.03695
G1 X30.486 Y170.302 E2.59616
G1 X30.656 Y171.339 E0.03296
G1 X31.094 Y172.325 E0.03381
G1 X31.737 Y173.133 E0.03239
G1 X32.592 Y173.774 E0.03349
G1 X33.494 Y174.155 E0.03070
G1 X34.473 Y174.315 E0.03111
G1 X38.694 Y174.302 E0.13236
G1 X39.548 Y174.094 E0.02756
G1 X40.220 Y173.765 E0.02345
G1 X40.376 Y173.649 E0.00608
G1 X40.954 Y173.980 E0.02090
G1 X41.877 Y174.271 E0.03033
G1 X46.934 Y174.305 E0.15857
G1 X48.022 Y174.000 E0.03544
G1 X48.928 Y173.418 E0.03375
G1 X49.333 Y172.974 E0.01883
G1 X49.677 Y172.597 F10800.000
G1 F1200.000
G1 X49.732 Y172.536 E0.00260
G1 X50.036 Y171.979 E0.01989
G1 X50.256 Y171.366 E0.02040
G1 X50.343 Y102.363 E2.16356
G1 X78.943 Y102.363 E0.89673
G1 X78.943 Y170.820 E2.14644
G1 X79.216 Y171.891 E0.03463
G1 X79.647 Y172.597 E0.02596
G1 X79.920 Y172.974 F10800.000
G1 F1200.000
G1 X80.367 Y173.421 E0.01982
G1 X80.851 Y173.792 E0.01912
G1 X82.417 Y174.317 E0.05179
G1 X106.626 Y174.317 E0.75906
G1 X107.877 Y173.959 E0.04078
G1 X108.393 Y173.638 E0.01907
G1 X109.350 Y174.132 E0.03376
G1 X110.119 Y174.303 E0.02471
G1 X114.390 Y174.311 E0.13392
G1 X115.410 Y174.119 E0.03254
G1 X116.346 Y173.689 E0.03228
G1 X117.183 Y172.914 E0.03576
G1 X117.548 Y172.530 F10800.000
G1 F1200.000
G1 X117.988 Y171.748 E0.02814
G1 X118.211 Y171.024 E0.02376
G1 X118.302 Y170.258 E0.02418
G1 X118.302 Y87.477 E2.59554
G1 X118.046 Y86.230 E0.03993
G1 X117.419 Y85.105 E0.04037
G1 X116.440 Y84.205 E0.04169
G1 X116.014 Y83.954 E0.01548
G1 X115.543 Y83.786 E0.01568
G1 X115.523 Y67.294 E0.51712
G1 X115.338 Y66.367 E0.02962
G1 X114.932 Y65.485 E0.03045
G1 X114.100 Y64.509 E0.04022
G1 X112.992 Y63.823 E0.04084
G1 X112.612 Y63.729 E0.01227
G1 F8640.000
G1 X112.992 Y63.823 E-0.09039
G1 X114.100 Y64.509 E-0.30073
G1 X114.932 Y65.485 E-0.29619
G1 X115.063 Y65.771 E-0.07269
G1 E-0.04000 F2100.00000
G1 Z0.800 F10800.000
G1 X104.522 Y63.512
G1 Z0.200
G1 E0.80000 F2100.00000
G1 F1200.000
G1 X100.499 Y63.504 E0.12616
G1 X37.259 Y63.500 E1.98283
G1 X36.220 Y63.672 E0.03303
G1 X35.220 Y64.119 E0.03435
G1 X34.405 Y64.776 E0.03281
G1 X33.768 Y65.640 E0.03366
G1 X33.393 Y66.556 E0.03103
G1 X33.244 Y67.552 E0.03157
G1 X33.244 Y77.270 E0.30470
G1 X33.621 Y77.296 F10800.000
G1 F1200.000
G1 X33.621 Y84.035 E0.21130
G1 X33.396 Y84.100 E0.00733
G1 X32.633 Y84.495 E0.02696
G1 X32.206 Y84.830 F10800.000
G1 F1200.000
G1 X31.574 Y85.459 E0.02794
G1 X31.068 Y86.441 E0.03466
G1 X30.862 Y87.519 E0.03441
G1 X30.863 Y170.286 E2.59510
G1 X31.024 Y171.252 E0.03071
G1 X31.427 Y172.147 E0.03077
G1 X32.015 Y172.877 E0.02938
G1 X32.797 Y173.457 E0.03053
G1 X33.618 Y173.798 E0.02786
G1 X34.487 Y173.938 E0.02762
G1 X38.671 Y173.925 E0.13118
G1 X39.401 Y173.746 E0.02357
G1 X40.027 Y173.440 E0.02185
G1 X40.374 Y173.140 E0.01438
G1 X40.603 Y173.344 E0.00960
G1 X41.091 Y173.629 E0.01773
G1 X41.910 Y173.894 E0.02698
G1 X46.861 Y173.935 E0.15524
G1 X47.845 Y173.666 E0.03200
G1 X48.668 Y173.144 E0.03055
G1 X48.824 Y172.974 E0.00723
G1 X49.171 Y172.597 F10800.000
G1 F1200.000
G1 X49.413 Y172.334 E0.01123
G1 X49.686 Y171.837 E0.01776
G1 X49.890 Y171.269 E0.01891
G1 X49.967 Y101.986 E2.17235
G1 X79.320 Y101.986 E0.92036
G1 X79.320 Y170.796 E2.15750
M73 Q1 S205
M73 P1 R203
G1 X79.573 Y171.768 E0.03149
G1 X80.083 Y172.597 E0.03052
G1 X80.453 Y172.974 F10800.000
G1 F1200.000
G1 X80.624 Y173.145 E0.00759
G1 X81.054 Y173.473 E0.01695
G1 X82.448 Y173.940 E0.04607
G1 X106.599 Y173.940 E0.75724
G1 X107.743 Y173.605 E0.03738
G1 X108.407 Y173.180 E0.02472
G1 X108.560 Y173.300 E0.00609
G1 X109.500 Y173.786 E0.03318
G1 X110.178 Y173.930 E0.02173
G1 X114.373 Y173.934 E0.13155
G1 X115.274 Y173.767 E0.02872
G1 X116.161 Y173.359 E0.03061
G1 X116.629 Y172.925 E0.02001
G1 X117.045 Y172.540 F10800.000
G1 F1200.000
G1 X117.181 Y172.414 E0.00580
G1 X117.634 Y171.617 E0.02876
G1 X117.846 Y170.929 E0.02255
G1 X117.925 Y170.247 E0.02154
G1 X117.925 Y87.497 E2.59458
G1 X117.683 Y86.336 E0.03717
G1 X117.106 Y85.317 E0.03671
G1 X116.232 Y84.520 E0.03709
G1 X115.840 Y84.289 E0.01427
G1 X115.167 Y84.056 E0.02234
G1 X115.149 Y67.347 E0.52390
G1 X114.985 Y66.501 E0.02702
G1 X114.626 Y65.707 E0.02734
G1 X113.873 Y64.811 E0.03667
G1 X112.870 Y64.181 E0.03715
G1 X111.778 Y63.904 E0.03532
G1 X104.526 Y63.889 E0.22739
G1 F8640.000
G1 X107.817 Y63.896 E-0.76000
G1 E-0.04000 F2100.00000
G1 Z0.800 F10800.000
G1 X85.967 Y63.880
G1 Z0.200
G1 E0.80000 F2100.00000
G1 F1200.000
G1 X37.275 Y63.878 E1.52668
G1 X36.307 Y64.040 E0.03077
G1 X35.399 Y64.452 E0.03128
G1 X34.663 Y65.052 E0.02977
G1 X34.087 Y65.843 E0.03067
G1 X33.751 Y66.676 E0.02816
G1 X33.621 Y67.565 E0.02820
G1 X33.621 Y74.523 E0.21814
G1 X33.998 Y74.548 F10800.000
G1 F1200.000
G1 X33.998 Y84.342 E0.30708
G1 X33.544 Y84.448 E0.01460
G1 X32.646 Y84.913 E0.03172
G1 X32.564 Y84.996 E0.00365
G1 X32.122 Y85.442 F10800.000
G1 F1200.000
G1 X31.864 Y85.702 E0.01150
G1 X31.416 Y86.587 E0.03108
G1 X31.239 Y87.536 E0.03030
G1 X31.240 Y170.271 E2.59409
G1 X31.379 Y171.123 E0.02705
G1 X31.737 Y171.930 E0.02770
G1 X32.293 Y172.621 E0.02780
G1 X33.000 Y173.139 E0.02748
G1 X33.739 Y173.440 E0.02501
G1 X34.530 Y173.563 E0.02510
G1 X38.647 Y173.548 E0.12908
G1 X39.253 Y173.398 E0.01959
G1 X39.836 Y173.114 E0.02032
G1 X39.990 Y172.974 E0.00653
G1 X40.754 Y172.974 F10800.000
G1 F1200.000
G1 X40.814 Y173.031 E0.00257
G1 X41.265 Y173.293 E0.01635
G1 X41.943 Y173.518 E0.02241
G1 X46.789 Y173.564 E0.15196
G1 X47.670 Y173.330 E0.02857
G1 X48.240 Y172.974 E0.02106
G1 X48.661 Y172.597 F10800.000
G1 F1200.000
G1 X49.095 Y172.130 E0.02000
G1 X49.337 Y171.695 E0.01559
G1 X49.524 Y171.173 E0.01740
G1 X49.590 Y101.608 E2.18114
G1 X79.697 Y101.608 E0.94400
G1 X79.697 Y170.771 E2.16853
G1 X79.930 Y171.643 E0.02831
G1 X80.376 Y172.364 E0.02658
G1 X80.609 Y172.597 E0.01034
G1 X81.020 Y172.974 F10800.000
G1 F1200.000
G1 X81.257 Y173.153 E0.00932
G1 X82.478 Y173.563 E0.04038
G1 X106.571 Y173.563 E0.75540
G1 X107.607 Y173.252 E0.03392
G1 X108.030 Y172.974 E0.01588
G1 X108.758 Y172.974 F10800.000
G1 F1200.000
G1 X109.649 Y173.438 E0.03150
G1 X110.233 Y173.557 E0.01870
G1 X114.355 Y173.557 E0.12924
G1 X115.180 Y173.401 E0.02631
G1 X115.975 Y173.030 E0.02750
G1 X116.076 Y172.936 E0.00433
G1 X116.491 Y172.551 F10800.000
G1 F1200.000
G1 X116.868 Y172.201 E0.01612
G1 X117.281 Y171.484 E0.02594
G1 X117.473 Y170.867 E0.02026
G1 X117.548 Y170.236 E0.01993
G1 X117.548 Y87.517 E2.59360
G1 X117.320 Y86.444 E0.03437
G1 X116.795 Y85.532 E0.03301
G1 X116.022 Y84.834 E0.03265
G1 X115.697 Y84.639 E0.01187
G1 X114.790 Y84.325 E0.03011
G1 X114.776 Y67.402 E0.53061
G1 X114.619 Y66.596 E0.02574
G1 X114.294 Y65.889 E0.02441
G1 X113.606 Y65.079 E0.03331
G1 X112.698 Y64.518 E0.03346
G1 X111.711 Y64.276 E0.03188
G1 X100.498 Y64.258 E0.35156
G1 X85.970 Y64.257 E0.45552
G1 F8640.000
G1 X89.262 Y64.257 E-0.76000
G1 E-0.04000 F2100.00000
G1 Z0.800 F10800.000
G1 X67.005 Y64.256
G1 Z0.200
G1 E0.80000 F2100.00000
G1 F1200.000
G1 X37.290 Y64.255 E0.93168
G1 X36.438 Y64.394 E0.02708
G1 X35.617 Y64.760 E0.02816
G1 X34.922 Y65.328 E0.02817
G1 X34.407 Y66.044 E0.02764
G1 X34.121 Y66.753 E0.02398
G1 X33.998 Y67.580 E0.02619
G1 X33.998 Y71.775 E0.13155
G1 X34.375 Y71.801 F10800.000
G1 F1200.000
G1 X34.375 Y84.651 E0.40291
G1 X33.693 Y84.795 E0.02185
G1 X32.847 Y85.233 E0.02988
G1 X32.479 Y85.611 E0.01651
G1 X32.014 Y86.229 F10800.000
G1 F1200.000
G1 X31.766 Y86.729 E0.01750
G1 X31.616 Y87.553 E0.02626
G1 X31.617 Y170.255 E2.59307
G1 X31.747 Y171.036 E0.02480
G1 X32.069 Y171.752 E0.02463
G1 X32.568 Y172.362 E0.02472
G1 X33.202 Y172.819 E0.02450
G1 X33.819 Y173.071 E0.02090
G1 X34.544 Y173.186 E0.02300
G1 X38.621 Y173.171 E0.12784
G1 X39.139 Y173.038 E0.01677
G1 X39.269 Y172.974 E0.00454
G1 X39.848 Y172.597 F10800.000
G1 F1200.000
G1 X40.386 Y172.097 E0.02303
G1 X40.901 Y172.597 E0.02252
G1 X41.486 Y172.974 F10800.000
G1 F1200.000
G1 X41.977 Y173.141 E0.01628
G1 X46.766 Y173.186 E0.15016
G1 X47.544 Y172.974 E0.02528
G1 X48.144 Y172.597 F10800.000
G1 F1200.000
G1 X48.778 Y171.924 E0.02900
G1 X48.987 Y171.553 E0.01337
G1 X49.158 Y171.076 E0.01587
G1 X49.213 Y101.231 E2.18994
G1 X80.074 Y101.231 E0.96763
G1 X80.074 Y170.745 E2.17954
G1 X80.286 Y171.516 E0.02508
G1 X80.657 Y172.112 E0.02203
G1 X81.144 Y172.597 E0.02153
G1 X81.878 Y172.974 F10800.000
G1 F1200.000
G1 X82.509 Y173.186 E0.02085
G1 X106.542 Y173.186 E0.75354
G1 X107.229 Y172.974 E0.02253
G1 X107.907 Y172.597 F10800.000
G1 F1200.000
G1 X108.403 Y172.094 E0.02217
G1 X108.903 Y172.597 E0.02226
G1 X109.573 Y172.974 F10800.000
G1 F1200.000
G1 X109.797 Y173.090 E0.00790
G1 X110.285 Y173.183 E0.01559
G1 X114.337 Y173.180 E0.12703
G1 X115.084 Y173.035 E0.02386
G1 X115.258 Y172.953 E0.00606
G1 X115.938 Y172.562 F10800.000
G1 F1200.000
G1 X116.557 Y171.987 E0.02648
G1 X116.928 Y171.349 E0.02314
G1 X117.101 Y170.804 E0.01795
G1 X117.171 Y170.224 E0.01830
