; generated by PrusaSlicer 2.2.0+win64 on 2020-09-20 at 03:20:14 UTC

; 

; external perimeters extrusion width = 0.45mm
; perimeters extrusion width = 0.45mm
; infill extrusion width = 0.45mm
; solid infill extrusion width = 0.45mm
; top infill extrusion width = 0.40mm
; first layer extrusion width = 0.42mm

M73 P0 R40
M73 Q0 S40
M201 X1000 Y1000 Z200 E5000 ; sets maximum accelerations, mm/sec^2
M203 X200 Y200 Z12 E120 ; sets maximum feedrates, mm/sec
M204 P1250 R1250 T1250 ; sets acceleration (P, T) and retract acceleration (R), mm/sec^2
M205 X8.00 Y8.00 Z0.40 E4.50 ; sets the jerk limits, mm/sec
M205 S0 T0 ; sets the minimum extruding and travel feed rate, mm/sec
M107
M862.3 P "MK3S" ; printer model check
M862.1 P0.4 ; nozzle diameter check
M115 U3.9.0 ; tell printer latest fw version
G90 ; use absolute coordinates
M83 ; extruder relative mode
M104 S215 ; set extruder temp
M140 S60 ; set bed temp
M190 S60 ; wait for bed temp
M109 S215 ; wait for extruder temp
G28 W ; home all without mesh bed level
G80 ; mesh bed leveling
G1 Y-3.0 F1000.0 ; go outside print area
G92 E0.0
G1 X60.0 E9.0 F1000.0 ; intro line
M73 Q0 S40
M73 P0 R40
G1 X100.0 E12.5 F1000.0 ; intro line
G92 E0.0
M221 S95

; Don't change E values below. Excessive value can damage the printer.

M907 E538 ; set extruder motor current
G21 ; set units to millimeters
G90 ; use absolute coordinates
M83 ; use relative distances for extrusion
M900 K0.06 ; Filament gcode LA 1.5
M900 K30 ; Filament gcode LA 1.0
;BEFORE_LAYER_CHANGE
G92 E0.0
;0.2


G1 E-0.80000 F2100.00000
G1 Z0.600 F10800.000
;AFTER_LAYER_CHANGE
;0.2
G1 X77.259 Y84.208
G1 Z0.200
G1 E0.80000 F2100.00000
M204 S1000
G1 F1200.000
G1 X77.572 Y83.609 E0.02119
G1 X78.042 Y83.123 E0.02119
G1 X78.625 Y82.790 E0.02107
G1 X79.282 Y82.633 E0.02119
G1 X94.504 Y82.623 E0.47727
G1 X95.816 Y82.707 E0.04123
G1 X162.124 Y92.731 E2.10266
G1 X163.425 Y92.973 E0.04148
G1 X164.700 Y93.358 E0.04175
G1 X166.002 Y93.913 E0.04438
G1 X167.108 Y94.538 E0.03984
G1 X168.427 Y95.498 E0.05116
G1 X169.359 Y96.356 E0.03972
G1 X170.264 Y97.394 E0.04318
G1 X171.047 Y98.523 E0.04307
G1 X171.700 Y99.731 E0.04306
G1 X172.216 Y101.008 E0.04318
G1 X172.561 Y102.231 E0.03984
G1 X172.820 Y103.842 E0.05115
G1 X172.877 Y105.104 E0.03960
G1 X172.789 Y106.478 E0.04318
G1 X172.550 Y107.827 E0.04295
G1 X172.169 Y109.127 E0.04247
G1 X171.618 Y110.439 E0.04461
G1 X170.884 Y111.732 E0.04664
G1 X170.061 Y112.855 E0.04365
G1 X169.221 Y113.783 E0.03924
G1 X168.287 Y114.617 E0.03925
G1 X167.073 Y115.488 E0.04687
G1 X165.856 Y116.158 E0.04354
G1 X164.566 Y116.690 E0.04378
G1 X163.171 Y117.084 E0.04545
G1 X95.748 Y127.302 E2.13812
G1 X94.510 Y127.377 E0.03888
G1 X79.493 Y127.377 E0.47088
G1 X78.708 Y127.241 E0.02496
G1 X78.085 Y126.910 E0.02213
G1 X77.584 Y126.407 E0.02225
G1 X77.254 Y125.779 E0.02225
G1 X77.124 Y125.081 E0.02225
G1 X77.123 Y84.992 E1.25695
G1 X77.249 Y84.267 E0.02308
G1 F8640.000
G1 X77.572 Y83.609 E-0.16927
G1 X78.042 Y83.123 E-0.15602
G1 X78.625 Y82.790 E-0.15515
G1 X79.282 Y82.633 E-0.15602
G1 X79.817 Y82.633 E-0.12354
G1 E-0.04000 F2100.00000
G1 Z0.800 F10800.000
G1 X151.938 Y103.046
G1 Z0.200
G1 E0.80000 F2100.00000
G1 F1200.000
G1 X152.211 Y102.099 E0.03088
G1 X152.588 Y101.190 E0.03088
G1 X153.064 Y100.328 E0.03088
G1 X153.634 Y99.524 E0.03088
G1 X154.290 Y98.790 E0.03088
G1 X155.025 Y98.134 E0.03088
G1 X155.828 Y97.564 E0.03088
G1 X156.690 Y97.088 E0.03088
G1 X157.600 Y96.711 E0.03088
G1 X158.546 Y96.438 E0.03088
G1 X159.517 Y96.273 E0.03088
G1 X160.500 Y96.218 E0.03088
G1 X161.483 Y96.273 E0.03088
G1 X162.454 Y96.438 E0.03088
G1 X163.401 Y96.711 E0.03088
G1 X164.311 Y97.088 E0.03088
G1 X165.172 Y97.564 E0.03088
G1 X165.976 Y98.134 E0.03088
G1 X166.710 Y98.790 E0.03088
G1 X167.366 Y99.524 E0.03088
G1 X167.936 Y100.328 E0.03088
G1 X168.413 Y101.190 E0.03088
G1 X168.789 Y102.099 E0.03088
G1 X169.062 Y103.046 E0.03088
G1 X169.227 Y104.017 E0.03088
G1 X169.282 Y105.000 E0.03088
G1 X169.227 Y105.983 E0.03088
G1 X169.062 Y106.954 E0.03088
G1 X168.789 Y107.901 E0.03088
G1 X168.413 Y108.810 E0.03088
G1 X167.936 Y109.672 E0.03088
G1 X167.556 Y110.208 E0.02060
G1 X167.366 Y110.476 E0.01028
G1 X166.710 Y111.210 E0.03088
G1 X165.976 Y111.866 E0.03088
G1 X165.172 Y112.436 E0.03088
G1 X164.311 Y112.912 E0.03088
G1 X163.401 Y113.289 E0.03088
G1 X162.454 Y113.562 E0.03088
G1 X161.483 Y113.727 E0.03088
G1 X160.500 Y113.782 E0.03088
G1 X159.517 Y113.727 E0.03088
G1 X158.546 Y113.562 E0.03088
G1 X157.600 Y113.289 E0.03088
G1 X156.690 Y112.912 E0.03088
G1 X155.828 Y112.436 E0.03088
G1 X155.025 Y111.866 E0.03088
G1 X154.290 Y111.210 E0.03088
G1 X153.634 Y110.476 E0.03088
G1 X153.064 Y109.672 E0.03088
G1 X152.588 Y108.810 E0.03088
G1 X152.211 Y107.901 E0.03088
G1 X151.938 Y106.954 E0.03088
G1 X151.773 Y105.983 E0.03088
G1 X151.718 Y105.000 E0.03088
G1 X151.773 Y104.017 E0.03088
G1 X151.928 Y103.105 E0.02900
G1 X152.300 Y103.168 F10800.000
G1 F1200.000
G1 X152.567 Y102.224 E0.03076
G1 X152.928 Y101.353 E0.02955
G1 X153.384 Y100.529 E0.02955
G1 X153.929 Y99.760 E0.02955
G1 X154.557 Y99.057 E0.02955
G1 X155.260 Y98.429 E0.02955
G1 X156.029 Y97.884 E0.02955
G1 X156.854 Y97.428 E0.02955
G1 X157.724 Y97.067 E0.02955
G1 X158.630 Y96.806 E0.02955
G1 X159.559 Y96.648 E0.02955
G1 X160.500 Y96.596 E0.02955
G1 X161.441 Y96.648 E0.02955
G1 X162.370 Y96.806 E0.02955
G1 X163.276 Y97.067 E0.02955
G1 X164.147 Y97.428 E0.02955
G1 X164.972 Y97.884 E0.02955
G1 X165.740 Y98.429 E0.02955
G1 X166.443 Y99.057 E0.02955
G1 X167.071 Y99.760 E0.02955
G1 X167.616 Y100.529 E0.02955
G1 X168.072 Y101.353 E0.02955
G1 X168.433 Y102.224 E0.02955
G1 X168.694 Y103.130 E0.02955
G1 X168.852 Y104.059 E0.02955
G1 X168.905 Y105.000 E0.02955
G1 X168.852 Y105.941 E0.02955
G1 X168.694 Y106.870 E0.02955
G1 X168.433 Y107.776 E0.02955
G1 X168.072 Y108.647 E0.02955
G1 X167.616 Y109.471 E0.02955
G1 X167.248 Y109.990 E0.01994
G1 X167.071 Y110.240 E0.00961
G1 X166.443 Y110.943 E0.02955
G1 X165.740 Y111.571 E0.02955
G1 X164.972 Y112.116 E0.02955
G1 X164.147 Y112.572 E0.02955
G1 X163.276 Y112.933 E0.02955
G1 X162.370 Y113.194 E0.02955
G1 X161.441 Y113.352 E0.02955
G1 X160.500 Y113.404 E0.02955
G1 X159.559 Y113.352 E0.02955
G1 X158.630 Y113.194 E0.02955
G1 X157.724 Y112.933 E0.02955
G1 X156.854 Y112.572 E0.02955
G1 X156.029 Y112.116 E0.02955
G1 X155.260 Y111.571 E0.02955
G1 X154.557 Y110.943 E0.02955
G1 X153.929 Y110.240 E0.02955
G1 X153.384 Y109.471 E0.02955
G1 X152.928 Y108.647 E0.02955
G1 X152.567 Y107.776 E0.02955
G1 X152.306 Y106.870 E0.02955
G1 X152.149 Y105.941 E0.02955
G1 X152.096 Y105.000 E0.02955
G1 X152.149 Y104.059 E0.02955
G1 X152.290 Y103.227 E0.02645
G1 X152.006 Y102.897 F10800.000
G1 F8640.000
G1 X152.567 Y102.224 E-0.24031
G1 X152.928 Y101.353 E-0.21762
G1 X153.384 Y100.529 E-0.21762
G1 X153.596 Y100.230 E-0.08445
G1 E-0.04000 F2100.00000
G1 Z0.800 F10800.000
G1 X80.287 Y124.213
G1 Z0.200
G1 E0.80000 F2100.00000
G1 F1200.000
G1 X80.287 Y85.787 E1.20482
G1 X94.476 Y85.787 E0.44489
G1 X95.369 Y85.841 E0.02805
G1 X96.226 Y85.998 E0.02730
G1 X97.057 Y86.257 E0.02730
G1 X97.851 Y86.615 E0.02730
G1 X98.597 Y87.065 E0.02730
G1 X99.282 Y87.602 E0.02730
G1 X99.898 Y88.218 E0.02730
G1 X100.435 Y88.903 E0.02730
G1 X100.886 Y89.649 E0.02730
G1 X101.243 Y90.443 E0.02730
G1 X101.502 Y91.274 E0.02730
G1 X101.659 Y92.131 E0.02730
G1 X101.713 Y93.024 E0.02805
G1 X101.713 Y96.090 E0.09614
G1 X101.780 Y96.870 E0.02454
G1 X101.986 Y97.660 E0.02560
G1 X102.324 Y98.403 E0.02560
G1 X102.783 Y99.078 E0.02560
G1 X103.351 Y99.665 E0.02560
G1 X104.009 Y100.148 E0.02560
G1 X104.740 Y100.511 E0.02560
G1 X105.522 Y100.746 E0.02560
G1 X106.299 Y100.839 E0.02454
G1 X149.747 Y102.357 E1.36308
G1 X150.333 Y102.310 E0.01844
G1 X150.937 Y102.120 E0.01985
G1 X151.482 Y101.798 E0.01985
G1 X151.940 Y101.362 E0.01985
G1 X152.252 Y100.889 E0.01775
G1 X152.801 Y99.942 E0.03432
G1 X153.413 Y99.116 E0.03223
G1 X154.112 Y98.363 E0.03223
G1 X154.891 Y97.693 E0.03223
G1 X155.740 Y97.113 E0.03223
G1 X156.649 Y96.632 E0.03223
G1 X157.605 Y96.255 E0.03223
G1 X158.597 Y95.987 E0.03223
G1 X159.613 Y95.831 E0.03223
G1 X160.640 Y95.789 E0.03223
G1 X161.666 Y95.862 E0.03223
G1 X162.676 Y96.049 E0.03223
G1 X163.660 Y96.347 E0.03223
G1 X164.604 Y96.753 E0.03223
G1 X165.498 Y97.262 E0.03223
G1 X166.329 Y97.867 E0.03223
G1 X167.087 Y98.560 E0.03223
G1 X167.763 Y99.334 E0.03223
G1 X168.349 Y100.179 E0.03223
G1 X168.838 Y101.083 E0.03223
G1 X169.222 Y102.037 E0.03223
G1 X169.498 Y103.027 E0.03223
G1 X169.662 Y104.041 E0.03223
G1 X169.712 Y105.068 E0.03223
G1 X169.647 Y106.094 E0.03223
G1 X169.468 Y107.106 E0.03223
G1 X169.177 Y108.092 E0.03223
G1 X168.779 Y109.040 E0.03223
G1 X168.277 Y109.937 E0.03223
G1 X167.679 Y110.773 E0.03223
G1 X166.991 Y111.536 E0.03223
G1 X166.222 Y112.219 E0.03223
G1 X165.383 Y112.811 E0.03223
G1 X164.482 Y113.307 E0.03223
G1 X163.532 Y113.699 E0.03223
G1 X162.544 Y113.982 E0.03223
G1 X161.530 Y114.154 E0.03223
G1 X160.504 Y114.212 E0.03223
G1 X159.478 Y114.155 E0.03223
G1 X158.464 Y113.984 E0.03223
G1 X157.500 Y113.708 E0.03144
G1 X156.525 Y113.310 E0.03304
G1 X155.624 Y112.815 E0.03221
G1 X154.784 Y112.224 E0.03223
G1 X154.015 Y111.542 E0.03223
G1 X153.326 Y110.779 E0.03223
G1 X152.727 Y109.943 E0.03223
G1 X152.192 Y108.988 E0.03434
G1 X151.882 Y108.505 E0.01799
G1 X151.422 Y108.058 E0.02011
G1 X150.872 Y107.728 E0.02011
G1 X150.262 Y107.532 E0.02011
G1 X149.668 Y107.484 E0.01868
G1 X106.299 Y108.999 E1.36062
G1 X105.522 Y109.093 E0.02454
G1 X104.740 Y109.327 E0.02560
G1 X104.009 Y109.691 E0.02560
G1 X103.351 Y110.173 E0.02560
G1 X102.783 Y110.760 E0.02560
G1 X102.324 Y111.435 E0.02560
G1 X101.986 Y112.179 E0.02560
G1 X101.780 Y112.968 E0.02560
G1 X101.713 Y113.748 E0.02454
G1 X101.713 Y116.976 E0.10121
G1 X101.659 Y117.869 E0.02805
G1 X101.502 Y118.726 E0.02730
G1 X101.243 Y119.557 E0.02730
G1 X100.886 Y120.351 E0.02730
G1 X100.435 Y121.097 E0.02730
G1 X99.898 Y121.782 E0.02730
G1 X99.282 Y122.398 E0.02730
G1 X98.597 Y122.935 E0.02730
G1 X97.851 Y123.385 E0.02730
G1 X97.057 Y123.743 E0.02730
G1 X96.226 Y124.002 E0.02730
G1 X95.369 Y124.159 E0.02730
G1 X94.476 Y124.213 E0.02805
G1 X80.347 Y124.213 E0.44301
G1 X79.910 Y124.590 F10800.000
G1 F1200.000
G1 X79.910 Y85.410 E1.22846
G1 X94.488 Y85.410 E0.45707
G1 X95.415 Y85.466 E0.02912
G1 X96.316 Y85.631 E0.02873
G1 X97.191 Y85.904 E0.02873
G1 X98.027 Y86.280 E0.02873
G1 X98.811 Y86.754 E0.02873
G1 X99.533 Y87.319 E0.02874
G1 X100.181 Y87.967 E0.02873
G1 X100.746 Y88.689 E0.02873
G1 X101.220 Y89.473 E0.02873
G1 X101.596 Y90.309 E0.02873
G1 X101.869 Y91.184 E0.02873
G1 X102.034 Y92.085 E0.02873
G1 X102.090 Y93.012 E0.02912
G1 X102.090 Y96.074 E0.09599
G1 X102.153 Y96.806 E0.02303
G1 X102.343 Y97.533 E0.02358
G1 X102.654 Y98.218 E0.02358
G1 X103.077 Y98.839 E0.02358
G1 X103.599 Y99.380 E0.02358
G1 X104.206 Y99.825 E0.02358
G1 X104.879 Y100.159 E0.02358
G1 X105.600 Y100.375 E0.02358
G1 X106.329 Y100.463 E0.02303
G1 X149.738 Y101.979 E1.36191
G1 X150.260 Y101.938 E0.01642
G1 X150.782 Y101.773 E0.01715
G1 X151.253 Y101.495 E0.01715
G1 X151.649 Y101.118 E0.01715
G1 X151.931 Y100.691 E0.01606
G1 X152.486 Y99.735 E0.03464
G1 X153.122 Y98.875 E0.03355
G1 X153.850 Y98.091 E0.03355
G1 X154.661 Y97.393 E0.03355
G1 X155.545 Y96.790 E0.03355
G1 X156.491 Y96.289 E0.03355
G1 X157.486 Y95.897 E0.03355
G1 X158.519 Y95.617 E0.03355
G1 X159.577 Y95.455 E0.03355
G1 X160.646 Y95.412 E0.03355
G1 X161.713 Y95.488 E0.03355
G1 X162.766 Y95.682 E0.03355
G1 X163.790 Y95.992 E0.03355
G1 X164.773 Y96.415 E0.03355
G1 X165.702 Y96.944 E0.03355
G1 X166.568 Y97.574 E0.03355
G1 X167.357 Y98.296 E0.03355
G1 X168.061 Y99.102 E0.03355
G1 X168.671 Y99.981 E0.03355
G1 X169.180 Y100.923 E0.03355
G1 X169.580 Y101.915 E0.03355
G1 X169.867 Y102.946 E0.03355
G1 X170.037 Y104.002 E0.03355
G1 X170.089 Y105.071 E0.03355
G1 X170.022 Y106.139 E0.03355
G1 X169.835 Y107.193 E0.03355
G1 X169.533 Y108.219 E0.03355
G1 X169.118 Y109.205 E0.03355
G1 X168.596 Y110.139 E0.03355
G1 X167.973 Y111.009 E0.03355
G1 X167.257 Y111.804 E0.03355
G1 X166.457 Y112.515 E0.03355
G1 X165.583 Y113.132 E0.03355
G1 X164.645 Y113.647 E0.03355
G1 X163.656 Y114.055 E0.03355
G1 X162.627 Y114.350 E0.03355
G1 X161.572 Y114.529 E0.03355
G1 X160.504 Y114.589 E0.03355
G1 X159.436 Y114.530 E0.03355
G1 X158.381 Y114.352 E0.03355
G1 X157.377 Y114.065 E0.03274
G1 X156.362 Y113.651 E0.03436
G1 X155.424 Y113.136 E0.03354
G1 X154.550 Y112.520 E0.03355
G1 X153.749 Y111.810 E0.03355
G1 X153.032 Y111.015 E0.03355
G1 X152.409 Y110.146 E0.03355
G1 X151.868 Y109.182 E0.03465
G1 X151.588 Y108.745 E0.01627
G1 X151.191 Y108.359 E0.01737
G1 X150.716 Y108.074 E0.01737
G1 X150.188 Y107.905 E0.01737
G1 X149.659 Y107.862 E0.01663
G1 X106.329 Y109.375 E1.35943
G1 X105.600 Y109.463 E0.02303
G1 X104.879 Y109.679 E0.02358
G1 X104.206 Y110.014 E0.02358
G1 X103.599 Y110.458 E0.02358
G1 X103.077 Y110.999 E0.02358
G1 X102.654 Y111.621 E0.02358
G1 X102.343 Y112.305 E0.02358
G1 X102.153 Y113.033 E0.02358
G1 X102.090 Y113.764 E0.02303
G1 X102.090 Y116.988 E0.10106
G1 X102.034 Y117.915 E0.02912
G1 X101.869 Y118.816 E0.02873
G1 X101.596 Y119.691 E0.02873
G1 X101.220 Y120.527 E0.02873
G1 X100.746 Y121.311 E0.02873
G1 X100.181 Y122.033 E0.02873
G1 X99.533 Y122.681 E0.02873
G1 X98.811 Y123.246 E0.02874
G1 X98.027 Y123.720 E0.02873
G1 X97.191 Y124.096 E0.02873
G1 X96.316 Y124.369 E0.02873
G1 X95.415 Y124.534 E0.02873
G1 X94.488 Y124.590 E0.02912
G1 X79.970 Y124.590 E0.45519
G1 X80.110 Y124.243 F10800.000
G1 F8640.000
G1 X79.965 Y121.299 E-0.76000
G1 E-0.04000 F2100.00000
G1 Z0.800 F10800.000
G1 X80.400 Y123.338
G1 Z0.200
G1 E0.80000 F2100.00000
G1 F1200.000
G1 X80.993 Y123.930 E0.02628
G1 X81.526 Y123.930 E0.01672
G1 X80.570 Y122.974 E0.04240
G1 X80.570 Y122.441 E0.01672
G1 X82.059 Y123.930 E0.06605
G1 X82.593 Y123.930 E0.01672
G1 X80.570 Y121.907 E0.08970
G1 X80.570 Y121.374 E0.01672
G1 X83.126 Y123.930 E0.11334
G1 X83.659 Y123.930 E0.01672
G1 X80.570 Y120.841 E0.13699
G1 X80.570 Y120.307 E0.01672
G1 X84.193 Y123.930 E0.16064
G1 X84.726 Y123.930 E0.01672
G1 X80.570 Y119.774 E0.18429
G1 X80.570 Y119.241 E0.01672
G1 X85.259 Y123.930 E0.20794
G1 X85.793 Y123.930 E0.01672
G1 X80.570 Y118.708 E0.23158
G1 X80.570 Y118.174 E0.01672
G1 X86.326 Y123.930 E0.25523
G1 X86.859 Y123.930 E0.01672
G1 X80.570 Y117.641 E0.27888
G1 X80.570 Y117.108 E0.01672
G1 X87.392 Y123.930 E0.30253
G1 X87.926 Y123.930 E0.01672
G1 X80.570 Y116.574 E0.32618
G1 X80.570 Y116.041 E0.01672
G1 X88.459 Y123.930 E0.34982
G1 X88.992 Y123.930 E0.01672
G1 X80.570 Y115.508 E0.37347
G1 X80.570 Y114.975 E0.01672
G1 X89.526 Y123.930 E0.39712
G1 X90.059 Y123.930 E0.01672
G1 X80.570 Y114.441 E0.42077
G1 X80.570 Y113.908 E0.01672
G1 X90.592 Y123.930 E0.44442
G1 X91.125 Y123.930 E0.01672
G1 X80.570 Y113.375 E0.46806
G1 X80.570 Y112.841 E0.01672
G1 X91.659 Y123.930 E0.49171
G1 X92.192 Y123.930 E0.01672
G1 X80.570 Y112.308 E0.51536
M73 Q2 S39
G1 X80.570 Y111.775 E0.01672
G1 X92.725 Y123.930 E0.53901
M73 P2 R39
G1 X93.259 Y123.930 E0.01672
G1 X80.570 Y111.242 E0.56265
G1 X80.570 Y110.708 E0.01672
G1 X93.792 Y123.930 E0.58630
G1 X94.325 Y123.930 E0.01672
G1 X80.570 Y110.175 E0.60995
G1 X80.570 Y109.642 E0.01672
G1 X94.836 Y123.908 E0.63261
G1 X95.339 Y123.877 E0.01578
G1 X80.570 Y109.108 E0.65489
G1 X80.570 Y108.575 E0.01672
G1 X95.789 Y123.794 E0.67488
G1 X96.232 Y123.704 E0.01417
G1 X80.570 Y108.042 E0.69451
G1 X80.570 Y107.508 E0.01672
G1 X96.639 Y123.577 E0.71254
G1 X97.037 Y123.442 E0.01318
G1 X80.570 Y106.975 E0.73019
G1 X80.570 Y106.442 E0.01672
G1 X97.405 Y123.276 E0.74650
G1 X97.767 Y123.106 E0.01257
G1 X80.570 Y105.909 E0.76259
G1 X80.570 Y105.375 E0.01672
G1 X98.100 Y122.905 E0.77732
G1 X98.432 Y122.704 E0.01218
G1 X80.570 Y104.842 E0.79206
G1 X80.570 Y104.309 E0.01672
G1 X98.731 Y122.470 E0.80534
G1 X99.030 Y122.236 E0.01191
G1 X80.570 Y103.775 E0.81860
G1 X80.570 Y103.242 E0.01672
G1 X99.304 Y121.976 E0.83073
G1 X99.571 Y121.710 E0.01182
G1 X80.570 Y102.709 E0.84255
G1 X80.570 Y102.176 E0.01672
G1 X99.819 Y121.425 E0.85356
G1 X100.053 Y121.125 E0.01191
G1 X80.570 Y101.642 E0.86395
G1 X80.570 Y101.109 E0.01672
