; generated by PrusaSlicer 2.4.0+win64 on 2022-03-02 at 15:19:19 UTC

; 

; external perimeters extrusion width = 0.60mm
; perimeters extrusion width = 0.50mm
; infill extrusion width = 0.50mm
; solid infill extrusion width = 0.50mm
; top infill extrusion width = 0.45mm
; first layer extrusion width = 0.42mm

; external perimeters extrusion width = 0.60mm
; perimeters extrusion width = 0.50mm
; infill extrusion width = 0.50mm
; solid infill extrusion width = 0.50mm
; top infill extrusion width = 0.45mm
; first layer extrusion width = 0.42mm

; external perimeters extrusion width = 0.60mm
; perimeters extrusion width = 0.50mm
; infill extrusion width = 0.50mm
; solid infill extrusion width = 0.50mm
; top infill extrusion width = 0.45mm
; first layer extrusion width = 0.42mm

; external perimeters extrusion width = 0.60mm
; perimeters extrusion width = 0.50mm
; infill extrusion width = 0.50mm
; solid infill extrusion width = 0.50mm
; top infill extrusion width = 0.45mm
; first layer extrusion width = 0.42mm

M73 P0 R89
M73 Q0 S103
M201 X4000 Y4000 Z1000 E5000 ; sets maximum accelerations, mm/sec^2
M203 X200 Y200 Z12 E120 ; sets maximum feedrates, mm/sec
M204 P2000 R2000 T2000 ; sets acceleration (P, T) and retract acceleration (R), mm/sec^2
M205 X8.00 Y8.00 Z0.40 E4.50 ; sets the jerk limits, mm/sec
M205 S0 T0 ; sets the minimum extruding and travel feed rate, mm/sec
M107
;TYPE:Custom
M862.3 P "MK3S" ; printer model check
M862.1 P0.4 ; nozzle diameter check
M115 U3.10.0 ; tell printer latest fw version
G90 ; use absolute coordinates
M83 ; extruder relative mode
M104 S225 ; set extruder temp
M140 S80 ; set bed temp
M190 S80 ; wait for bed temp
M109 S225 ; wait for extruder temp
G28 W ; home all without mesh bed level
G80 ; mesh bed leveling
G1 Y-3.0 F1000.0 ; go outside print area
G92 E0.0
G1 X60.0 E9.0 F1000.0 ; intro line
G1 X100.0 E12.5 F1000.0 ; intro line
G92 E0.0
M221 S95

; Don't change E values below. Excessive value can damage the printer.

M907 E538 ; set extruder motor current
G21 ; set units to millimeters
G90 ; use absolute coordinates
M83 ; use relative distances for extrusion
M900 K0.05 ; Filament gcode LA 1.5
M900 K30 ; Filament gcode LA 1.0
M107
;LAYER_CHANGE
;Z:0.2
;HEIGHT:0.2
;BEFORE_LAYER_CHANGE
G92 E0.0
;0.2


G1 E-.6 F3600
G1 Z.2 F10800
;AFTER_LAYER_CHANGE
;0.2
G1 X87.846 Y93.507
G1 E.6 F3600
M204 S1000
;TYPE:Skirt/Brim
;WIDTH:0.42
G1 X171.767 Y14.667 E3.6103
G1 X173.179 Y13.7 E.05366
G1 X174.526 Y12.998 E.04763
G1 X203.007 Y.675 E.973
G1 X204.637 Y.581 E.0512
G1 X210.386 Y2.315 E.18827
G1 X211.692 Y3.295 E.0512
G1 X228.408 Y29.005 E.96153
G1 X229.489 Y30.965 E.07018
G1 X230.182 Y32.879 E.06382
G1 X230.544 Y34.552 E.05366
G1 X230.676 Y35.902 E.04254
G1 X230.631 Y37.937 E.06382
G1 X227.062 Y68.764 E.973
G1 X226.336 Y70.215 E.05089
G1 X178.684 Y115.385 E2.05866
G1 X85.766 Y203.024 E4.00482
G1 X84.264 Y203.666 E.0512
G1 X53.641 Y205.287 E.96153
G1 X51.403 Y205.243 E.07018
G1 X49.399 Y204.886 E.06382
G1 X48.102 Y204.489 E.04254
G1 X46.533 Y203.803 E.05366
G1 X44.794 Y202.746 E.06382
G1 X19.882 Y184.242 E.973
G1 X18.985 Y182.877 E.0512
G1 X17.613 Y177.032 E.18827
G1 X17.809 Y175.41 E.0512
G1 X31.884 Y147.754 E.973
G1 X32.873 Y146.163 E.05875
G1 X34.17 Y144.62 E.06319
G1 X77.193 Y103.516 E1.86565
G1 X87.803 Y93.548 E.45644
M204 S2000
;WIPE_START
M73 P0 R88
G1 F8640
G1 X88.852 Y92.562 E-.57
;WIPE_END
G1 E-.03 F3600
G1 X87.41 Y102.063 F10800
G1 E.6 F3600
M204 S1000
G1 X88.385 Y102.108 E.03061
G1 X89.858 Y102.392 E.04704
G1 X91.269 Y102.868 E.04669
G1 X92.776 Y103.632 E.05297
G1 X94.096 Y104.573 E.05083
G1 X95.136 Y105.54 E.04453
G1 X109.159 Y92.367 E.60326
G1 X110.319 Y91.684 E.04223
G1 X110.492 Y91.453 E.00904
G1 X124.509 Y78.284 E.60302
G1 X123.579 Y77.144 E.04613
G1 X122.739 Y75.783 E.05015
G1 X122.1 Y74.305 E.0505
G1 X121.679 Y72.736 E.05092
G1 X121.505 Y71.339 E.04415
G1 X121.508 Y69.934 E.04405
G1 X121.717 Y68.407 E.04831
G1 X122.094 Y67.043 E.04436
G1 X122.631 Y65.76 E.04363
G1 X123.591 Y64.17 E.05822
G1 X124.436 Y63.143 E.04173
G1 X125.399 Y62.222 E.04175
G1 X126.623 Y61.323 E.04763
G1 X127.943 Y60.606 E.04708
G1 X129.58 Y60.009 E.05464
G1 X130.894 Y59.727 E.04216
G1 X132.232 Y59.612 E.04209
G1 X134.08 Y59.71 E.05803
G1 X135.433 Y59.986 E.04329
G1 X136.742 Y60.429 E.04334
G1 X138.24 Y61.181 E.05254
G1 X139.63 Y62.167 E.05344
G1 X140.651 Y63.12 E.04379
G1 X154.683 Y49.938 E.60365
G1 X155.969 Y49.217 E.04622
G1 X156.98 Y48.962 E.0327
G1 X157.016 Y48.483 E.01507
G1 X157.379 Y47.422 E.03518
G1 X158.138 Y46.289 E.04275
G1 X172.157 Y33.118 E.60311
G1 X171.226 Y31.977 E.0462
G1 X170.385 Y30.615 E.05017
G1 X169.747 Y29.138 E.05046
G1 X169.327 Y27.57 E.05087
G1 X169.152 Y26.173 E.04415
G1 X169.156 Y24.768 E.04405
G1 X169.365 Y23.242 E.04831
G1 X169.742 Y21.878 E.04436
G1 X170.278 Y20.594 E.04363
G1 X171.238 Y19.005 E.05822
G1 X172.084 Y17.977 E.04173
G1 X173.046 Y17.057 E.04175
G1 X174.271 Y16.157 E.04763
G1 X175.59 Y15.441 E.04708
G1 X177.227 Y14.843 E.05464
G1 X178.542 Y14.562 E.04216
G1 X179.879 Y14.446 E.04209
G1 X181.728 Y14.544 E.05803
G1 X183.08 Y14.821 E.04329
G1 X184.39 Y15.263 E.04334
G1 X185.887 Y16.015 E.05254
G1 X187.277 Y17.002 E.05344
G1 X188.299 Y17.954 E.04379
G1 X202.333 Y4.769 E.60378
G1 X203.84 Y3.969 E.0535
G1 X204.792 Y3.776 E.03045
G1 X205.812 Y3.78 E.03196
G1 X207.167 Y4.126 E.04386
G1 X208.374 Y4.797 E.04329
G1 X209.304 Y5.752 E.04181
G1 X209.943 Y6.958 E.04279
G1 X214.39 Y25.826 E.60779
G1 X215.768 Y25.597 E.04379
G1 X217.443 Y25.542 E.05256
G1 X219.087 Y25.736 E.05191
G1 X220.505 Y26.112 E.04598
G1 X221.795 Y26.641 E.04372
G1 X222.999 Y27.32 E.04335
G1 X224.207 Y28.229 E.04738
G1 X225.423 Y29.459 E.05424
G1 X226.385 Y30.787 E.0514
G1 X227.082 Y32.11 E.0469
G1 X227.595 Y33.519 E.04701
G1 X227.897 Y34.879 E.04367
G1 X228.026 Y36.255 E.04334
G1 X227.966 Y37.797 E.0484
G1 X227.722 Y39.193 E.04443
G1 X227.305 Y40.538 E.04415
G1 X226.62 Y42.001 E.05065
G1 X225.764 Y43.304 E.04887
G1 X224.789 Y44.42 E.04648
G1 X223.68 Y45.39 E.04619
G1 X222.312 Y46.281 E.05119
G1 X220.859 Y46.951 E.05015
G1 X219.452 Y47.387 E.0462
G1 X223.861 Y66.216 E.60635
G1 X223.843 Y67.536 E.04137
G1 X223.491 Y68.741 E.03938
G1 X222.927 Y69.695 E.03475
G1 X221.854 Y70.749 E.04716
G1 X220.861 Y71.327 E.03601
G1 X219.756 Y71.649 E.03612
G1 X218.078 Y71.618 E.05262
G1 X199.589 Y66.046 E.60544
G1 X199.098 Y67.354 E.04379
G1 X198.308 Y68.832 E.05256
G1 X197.319 Y70.158 E.05187
G1 X196.331 Y71.157 E.04405
G1 X195.223 Y72.023 E.0441
G1 X193.985 Y72.758 E.04512
G1 X192.62 Y73.339 E.04652
G1 X190.929 Y73.783 E.05482
G1 X189.299 Y73.953 E.0514
G1 X187.822 Y73.898 E.04634
G1 X186.36 Y73.645 E.04651
G1 X185.026 Y73.23 E.0438
G1 X183.745 Y72.644 E.04417
G1 X182.438 Y71.821 E.04842
G1 X181.349 Y70.911 E.04452
G1 X180.391 Y69.875 E.04423
G1 X179.465 Y68.55 E.05067
G1 X178.765 Y67.157 E.04891
G1 X178.289 Y65.765 E.04612
G1 X178.001 Y64.307 E.04658
G1 X177.913 Y62.679 E.05113
G1 X178.06 Y61.086 E.05015
G1 X178.385 Y59.65 E.0462
G1 X162.989 Y55.005 E.50422
G1 X166.742 Y70.991 E.51486
G1 X168.196 Y70.755 E.04616
G1 X169.764 Y70.707 E.04921
G1 X171.328 Y70.881 E.04933
G1 X172.71 Y71.23 E.0447
G1 X174.031 Y71.75 E.04449
G1 X175.347 Y72.483 E.04726
G1 X176.577 Y73.41 E.04827
G1 X177.66 Y74.491 E.048
G1 X178.645 Y75.807 E.05152
G1 X179.432 Y77.271 E.05212
G1 X179.917 Y78.581 E.04381
G1 X180.233 Y79.939 E.04371
G1 X180.378 Y81.389 E.0457
G1 X180.332 Y82.834 E.04533
G1 X180.055 Y84.438 E.05101
G1 X179.628 Y85.78 E.04417
G1 X179.024 Y87.076 E.04482
G1 X178.147 Y88.429 E.05056
G1 X177.176 Y89.55 E.0465
G1 X176.077 Y90.521 E.046
G1 X174.69 Y91.433 E.05204
G1 X173.14 Y92.144 E.05347
G1 X171.804 Y92.552 E.04379
G1 X176.201 Y111.281 E.60321
G1 X176.202 Y112.665 E.04337
G1 X175.801 Y114 E.04371
G1 X175.037 Y115.157 E.04348
G1 X174.223 Y115.904 E.03463
G1 X173.308 Y116.454 E.03349
G1 X172.006 Y116.827 E.04245
G1 X170.621 Y116.813 E.04343
G1 X151.942 Y111.211 E.61145
G1 X151.451 Y112.52 E.04381
G1 X150.645 Y114.022 E.05345
G1 X149.654 Y115.344 E.0518
G1 X148.647 Y116.354 E.04472
G1 X147.535 Y117.216 E.04412
G1 X146.337 Y117.923 E.04361
G1 X144.999 Y118.496 E.04566
G1 X143.282 Y118.949 E.05568
G1 X141.651 Y119.119 E.05139
G1 X140.2 Y119.066 E.04554
G1 X138.786 Y118.828 E.04496
G1 X137.402 Y118.404 E.04537
G1 X136.097 Y117.81 E.04495
G1 X134.791 Y116.987 E.04843
G1 X133.701 Y116.076 E.04452
G1 X132.743 Y115.041 E.04423
G1 X131.818 Y113.716 E.05067
G1 X131.117 Y112.322 E.04891
G1 X130.642 Y110.93 E.04612
G1 X130.353 Y109.473 E.04658
G1 X130.265 Y107.845 E.05113
G1 X130.412 Y106.252 E.05015
G1 X130.738 Y104.815 E.0462
G1 X118.33 Y101.072 E.40635
G1 X121.227 Y113.412 E.39742
G1 X122.682 Y113.176 E.0462
G1 X124.28 Y113.129 E.05015
G1 X125.9 Y113.318 E.05112
G1 X127.308 Y113.688 E.04566
G1 X128.666 Y114.244 E.046
G1 X130.036 Y115.04 E.04969
G1 X131.277 Y116.023 E.04963
G1 X132.262 Y117.048 E.04458
G1 X133.095 Y118.173 E.04387
G1 X133.848 Y119.541 E.04898
G1 X134.361 Y120.867 E.04458
G1 X134.695 Y122.229 E.04398
G1 X134.867 Y124.002 E.05583
G1 X134.798 Y125.431 E.04488
G1 X134.547 Y126.83 E.04454
G1 X134.115 Y128.195 E.0449
G1 X133.474 Y129.558 E.04723
G1 X132.557 Y130.949 E.05224
G1 X131.631 Y132.001 E.04395
G1 X130.577 Y132.93 E.04404
G1 X129.174 Y133.854 E.05267
G1 X127.625 Y134.565 E.05345
G1 X126.289 Y134.973 E.04379
G1 X130.685 Y153.697 E.60303
G1 X130.712 Y154.894 E.03755
G1 X130.443 Y156.053 E.03731
G1 X129.567 Y157.522 E.05361
G1 X128.277 Y158.624 E.0532
G1 X127.446 Y159.013 E.02876
G1 X126.559 Y159.242 E.02875
G1 X125.12 Y159.236 E.04511
G1 X106.427 Y153.632 E.61189
G1 X105.936 Y154.94 E.04381
G1 X105.145 Y156.418 E.05255
G1 X104.123 Y157.783 E.05345
G1 X103.138 Y158.77 E.04374
G1 X102.052 Y159.615 E.04314
G1 X100.569 Y160.469 E.05366
G1 X99.272 Y160.989 E.04382
G1 X97.9 Y161.345 E.04444
G1 X96.161 Y161.539 E.05485
G1 X94.698 Y161.488 E.04589
G1 X93.263 Y161.247 E.04564
G1 X91.94 Y160.845 E.04335
G1 X90.691 Y160.289 E.04286
G1 X91.343 Y161.989 E.05707
G1 X91.672 Y163.329 E.04326
G1 X91.846 Y165.173 E.05809
G1 X91.77 Y166.574 E.04397
G1 X91.523 Y167.937 E.04346
G1 X91.084 Y169.319 E.04544
G1 X90.467 Y170.635 E.04559
G1 X89.511 Y172.082 E.05439
G1 X88.598 Y173.115 E.04322
G1 X87.551 Y174.037 E.04374
G1 X86.126 Y174.972 E.05345
G1 X84.601 Y175.669 E.05255
G1 X83.266 Y176.077 E.0438
G1 X87.687 Y195.027 E.61012
G1 X87.612 Y196.505 E.04641
G1 X87.36 Y197.303 E.02624
G1 X86.974 Y198.068 E.02687
G1 X85.894 Y199.255 E.0503
G1 X84.956 Y199.893 E.03557
G1 X83.457 Y200.352 E.04916
G1 X81.839 Y200.299 E.05076
G1 X63.403 Y194.737 E.60377
G1 X62.913 Y196.044 E.04379
G1 X62.107 Y197.546 E.05344
G1 X61.1 Y198.886 E.05255
G1 X60.115 Y199.874 E.04374
G1 X59.029 Y200.719 E.04315
G1 X57.545 Y201.574 E.05369
G1 X56.224 Y202.101 E.04461
G1 X54.822 Y202.459 E.04537
G1 X53.136 Y202.643 E.05316
G1 X51.622 Y202.587 E.0475
G1 X50.143 Y202.328 E.04709
G1 X48.872 Y201.932 E.04173
G1 X47.658 Y201.388 E.04172
G1 X46.09 Y200.391 E.05827
G1 X44.975 Y199.418 E.04638
G1 X44.032 Y198.348 E.04473
G1 X43.228 Y197.153 E.04516
G1 X42.6 Y195.896 E.04405
G1 X42.134 Y194.568 E.04414
G1 X41.813 Y192.977 E.05087
G1 X41.727 Y191.37 E.05046
G1 X41.874 Y189.777 E.05017
G1 X42.2 Y188.34 E.0462
G1 X23.765 Y182.778 E.60374
G1 X22.336 Y181.89 E.05277
G1 X21.75 Y181.247 E.02727
G1 X21.291 Y180.539 E.02647
G1 X20.729 Y178.384 E.06983
G1 X20.787 Y177.416 E.0304
G1 X21.039 Y176.463 E.0309
G1 X21.696 Y175.293 E.04206
G1 X35.973 Y161.81 E.61572
G1 X35.085 Y160.73 E.04385
G1 X34.187 Y159.281 E.05344
G1 X33.53 Y157.74 E.05254
G1 X33.17 Y156.403 E.04339
G1 X32.978 Y155.027 E.04358
G1 X32.982 Y153.293 E.05437
G1 X33.2 Y151.832 E.0463
G1 X33.589 Y150.473 E.04432
G1 X34.141 Y149.189 E.04383
G1 X34.853 Y147.98 E.04399
G1 X36.039 Y146.517 E.05906
G1 X37.054 Y145.587 E.04316
G1 X38.186 Y144.785 E.04348
G1 X39.533 Y144.074 E.04777
G1 X40.905 Y143.572 E.04581
G1 X42.541 Y143.226 E.05241
G1 X44.013 Y143.134 E.04625
G1 X45.369 Y143.212 E.04259
G1 X46.749 Y143.473 E.04403
G1 X48.292 Y143.991 E.05105
G1 X49.728 Y144.721 E.05051
G1 X51.034 Y145.645 E.05015
G1 X52.113 Y146.644 E.04612
G1 X64.07 Y135.412 E.51435
G1 X64.245 Y134.953 E.0154
G1 X64.967 Y133.883 E.04048
G1 X78.994 Y120.705 E.60346
G1 X78.109 Y119.628 E.04372
G1 X77.224 Y118.205 E.05252
G1 X76.553 Y116.637 E.0535
G1 X76.192 Y115.3 E.04342
G1 X76.001 Y113.923 E.04358
G1 X76.005 Y112.189 E.05437
G1 X76.223 Y110.728 E.0463
G1 X76.612 Y109.369 E.04432
G1 X77.164 Y108.085 E.04383
G1 X77.876 Y106.876 E.04399
G1 X79.062 Y105.413 E.05906
G1 X80.097 Y104.468 E.04393
G1 X81.23 Y103.667 E.04351
G1 X82.555 Y102.97 E.04693
G1 X83.883 Y102.482 E.04438
G1 X85.273 Y102.165 E.04468
G1 X86.751 Y102.033 E.04655
G1 X87.35 Y102.06 E.0188
M204 S2000
G1 X87.333 Y102.436 F10800
M204 S1000
G1 F3600
G1 X88.328 Y102.481 E.03121
G1 X89.774 Y102.759 E.04619
G1 X91.135 Y103.22 E.04506
G1 X92.568 Y103.948 E.05038
G1 X93.867 Y104.873 E.05
G1 X94.731 Y105.678 E.03704
G1 X95.111 Y106.081 E.01736
G1 X109.402 Y92.655 E.61479
G1 X110.383 Y92.073 E.03577
G1 X110.548 Y92.012 E.00551
G1 X110.764 Y91.715 E.01152
G1 X125.05 Y78.293 E.61461
G1 X124.681 Y77.898 E.01697
G1 X123.894 Y76.935 E.03899
G1 X123.067 Y75.597 E.04932
G1 X122.451 Y74.168 E.04878
G1 X122.052 Y72.676 E.04844
G1 X121.882 Y71.328 E.04261
G1 X121.885 Y69.947 E.04328
G1 X122.084 Y68.495 E.04596
G1 X122.447 Y67.178 E.04284
G1 X122.973 Y65.918 E.04281
G1 X123.891 Y64.399 E.05563
G1 X124.72 Y63.391 E.04094
G1 X125.65 Y62.504 E.04031
G1 X126.815 Y61.648 E.0453
G1 X128.086 Y60.956 E.04538
G1 X129.672 Y60.374 E.05297
G1 X130.939 Y60.102 E.04064
G1 X132.226 Y59.989 E.04049
G1 X134.019 Y60.082 E.05629
G1 X135.346 Y60.353 E.04247
G1 X136.609 Y60.782 E.04182
G1 X138.033 Y61.497 E.04997
G1 X139.401 Y62.467 E.05259
G1 X140.247 Y63.257 E.03628
G1 X140.627 Y63.66 E.01736
G1 X154.924 Y50.229 E.61506
G1 X156.129 Y49.559 E.04322
G1 X157.071 Y49.329 E.03042
G1 X157.341 Y49.315 E.00846
G1 X157.382 Y48.579 E.02311
G1 X157.728 Y47.567 E.03353
G1 X158.411 Y46.549 E.03844
G1 X172.698 Y33.127 E.61462
G1 X172.319 Y32.722 E.01739
G1 X171.54 Y31.768 E.03864
G1 X170.713 Y30.429 E.04934
G1 X170.098 Y29.001 E.04874
G1 X169.699 Y27.51 E.04839
G1 X169.529 Y26.162 E.04261
G1 X169.533 Y24.782 E.04328
G1 X169.732 Y23.329 E.04596
G1 X170.094 Y22.012 E.04284
G1 X170.621 Y20.752 E.04281
G1 X171.538 Y19.234 E.05563
G1 X172.368 Y18.225 E.04094
G1 X173.298 Y17.338 E.04031
G1 X174.462 Y16.482 E.0453
G1 X175.733 Y15.79 E.04538
G1 X177.32 Y15.209 E.05297
G1 X178.587 Y14.936 E.04064
G1 X179.873 Y14.824 E.04049
G1 X181.666 Y14.916 E.05629
G1 X182.993 Y15.188 E.04247
G1 X184.256 Y15.616 E.04182
G1 X185.681 Y16.331 E.04997
G1 X187.049 Y17.302 E.05259
G1 X187.894 Y18.092 E.03628
G1 X188.274 Y18.494 E.01736
G1 X202.573 Y5.061 E.61515
G1 X203.944 Y4.333 E.04866
G1 X204.813 Y4.153 E.02783
G1 X205.742 Y4.152 E.02912
G1 X207.049 Y4.485 E.04231
G1 X208.164 Y5.112 E.04009
G1 X209.013 Y5.993 E.03838
G1 X209.598 Y7.111 E.03956
G1 X214.112 Y26.289 E.61774
G1 X214.651 Y26.164 E.01736
G1 X215.792 Y25.973 E.03629
G1 X217.441 Y25.92 E.05172
G1 X219.029 Y26.109 E.05016
G1 X220.374 Y26.466 E.04361
G1 X221.62 Y26.975 E.04222
G1 X222.803 Y27.643 E.04258
G1 X223.949 Y28.504 E.04493
G1 X225.126 Y29.693 E.05247
G1 X226.057 Y30.975 E.04969
G1 X226.732 Y32.252 E.04528
G1 X227.23 Y33.613 E.04545
G1 X227.523 Y34.926 E.04216
G1 X227.65 Y36.278 E.04257
G1 X227.592 Y37.745 E.04606
G1 X227.358 Y39.093 E.0429
G1 X226.949 Y40.414 E.04336
G1 X226.297 Y41.806 E.04818
G1 X225.472 Y43.066 E.04723
G1 X224.531 Y44.145 E.04488
G1 X223.441 Y45.097 E.04538
G1 X222.142 Y45.945 E.04865
G1 X220.713 Y46.603 E.04933
G1 X219.536 Y46.967 E.03864
G1 X218.996 Y47.095 E.01738
G1 X223.484 Y66.236 E.61643
G1 X223.474 Y67.457 E.03829
G1 X223.154 Y68.572 E.03638
G1 X222.645 Y69.444 E.03165
G1 X221.607 Y70.463 E.04559
G1 X220.694 Y70.988 E.03303
G1 X219.679 Y71.279 E.0331
G1 X218.162 Y71.249 E.04758
G1 X199.327 Y65.573 E.61679
G1 X199.166 Y66.103 E.01737
G1 X198.76 Y67.187 E.03628
G1 X197.982 Y68.641 E.05171
G1 X197.025 Y69.921 E.05012
G1 X196.071 Y70.883 E.04245
G1 X195.001 Y71.719 E.0426
