; generated by PrusaSlicer 2.2.0+win64 on 2020-09-25 at 21:58:56 UTC

; 

; external perimeters extrusion width = 0.45mm
; perimeters extrusion width = 0.45mm
; infill extrusion width = 0.45mm
; solid infill extrusion width = 0.45mm
; top infill extrusion width = 0.40mm
; first layer extrusion width = 0.42mm

M73 P0 R77
M73 Q0 S77
M201 X1000 Y1000 Z200 E5000 ; sets maximum accelerations, mm/sec^2
M203 X200 Y200 Z12 E120 ; sets maximum feedrates, mm/sec
M204 P1250 R1250 T1250 ; sets acceleration (P, T) and retract acceleration (R), mm/sec^2
M205 X8.00 Y8.00 Z0.40 E4.50 ; sets the jerk limits, mm/sec
M205 S0 T0 ; sets the minimum extruding and travel feed rate, mm/sec
M107
M862.3 P "MK3S" ; printer model check
M862.1 P0.4 ; nozzle diameter check
M115 U3.9.0 ; tell printer latest fw version
G90 ; use absolute coordinates
M83 ; extruder relative mode
M104 S215 ; set extruder temp
M140 S60 ; set bed temp
M190 S60 ; wait for bed temp
M109 S215 ; wait for extruder temp
G28 W ; home all without mesh bed level
G80 ; mesh bed leveling
G1 Y-3.0 F1000.0 ; go outside print area
G92 E0.0
G1 X60.0 E9.0 F1000.0 ; intro line
M73 Q0 S77
M73 P0 R77
G1 X100.0 E12.5 F1000.0 ; intro line
G92 E0.0
M221 S95

; Don't change E values below. Excessive value can damage the printer.
M907 E430 ; set extruder motor current
G21 ; set units to millimeters
G90 ; use absolute coordinates
M83 ; use relative distances for extrusion
M900 K0.05 ; Filament gcode LA 1.5
M900 K30 ; Filament gcode LA 1.0
;BEFORE_LAYER_CHANGE
G92 E0.0
;0.2


G1 E-0.80000 F2100.00000
G1 Z0.600 F10800.000
;AFTER_LAYER_CHANGE
;0.2
G1 X4.173 Y107.032
G1 Z0.200
G1 E0.80000 F2100.00000
M204 S1000
G1 F1200.000
G1 X5.087 Y106.833 E0.02931
G1 X47.028 Y106.833 E1.31503
G1 X47.916 Y107.006 E0.02837
G1 X48.675 Y107.499 E0.02837
G1 X49.194 Y108.240 E0.02837
G1 X49.399 Y109.121 E0.02837
G1 X49.401 Y150.596 E1.30040
G1 X49.222 Y151.463 E0.02778
G1 X48.740 Y152.203 E0.02767
G1 X47.959 Y152.743 E0.02977
G1 X47.029 Y152.935 E0.02977
G1 X5.092 Y152.934 E1.31492
G1 X4.223 Y152.757 E0.02778
G1 X3.481 Y152.273 E0.02778
G1 X2.940 Y151.492 E0.02977
G1 X2.749 Y150.562 E0.02977
G1 X2.749 Y109.172 E1.29777
G1 X2.928 Y108.304 E0.02778
G1 X3.410 Y107.565 E0.02767
G1 X4.124 Y107.066 E0.02731
G1 F8640.000
G1 X5.087 Y106.833 E-0.22867
G1 X7.388 Y106.833 E-0.53133
G1 E-0.04000 F2100.00000
G1 Z0.800 F10800.000
G1 X2.665 Y105.139
G1 Z0.200
G1 E0.80000 F2100.00000
G1 F1200.000
G1 X4.579 Y104.496 E0.06331
G1 X47.510 Y104.500 E1.34607
G1 X48.459 Y104.684 E0.03029
G1 X49.367 Y105.075 E0.03101
G1 X50.586 Y106.098 E0.04990
G1 X51.377 Y107.316 E0.04551
G1 X51.737 Y108.698 E0.04481
G1 X51.737 Y151.067 E1.32845
G1 X51.406 Y152.384 E0.04257
G1 X50.679 Y153.568 E0.04355
G1 X50.075 Y154.172 E0.02678
G1 X49.484 Y154.628 E0.02340
G1 X47.571 Y155.271 E0.06330
G1 X4.616 Y155.271 E1.34681
G1 X3.299 Y154.939 E0.04257
G1 X2.115 Y154.213 E0.04355
G1 X1.511 Y153.609 E0.02678
G1 X1.055 Y153.018 E0.02340
G1 X0.412 Y151.104 E0.06330
G1 X0.412 Y108.700 E1.32955
G1 X0.744 Y107.383 E0.04257
G1 X1.470 Y106.199 E0.04355
G1 X2.074 Y105.595 E0.02678
G1 X2.618 Y105.176 E0.02152
G1 X2.848 Y105.475 F10800.000
G1 F1200.000
G1 X4.610 Y104.873 E0.05839
G1 X47.492 Y104.877 E1.34452
G1 X48.365 Y105.050 E0.02791
G1 X49.190 Y105.409 E0.02823
G1 X50.321 Y106.368 E0.04647
G1 X51.020 Y107.442 E0.04018
G1 X51.360 Y108.723 E0.04157
G1 X51.360 Y151.043 E1.32691
G1 X51.048 Y152.262 E0.03946
G1 X50.397 Y153.317 E0.03885
G1 X49.817 Y153.897 E0.02571
G1 X49.280 Y154.310 E0.02127
G1 X47.540 Y154.894 E0.05754
G1 X4.640 Y154.894 E1.34510
G1 X3.421 Y154.581 E0.03946
G1 X2.367 Y153.931 E0.03885
G1 X1.787 Y153.351 E0.02571
G1 X1.373 Y152.813 E0.02127
G1 X0.789 Y151.074 E0.05754
G1 X0.789 Y108.724 E1.32784
G1 X1.102 Y107.505 E0.03946
G1 X1.752 Y106.451 E0.03885
G1 X2.332 Y105.871 E0.02571
G1 X2.800 Y105.511 E0.01849
G1 X3.029 Y105.811 F10800.000
G1 F1200.000
G1 X3.074 Y105.776 E0.00179
G1 X4.640 Y105.251 E0.05180
G1 X47.472 Y105.254 E1.34296
G1 X48.270 Y105.415 E0.02550
G1 X49.012 Y105.742 E0.02545
G1 X50.054 Y106.635 E0.04302
G1 X50.687 Y107.620 E0.03669
G1 X50.983 Y108.747 E0.03655
G1 X50.983 Y151.020 E1.32543
G1 X50.711 Y152.090 E0.03463
G1 X50.115 Y153.066 E0.03586
G1 X49.560 Y153.621 E0.02460
G1 X49.076 Y153.991 E0.01912
G1 X47.509 Y154.517 E0.05179
G1 X4.663 Y154.517 E1.34341
G1 X3.593 Y154.244 E0.03463
G1 X2.617 Y153.648 E0.03586
G1 X2.062 Y153.093 E0.02460
G1 X1.692 Y152.609 E0.01912
G1 X1.166 Y151.043 E0.05179
G1 X1.166 Y108.747 E1.32615
G1 X1.439 Y107.677 E0.03463
G1 X2.035 Y106.701 E0.03586
G1 X2.590 Y106.146 E0.02460
G1 X2.981 Y105.847 E0.01544
G1 X3.278 Y106.095 F10800.000
G1 F1200.000
G1 X4.671 Y105.628 E0.04608
G1 X47.453 Y105.631 E1.34139
G1 X48.172 Y105.780 E0.02304
G1 X48.832 Y106.075 E0.02266
G1 X49.786 Y106.902 E0.03960
G1 X50.330 Y107.747 E0.03149
G1 X50.606 Y108.773 E0.03331
G1 X50.606 Y150.995 E1.32386
G1 X50.353 Y151.968 E0.03149
G1 X49.832 Y152.815 E0.03119
G1 X49.302 Y153.345 E0.02350
G1 X48.872 Y153.672 E0.01695
G1 X47.479 Y154.140 E0.04607
G1 X4.688 Y154.140 E1.34168
G1 X3.716 Y153.887 E0.03149
G1 X2.868 Y153.366 E0.03119
G1 X2.338 Y152.836 E0.02350
G1 X2.011 Y152.406 E0.01695
G1 X1.544 Y151.012 E0.04607
G1 X1.544 Y108.772 E1.32442
G1 X1.796 Y107.800 E0.03149
G1 X2.317 Y106.952 E0.03119
G1 X2.847 Y106.422 E0.02350
G1 X3.230 Y106.131 E0.01507
G1 X3.457 Y106.432 F10800.000
G1 F1200.000
G1 X4.702 Y106.005 E0.04125
G1 X47.434 Y106.008 E1.33983
G1 X48.037 Y106.133 E0.01932
G1 X48.652 Y106.407 E0.02110
G1 X49.516 Y107.167 E0.03609
G1 X49.996 Y107.924 E0.02809
G1 X50.229 Y108.797 E0.02835
G1 X50.229 Y150.970 E1.32231
G1 X49.997 Y151.843 E0.02831
G1 X49.551 Y152.564 E0.02658
G1 X49.045 Y153.069 E0.02241
G1 X48.669 Y153.353 E0.01477
G1 X47.448 Y153.763 E0.04038
G1 X4.713 Y153.763 E1.33993
G1 X3.840 Y153.530 E0.02831
G1 X3.120 Y153.084 E0.02658
G1 X2.614 Y152.579 E0.02241
G1 X2.330 Y152.203 E0.01477
G1 X1.921 Y150.982 E0.04038
G1 X1.921 Y108.797 E1.32267
M73 Q1 S76
M73 P1 R76
G1 X2.153 Y107.925 E0.02831
G1 X2.599 Y107.204 E0.02658
G1 X3.105 Y106.698 E0.02241
G1 X3.409 Y106.468 E0.01198
G1 F8640.000
G1 X4.702 Y106.005 E-0.31698
G1 X6.620 Y106.005 E-0.44301
G1 E-0.04000 F2100.00000
G1 Z0.800 F10800.000
G1 X4.732 Y106.382
G1 Z0.200
G1 E0.80000 F2100.00000
G1 F1200.000
G1 X47.413 Y106.385 E1.33823
G1 X47.938 Y106.497 E0.01681
G1 X48.469 Y106.738 E0.01829
G1 X49.246 Y107.431 E0.03263
G1 X49.640 Y108.051 E0.02306
G1 X49.852 Y108.823 E0.02510
G1 X49.852 Y150.944 E1.32068
G1 X49.641 Y151.716 E0.02508
G1 X49.269 Y152.312 E0.02203
G1 X48.788 Y152.793 E0.02132
G1 X48.468 Y153.033 E0.01257
G1 X47.418 Y153.386 E0.03472
G1 X4.739 Y153.386 E1.33816
G1 X3.967 Y153.174 E0.02508
G1 X3.371 Y152.802 E0.02203
G1 X2.891 Y152.322 E0.02132
G1 X2.650 Y152.001 E0.01257
G1 X2.298 Y150.951 E0.03472
G1 X2.298 Y108.823 E1.32090
G1 X2.509 Y108.052 E0.02508
G1 X2.881 Y107.455 E0.02203
G1 X3.362 Y106.975 E0.02132
G1 X3.682 Y106.734 E0.01257
G1 X4.675 Y106.401 E0.03284
G1 X4.794 Y107.136 F10800.000
G1 F1200.000
G1 X47.370 Y107.140 E1.33494
G1 X47.729 Y107.223 E0.01157
G1 X48.095 Y107.395 E0.01268
G1 X48.700 Y107.953 E0.02580
G1 X48.932 Y108.315 E0.01347
G1 X49.098 Y108.878 E0.01841
G1 X49.098 Y150.889 E1.31724
G1 X48.932 Y151.453 E0.01842
G1 X48.707 Y151.808 E0.01318
G1 X48.276 Y152.239 E0.01911
G1 X48.068 Y152.391 E0.00808
G1 X47.356 Y152.631 E0.02354
G1 X4.794 Y152.631 E1.33451
G1 X4.230 Y152.465 E0.01842
G1 X3.876 Y152.240 E0.01318
G1 X3.444 Y151.809 E0.01911
G1 X3.292 Y151.601 E0.00808
G1 X3.052 Y150.890 E0.02354
G1 X3.052 Y108.878 E1.31725
G1 X3.218 Y108.314 E0.01842
G1 X3.443 Y107.960 E0.01318
G1 X3.874 Y107.529 E0.01911
G1 X4.082 Y107.376 E0.00808
G1 X4.737 Y107.155 E0.02166
G1 X4.279 Y107.698 F10800.000
G1 F1200.000
G1 X4.825 Y107.513 E0.01806
G1 X47.348 Y107.517 E1.33328
G1 X47.586 Y107.572 E0.00767
G1 X47.906 Y107.723 E0.01109
G1 X48.425 Y108.211 E0.02233
G1 X48.580 Y108.452 E0.00898
G1 X48.721 Y108.908 E0.01495
G1 X48.721 Y150.860 E1.31539
G1 X48.580 Y151.316 E0.01496
G1 X48.426 Y151.555 E0.00892
G1 X48.020 Y151.961 E0.01800
G1 X47.870 Y152.069 E0.00579
G1 X47.325 Y152.254 E0.01806
G1 X4.823 Y152.254 E1.33261
G1 X4.368 Y152.114 E0.01496
G1 X4.128 Y151.960 E0.00892
G1 X3.722 Y151.554 E0.01800
G1 X3.614 Y151.404 E0.00579
G1 X3.429 Y150.859 E0.01806
G1 X3.429 Y108.908 E1.31535
G1 X3.570 Y108.452 E0.01496
G1 X3.724 Y108.212 E0.00892
G1 X4.130 Y107.806 E0.01800
G1 X4.231 Y107.733 E0.00391
G1 X4.474 Y108.022 F10800.000
G1 F1200.000
G1 X4.857 Y107.890 E0.01270
G1 X47.326 Y107.894 E1.33159
G1 X47.443 Y107.921 E0.00377
G1 X47.716 Y108.050 E0.00947
G1 X48.147 Y108.467 E0.01880
G1 X48.231 Y108.595 E0.00479
G1 X48.344 Y108.939 E0.01136
G1 X48.344 Y150.828 E1.31340
G1 X48.231 Y151.172 E0.01136
G1 X48.146 Y151.302 E0.00484
G1 X47.766 Y151.682 E0.01686
G1 X47.676 Y151.745 E0.00345
G1 X47.293 Y151.877 E0.01270
G1 X4.855 Y151.877 E1.33062
G1 X4.511 Y151.764 E0.01136
G1 X4.382 Y151.680 E0.00484
G1 X4.001 Y151.299 E0.01686
G1 X3.938 Y151.209 E0.00345
G1 X3.806 Y150.827 E0.01270
G1 X3.806 Y108.939 E1.31335
G1 X3.919 Y108.595 E0.01136
G1 X4.004 Y108.466 E0.00484
G1 X4.425 Y108.057 E0.01841
G1 X4.663 Y108.349 F10800.000
G1 F1200.000
G1 X4.890 Y108.267 E0.00757
G1 X47.274 Y108.267 E1.32890
G1 X47.524 Y108.377 E0.00856
G1 X47.867 Y108.720 E0.01522
G1 X47.967 Y108.974 E0.00856
G1 X47.967 Y150.793 E1.31120
G1 X47.867 Y151.047 E0.00856
G1 X47.514 Y151.401 E0.01566
G1 X47.260 Y151.500 E0.00856
G1 X4.890 Y151.500 E1.32846
G1 X4.636 Y151.401 E0.00856
G1 X4.283 Y151.047 E0.01566
G1 X4.183 Y150.793 E0.00856
G1 X4.183 Y108.974 E1.31120
G1 X4.283 Y108.720 E0.00856
G1 X4.616 Y108.386 E0.01480
G1 X4.863 Y108.673 F10800.000
G1 F1200.000
G1 X4.932 Y108.644 E0.00235
G1 X47.218 Y108.644 E1.32583
G1 X47.287 Y108.673 E0.00235
G1 X47.561 Y108.947 E0.01215
G1 X47.590 Y109.016 E0.00235
G1 X47.590 Y150.751 E1.30857
G1 X47.561 Y150.820 E0.00235
G1 X47.287 Y151.094 E0.01215
G1 X47.218 Y151.123 E0.00235
G1 X4.932 Y151.123 E1.32583
G1 X4.863 Y151.094 E0.00235
G1 X4.589 Y150.820 E0.01215
G1 X4.560 Y150.751 E0.00235
G1 X4.560 Y109.016 E1.30857
G1 X4.589 Y108.947 E0.00235
G1 X4.820 Y108.715 E0.01027
G1 X5.048 Y109.021 F10800.000
G1 F1200.000
G1 X47.102 Y109.021 E1.31858
G1 X47.213 Y109.132 E0.00490
G1 X47.213 Y150.636 E1.30132
G1 X47.102 Y150.746 E0.00490
G1 X5.048 Y150.746 E1.31858
M73 Q2 S75
M73 P2 R75
G1 X4.937 Y150.636 E0.00490
G1 X4.937 Y109.132 E1.30132
G1 X5.005 Y109.064 E0.00302
G1 X5.536 Y109.620 F10800.000
G1 F1200.000
G1 X46.614 Y109.620 E1.28798
G1 X46.614 Y150.147 E1.27071
G1 X5.536 Y150.147 E1.28798
G1 X5.536 Y109.680 E1.26883
G1 X5.922 Y109.723 F10800.000
G1 X5.913 Y109.997
G1 F1200.000
G1 X46.237 Y109.997 E1.26433
G1 X46.237 Y149.770 E1.24707
G1 X5.913 Y149.770 E1.26433
G1 X5.913 Y110.057 E1.24519
G1 F8640.000
G1 X9.204 Y110.052 E-0.76000
G1 E-0.04000 F2100.00000
G1 Z0.800 F10800.000
G1 X46.124 Y110.875
G1 Z0.200
G1 E0.80000 F2100.00000
G1 F1200.000
G1 X45.529 Y110.280 E0.02648
G1 X44.994 Y110.280 E0.01683
G1 X45.954 Y111.240 E0.04273
G1 X45.954 Y111.775 E0.01683
G1 X44.458 Y110.280 E0.06654
G1 X43.923 Y110.280 E0.01683
G1 X45.954 Y112.310 E0.09034
G1 X45.954 Y112.845 E0.01683
G1 X43.388 Y110.280 E0.11414
G1 X42.853 Y110.280 E0.01683
G1 X45.954 Y113.380 E0.13795
G1 X45.954 Y113.916 E0.01683
G1 X42.318 Y110.280 E0.16175
G1 X41.783 Y110.280 E0.01683
G1 X45.954 Y114.451 E0.18555
G1 X45.954 Y114.986 E0.01683
G1 X41.248 Y110.280 E0.20935
G1 X40.713 Y110.280 E0.01683
G1 X45.954 Y115.521 E0.23316
G1 X45.954 Y116.056 E0.01683
G1 X40.178 Y110.280 E0.25696
G1 X39.643 Y110.280 E0.01683
G1 X45.954 Y116.591 E0.28076
G1 X45.954 Y117.126 E0.01683
G1 X39.108 Y110.280 E0.30457
G1 X38.573 Y110.280 E0.01683
G1 X45.954 Y117.661 E0.32837
G1 X45.954 Y118.196 E0.01683
G1 X38.038 Y110.280 E0.35217
G1 X37.503 Y110.280 E0.01683
G1 X45.954 Y118.731 E0.37597
G1 X45.954 Y119.266 E0.01683
G1 X36.968 Y110.280 E0.39978
G1 X36.433 Y110.280 E0.01683
G1 X45.954 Y119.801 E0.42358
G1 X45.954 Y120.336 E0.01683
G1 X35.898 Y110.280 E0.44738
G1 X35.363 Y110.280 E0.01683
G1 X45.954 Y120.871 E0.47119
G1 X45.954 Y121.406 E0.01683
G1 X34.828 Y110.280 E0.49499
G1 X34.293 Y110.280 E0.01683
G1 X45.954 Y121.941 E0.51879
G1 X45.954 Y122.476 E0.01683
G1 X33.758 Y110.280 E0.54259
G1 X33.223 Y110.280 E0.01683
G1 X45.954 Y123.011 E0.56640
G1 X45.954 Y123.546 E0.01683
G1 X32.688 Y110.280 E0.59020
G1 X32.153 Y110.280 E0.01683
G1 X45.954 Y124.081 E0.61400
G1 X45.954 Y124.616 E0.01683
G1 X31.618 Y110.280 E0.63781
G1 X31.083 Y110.280 E0.01683
G1 X45.954 Y125.151 E0.66161
G1 X45.954 Y125.686 E0.01683
G1 X30.548 Y110.280 E0.68541
G1 X30.013 Y110.280 E0.01683
G1 X45.954 Y126.221 E0.70921
G1 X45.954 Y126.756 E0.01683
G1 X29.477 Y110.280 E0.73302
G1 X28.942 Y110.280 E0.01683
G1 X45.954 Y127.291 E0.75682
G1 X45.954 Y127.826 E0.01683
G1 X28.407 Y110.280 E0.78062
G1 X27.872 Y110.280 E0.01683
G1 X45.954 Y128.361 E0.80443
G1 X45.954 Y128.896 E0.01683
G1 X27.337 Y110.280 E0.82823
G1 X26.802 Y110.280 E0.01683
G1 X45.954 Y129.432 E0.85203
G1 X45.954 Y129.967 E0.01683
G1 X26.267 Y110.280 E0.87583
G1 X25.732 Y110.280 E0.01683
G1 X45.954 Y130.502 E0.89964
G1 X45.954 Y131.037 E0.01683
G1 X25.197 Y110.280 E0.92344
G1 X24.662 Y110.280 E0.01683
G1 X45.954 Y131.572 E0.94724
G1 X45.954 Y132.107 E0.01683
G1 X24.127 Y110.280 E0.97105
G1 X23.592 Y110.280 E0.01683
G1 X45.954 Y132.642 E0.99485
G1 X45.954 Y133.177 E0.01683
G1 X23.057 Y110.280 E1.01865
G1 X22.522 Y110.280 E0.01683
G1 X45.954 Y133.712 E1.04245
G1 X45.954 Y134.247 E0.01683
G1 X21.987 Y110.280 E1.06626
G1 X21.452 Y110.280 E0.01683
G1 X45.954 Y134.782 E1.09006
M73 Q4 S74
M73 P4 R74
G1 X45.954 Y135.317 E0.01683
G1 X20.917 Y110.280 E1.11386
G1 X20.382 Y110.280 E0.01683
G1 X45.954 Y135.852 E1.13767
G1 X45.954 Y136.387 E0.01683
G1 X19.847 Y110.280 E1.16147
G1 X19.312 Y110.280 E0.01683
G1 X45.954 Y136.922 E1.18527
G1 X45.954 Y137.457 E0.01683
G1 X18.777 Y110.280 E1.20907
G1 X18.242 Y110.280 E0.01683
G1 X45.954 Y137.992 E1.23288
G1 X45.954 Y138.527 E0.01683
G1 X17.707 Y110.280 E1.25668
G1 X17.172 Y110.280 E0.01683
G1 X45.954 Y139.062 E1.28048
G1 X45.954 Y139.597 E0.01683
G1 X16.637 Y110.280 E1.30429
G1 X16.102 Y110.280 E0.01683
G1 X45.954 Y140.132 E1.32809
G1 X45.954 Y140.667 E0.01683
G1 X15.567 Y110.280 E1.35189
G1 X15.032 Y110.280 E0.01683
G1 X45.954 Y141.202 E1.37569
G1 X45.954 Y141.737 E0.01683
G1 X14.497 Y110.280 E1.39950
G1 X13.961 Y110.280 E0.01683
G1 X45.954 Y142.272 E1.42330
G1 X45.954 Y142.807 E0.01683
G1 X13.426 Y110.280 E1.44710
G1 X12.891 Y110.280 E0.01683
G1 X45.954 Y143.342 E1.47090
G1 X45.954 Y143.877 E0.01683
G1 X12.356 Y110.280 E1.49471
G1 X11.821 Y110.280 E0.01683
G1 X45.954 Y144.413 E1.51851
G1 X45.954 Y144.948 E0.01683
G1 X11.286 Y110.280 E1.54231
G1 X10.751 Y110.280 E0.01683
G1 X45.954 Y145.483 E1.56612
G1 X45.954 Y146.018 E0.01683
G1 X10.216 Y110.280 E1.58992
G1 X9.681 Y110.280 E0.01683
G1 X45.954 Y146.553 E1.61372
G1 X45.954 Y147.088 E0.01683
G1 X9.146 Y110.280 E1.63752
G1 X8.611 Y110.280 E0.01683
G1 X45.954 Y147.623 E1.66133
G1 X45.954 Y148.158 E0.01683
G1 X8.076 Y110.280 E1.68513
G1 X7.541 Y110.280 E0.01683
G1 X45.954 Y148.693 E1.70893
G1 X45.954 Y149.228 E0.01683
G1 X7.006 Y110.280 E1.73274
M73 Q5 S73
M73 P5 R72
G1 X6.471 Y110.280 E0.01683
G1 X45.679 Y149.488 E1.74429
G1 X45.144 Y149.488 E0.01683
G1 X6.196 Y110.539 E1.73274
G1 X6.196 Y111.075 E0.01683
G1 X44.609 Y149.488 E1.70894
G1 X44.074 Y149.488 E0.01683
G1 X6.196 Y111.610 E1.68513
G1 X6.196 Y112.145 E0.01683
G1 X43.539 Y149.488 E1.66133
G1 X43.004 Y149.488 E0.01683
G1 X6.196 Y112.680 E1.63753
G1 X6.196 Y113.215 E0.01683
G1 X42.469 Y149.488 E1.61372
G1 X41.934 Y149.488 E0.01683
G1 X6.196 Y113.750 E1.58992
G1 X6.196 Y114.285 E0.01683
G1 X41.399 Y149.488 E1.56612
G1 X40.864 Y149.488 E0.01683
G1 X6.196 Y114.820 E1.54232
G1 X6.196 Y115.355 E0.01683
G1 X40.328 Y149.488 E1.51851
G1 X39.793 Y149.488 E0.01683
G1 X6.196 Y115.890 E1.49471
G1 X6.196 Y116.425 E0.01683
G1 X39.258 Y149.488 E1.47091
G1 X38.723 Y149.488 E0.01683
G1 X6.196 Y116.960 E1.44710
G1 X6.196 Y117.495 E0.01683
G1 X38.188 Y149.488 E1.42330
G1 X37.653 Y149.488 E0.01683
