; generated by PrusaSlicer 2.2.0+win64 on 2020-09-26 at 02:45:37 UTC

; 

; external perimeters extrusion width = 0.45mm
; perimeters extrusion width = 0.45mm
; infill extrusion width = 0.45mm
; solid infill extrusion width = 0.45mm
; top infill extrusion width = 0.40mm
; first layer extrusion width = 0.42mm

M73 P0 R156
M73 Q0 S158
M201 X1000 Y1000 Z200 E5000 ; sets maximum accelerations, mm/sec^2
M203 X200 Y200 Z12 E120 ; sets maximum feedrates, mm/sec
M204 P1250 R1250 T1250 ; sets acceleration (P, T) and retract acceleration (R), mm/sec^2
M205 X8.00 Y8.00 Z0.40 E4.50 ; sets the jerk limits, mm/sec
M205 S0 T0 ; sets the minimum extruding and travel feed rate, mm/sec
M107
M862.3 P "MK3S" ; printer model check
M862.1 P0.4 ; nozzle diameter check
M115 U3.9.0 ; tell printer latest fw version
G90 ; use absolute coordinates
M83 ; extruder relative mode
M104 S215 ; set extruder temp
M140 S60 ; set bed temp
M190 S60 ; wait for bed temp
M109 S215 ; wait for extruder temp
G28 W ; home all without mesh bed level
G80 ; mesh bed leveling
G1 Y-3.0 F1000.0 ; go outside print area
G92 E0.0
G1 X60.0 E9.0 F1000.0 ; intro line
M73 Q0 S158
M73 P0 R156
G1 X100.0 E12.5 F1000.0 ; intro line
G92 E0.0
M221 S95

; Don't change E values below. Excessive value can damage the printer.
M907 E430 ; set extruder motor current
G21 ; set units to millimeters
G90 ; use absolute coordinates
M83 ; use relative distances for extrusion
M900 K0.05 ; Filament gcode LA 1.5
M900 K30 ; Filament gcode LA 1.0
;BEFORE_LAYER_CHANGE
G92 E0.0
;0.2


G1 E-0.80000 F2100.00000
G1 Z0.600 F10800.000
;AFTER_LAYER_CHANGE
;0.2
G1 X101.094 Y81.421
G1 Z0.200
G1 E0.80000 F2100.00000
M204 S1000
G1 F1200.000
G1 X101.458 Y81.060 E0.01609
G1 X101.895 Y80.783 E0.01621
G1 X102.377 Y80.608 E0.01609
G1 X102.890 Y80.540 E0.01621
G1 X143.246 Y80.543 E1.26534
G1 X144.071 Y80.743 E0.02661
G1 X144.609 Y81.073 E0.01977
G1 X145.041 Y81.532 E0.01977
G1 X145.337 Y82.088 E0.01977
G1 X145.476 Y82.703 E0.01977
G1 X145.485 Y127.110 E1.39236
G1 X145.346 Y127.886 E0.02473
G1 X144.958 Y128.577 E0.02484
G1 X144.585 Y128.946 E0.01645
G1 X144.140 Y129.225 E0.01645
G1 X143.649 Y129.398 E0.01633
G1 X143.128 Y129.460 E0.01645
G1 X102.911 Y129.460 E1.26099
G1 X102.135 Y129.319 E0.02473
G1 X101.448 Y128.932 E0.02473
G1 X100.971 Y128.412 E0.02213
G1 X100.620 Y127.702 E0.02484
G1 X100.374 Y126.827 E0.02849
G1 X100.295 Y125.989 E0.02640
G1 X100.296 Y83.986 E1.31696
G1 X100.505 Y82.633 E0.04292
G1 X100.798 Y81.890 E0.02507
G1 X101.062 Y81.472 E0.01549
G1 F8640.000
G1 X101.458 Y81.060 E-0.13205
G1 X101.895 Y80.783 E-0.11938
G1 X102.377 Y80.608 E-0.11850
G1 X102.890 Y80.540 E-0.11938
G1 X104.062 Y80.540 E-0.27070
G1 E-0.04000 F2100.00000
G1 Z0.800 F10800.000
G1 X143.217 Y78.604
G1 Z0.200
G1 E0.80000 F2100.00000
G1 F1200.000
G1 X115.198 Y78.602 E0.87853
G1 X113.554 Y79.079 E0.05368
G1 X112.923 Y79.496 E0.02371
G1 X112.031 Y78.972 E0.03244
G1 X110.760 Y78.624 E0.04132
G1 X102.264 Y78.630 E0.26639
G1 X101.649 Y78.751 E0.01964
G1 X100.657 Y79.137 E0.03339
G1 X99.210 Y80.325 E0.05869
G1 X98.479 Y81.580 E0.04554
G1 X98.205 Y82.670 E0.03525
G1 X98.100 Y83.790 E0.03525
G1 X98.101 Y126.230 E1.33070
G1 X98.211 Y127.345 E0.03512
G1 X98.558 Y128.611 E0.04116
G1 X98.857 Y129.179 E0.02014
G1 X99.615 Y130.107 E0.03755
G1 X100.528 Y130.789 E0.03575
G1 X101.369 Y131.171 E0.02895
G1 X102.264 Y131.372 E0.02875
G1 X110.760 Y131.375 E0.26640
G1 X112.038 Y131.024 E0.04154
G1 X112.903 Y130.503 E0.03167
G1 X113.584 Y130.935 E0.02530
G1 X115.200 Y131.398 E0.05270
G1 X143.204 Y131.396 E0.87807
G1 X144.265 Y131.186 E0.03390
G1 X145.227 Y130.740 E0.03325
G1 X146.499 Y129.589 E0.05378
G1 X147.018 Y128.778 E0.03020
G1 X147.474 Y127.223 E0.05080
G1 X147.474 Y114.513 E0.39849
G1 X147.294 Y113.541 E0.03102
G1 X146.893 Y112.603 E0.03198
G1 X145.769 Y111.300 E0.05395
G1 X145.671 Y111.239 E0.00363
G1 X145.293 Y111.004 F10800.000
G1 F1200.000
G1 X144.622 Y110.587 E0.02478
G1 X143.269 Y110.238 E0.04381
G1 X128.134 Y110.239 E0.47456
G1 X128.134 Y100.644 E0.30085
G1 X143.362 Y100.634 E0.47746
G1 X144.492 Y100.347 E0.03656
G1 X145.291 Y99.940 E0.02812
G1 X145.668 Y99.624 F10800.000
G1 F1200.000
G1 X146.326 Y99.035 E0.02769
G1 X146.981 Y98.102 E0.03576
G1 X147.474 Y96.474 E0.05333
G1 X147.440 Y82.555 E0.43642
G1 X147.171 Y81.571 E0.03197
G1 X146.767 Y80.768 E0.02818
G1 X145.790 Y79.675 E0.04596
G1 X144.578 Y78.932 E0.04459
G1 X143.217 Y78.604 E0.04387
G1 F8640.000
G1 X144.578 Y78.932 E-0.32308
G1 X145.790 Y79.675 E-0.32836
G1 X146.103 Y80.026 E-0.10856
G1 E-0.04000 F2100.00000
G1 Z0.800 F10800.000
G1 X145.668 Y99.118
G1 Z0.200
G1 E0.80000 F2100.00000
G1 F1200.000
G1 X146.059 Y98.768 E0.01645
G1 X146.630 Y97.961 E0.03100
G1 X147.097 Y96.445 E0.04973
G1 X147.070 Y82.630 E0.43318
G1 X146.812 Y81.689 E0.03057
G1 X146.442 Y80.962 E0.02559
G1 X145.529 Y79.948 E0.04281
G1 X144.459 Y79.291 E0.03935
G1 X143.194 Y78.981 E0.04082
G1 X115.226 Y78.980 E0.87694
G1 X113.690 Y79.432 E0.05019
G1 X112.897 Y79.972 E0.03009
G1 X112.713 Y79.811 E0.00767
G1 X111.905 Y79.328 E0.02952
G1 X110.734 Y79.001 E0.03810
G1 X102.283 Y79.007 E0.26499
G1 X101.771 Y79.109 E0.01637
G1 X100.821 Y79.478 E0.03194
G1 X99.518 Y80.545 E0.05282
G1 X98.838 Y81.699 E0.04198
G1 X98.579 Y82.720 E0.03304
G1 X98.477 Y83.799 E0.03395
G1 X98.478 Y126.221 E1.33014
G1 X98.579 Y127.262 E0.03278
G1 X98.902 Y128.456 E0.03878
G1 X99.163 Y128.958 E0.01773
G1 X99.861 Y129.820 E0.03478
G1 X100.705 Y130.455 E0.03312
G1 X101.473 Y130.808 E0.02652
G1 X102.286 Y130.995 E0.02614
G1 X110.734 Y130.998 E0.26489
G1 X111.910 Y130.669 E0.03828
G1 X112.909 Y130.055 E0.03676
G1 X113.717 Y130.581 E0.03024
G1 X115.227 Y131.020 E0.04930
G1 X143.186 Y131.019 E0.87665
G1 X144.127 Y130.834 E0.03007
G1 X145.042 Y130.410 E0.03163
G1 X146.196 Y129.363 E0.04886
G1 X146.664 Y128.643 E0.02693
G1 X147.096 Y127.195 E0.04737
G1 X147.097 Y114.531 E0.39706
G1 X146.927 Y113.632 E0.02870
G1 X146.559 Y112.780 E0.02910
G1 X145.671 Y111.761 E0.04238
G1 X145.294 Y111.441 F10800.000
G1 F1200.000
G1 X144.450 Y110.923 E0.03103
G1 X143.246 Y110.615 E0.03898
G1 X127.757 Y110.616 E0.48564
G1 X127.757 Y100.267 E0.32449
G1 X143.292 Y100.262 E0.48709
G1 X144.379 Y99.987 E0.03517
G1 X145.115 Y99.614 E0.02586
G1 X145.291 Y99.456 E0.00741
G1 X145.291 Y98.954 F10800.000
G1 F1200.000
G1 X144.920 Y99.290 E0.01569
G1 X144.265 Y99.627 E0.02307
G1 X143.222 Y99.891 E0.03375
G1 X127.380 Y99.890 E0.49672
G1 X127.380 Y110.994 E0.34814
G1 X143.221 Y110.992 E0.49670
G1 X144.327 Y111.281 E0.03585
G1 X145.240 Y111.841 E0.03358
G1 X145.294 Y111.901 E0.00253
G1 X145.671 Y112.329 F10800.000
G1 F1200.000
G1 X146.226 Y112.959 E0.02631
G1 X146.561 Y113.724 E0.02621
G1 X146.720 Y114.550 E0.02635
G1 X146.719 Y127.167 E0.39560
G1 X146.312 Y128.506 E0.04388
G1 X145.895 Y129.134 E0.02366
G1 X144.856 Y130.081 E0.04408
G1 X144.030 Y130.469 E0.02862
G1 X143.167 Y130.642 E0.02759
G1 X115.254 Y130.643 E0.87519
G1 X113.853 Y130.228 E0.04584
G1 X113.092 Y129.723 E0.02862
G1 X113.017 Y129.649 E0.00331
G1 X112.732 Y129.649 F10800.000
G1 F1200.000
G1 X112.535 Y129.849 E0.00882
G1 X111.781 Y130.314 E0.02777
G1 X110.707 Y130.621 E0.03500
G1 X102.308 Y130.618 E0.26334
G1 X101.580 Y130.446 E0.02348
G1 X100.882 Y130.122 E0.02410
G1 X100.108 Y129.534 E0.03049
G1 X99.470 Y128.738 E0.03200
G1 X99.247 Y128.303 E0.01531
G1 X98.947 Y127.180 E0.03643
G1 X98.856 Y126.213 E0.03048
G1 X98.854 Y83.807 E1.32960
G1 X98.949 Y82.799 E0.03176
G1 X99.196 Y81.819 E0.03170
G1 X99.824 Y80.767 E0.03839
G1 X100.985 Y79.819 E0.04701
G1 X101.892 Y79.466 E0.03051
G1 X102.302 Y79.384 E0.01310
G1 X110.708 Y79.378 E0.26356
G1 X111.776 Y79.683 E0.03483
G1 X112.497 Y80.121 E0.02646
G1 X112.742 Y80.351 E0.01054
G1 X113.016 Y80.351 F10800.000
G1 F1200.000
G1 X113.829 Y79.784 E0.03109
G1 X115.254 Y79.357 E0.04664
G1 X143.172 Y79.358 E0.87537
G1 X144.289 Y79.629 E0.03604
G1 X145.269 Y80.222 E0.03590
G1 X146.119 Y81.157 E0.03963
G1 X146.454 Y81.808 E0.02296
G1 X146.699 Y82.705 E0.02915
G1 X146.720 Y96.417 E0.42991
G1 X146.280 Y97.819 E0.04608
G1 X145.791 Y98.502 E0.02634
G1 X145.668 Y98.613 E0.00519
G1 X145.291 Y98.448 F10800.000
G1 F1200.000
G1 X144.723 Y98.968 E0.02413
G1 X144.149 Y99.267 E0.02030
G1 X143.197 Y99.514 E0.03082
G1 X127.003 Y99.513 E0.50778
G1 X127.003 Y111.371 E0.37179
G1 X143.197 Y111.369 E0.50777
G1 X144.157 Y111.618 E0.03109
G1 X144.979 Y112.114 E0.03008
G1 X145.294 Y112.467 E0.01484
G1 X145.671 Y112.890 F10800.000
G1 F1200.000
G1 X145.893 Y113.140 E0.01048
G1 X146.195 Y113.819 E0.02330
G1 X146.343 Y114.568 E0.02395
G1 X146.342 Y127.137 E0.39410
G1 X145.961 Y128.366 E0.04033
G1 X145.596 Y128.904 E0.02039
G1 X144.668 Y129.753 E0.03944
G1 X143.931 Y130.105 E0.02560
G1 X143.148 Y130.265 E0.02507
G1 X115.283 Y130.266 E0.87369
G1 X113.990 Y129.876 E0.04233
G1 X113.655 Y129.649 E0.01270
G1 X113.178 Y129.272 F10800.000
G1 F1200.000
G1 X112.874 Y128.952 E0.01384
G1 X112.571 Y129.272 E0.01381
G1 X112.141 Y129.649 F10800.000
G1 F1200.000
G1 X111.605 Y129.979 E0.01975
G1 X110.681 Y130.244 E0.03013
G1 X102.331 Y130.241 E0.26182
G1 X101.721 Y130.096 E0.01964
G1 X101.060 Y129.789 E0.02285
G1 X100.356 Y129.250 E0.02780
G1 X99.778 Y128.520 E0.02921
G1 X99.593 Y128.152 E0.01290
G1 X99.316 Y127.100 E0.03412
G1 X99.233 Y126.204 E0.02821
G1 X99.231 Y83.816 E1.32905
G1 X99.323 Y82.849 E0.03046
G1 X99.555 Y81.940 E0.02943
G1 X100.129 Y80.991 E0.03478
G1 X101.149 Y80.159 E0.04126
G1 X102.014 Y79.823 E0.02908
G1 X102.321 Y79.761 E0.00982
G1 X110.681 Y79.755 E0.26214
G1 X111.602 Y80.019 E0.03001
G1 X112.150 Y80.351 E0.02011
G1 X112.590 Y80.728 F10800.000
G1 F1200.000
G1 X112.901 Y81.029 E0.01356
G1 X113.162 Y80.728 E0.01249
G1 X113.666 Y80.351 F10800.000
G1 F1200.000
G1 X113.970 Y80.135 E0.01168
G1 X115.282 Y79.734 E0.04304
G1 X143.150 Y79.735 E0.87378
G1 X144.121 Y79.968 E0.03131
G1 X145.010 Y80.498 E0.03245
G1 X145.797 Y81.355 E0.03646
G1 X146.096 Y81.928 E0.02027
G1 X146.329 Y82.780 E0.02771
G1 X146.342 Y96.387 E0.42663
M73 Q0 S157
G1 X145.930 Y97.674 E0.04238
G1 X145.668 Y98.036 E0.01402
G1 X145.291 Y97.921 F10800.000
G1 F1200.000
G1 X144.524 Y98.647 E0.03311
G1 X144.030 Y98.909 E0.01752
G1 X143.172 Y99.137 E0.02783
G1 X126.625 Y99.136 E0.51882
M73 P0 R155
G1 X126.625 Y111.748 E0.39544
G1 X143.172 Y111.746 E0.51881
G1 X144.034 Y111.976 E0.02796
G1 X144.718 Y112.387 E0.02504
G1 X145.294 Y113.025 E0.02693
G1 X145.671 Y113.568 F10800.000
G1 F1200.000
G1 X145.842 Y113.952 E0.01319
G1 X145.965 Y114.586 E0.02025
G1 X145.965 Y127.108 E0.39261
G1 X145.611 Y128.223 E0.03669
G1 X145.299 Y128.671 E0.01712
G1 X144.478 Y129.427 E0.03498
G1 X143.830 Y129.741 E0.02258
G1 X143.128 Y129.888 E0.02249
G1 X115.310 Y129.889 E0.87220
G1 X114.513 Y129.649 E0.02610
G1 X113.771 Y129.272 F10800.000
G1 F1200.000
G1 X113.553 Y129.125 E0.00822
G1 X112.873 Y128.395 E0.03127
G1 X112.094 Y129.235 E0.03590
G1 X112.034 Y129.272 E0.00220
G1 X111.414 Y129.649 F10800.000
G1 F1200.000
G1 X110.655 Y129.867 E0.02478
G1 X102.353 Y129.864 E0.26028
G1 X101.863 Y129.746 E0.01581
G1 X101.239 Y129.456 E0.02160
G1 X100.607 Y128.967 E0.02506
G1 X100.088 Y128.304 E0.02639
G1 X99.941 Y128.004 E0.01047
G1 X99.685 Y127.020 E0.03187
G1 X99.610 Y126.196 E0.02596
G1 X99.609 Y83.825 E1.32852
G1 X99.692 Y82.928 E0.02824
G1 X99.913 Y82.061 E0.02804
G1 X100.433 Y81.216 E0.03112
G1 X101.313 Y80.500 E0.03557
G1 X102.136 Y80.181 E0.02767
G1 X102.341 Y80.139 E0.00655
G1 X110.655 Y80.132 E0.26070
G1 X111.418 Y80.351 E0.02488
G1 X112.044 Y80.728 F10800.000
G1 F1200.000
G1 X112.689 Y81.351 E0.02809
G1 X112.881 Y81.647 E0.01108
G1 X113.447 Y80.970 E0.02766
G1 X113.786 Y80.728 E0.01306
G1 X114.522 Y80.351 F10800.000
G1 F1200.000
G1 X115.310 Y80.111 E0.02585
G1 X143.129 Y80.112 E0.87223
G1 X143.956 Y80.308 E0.02665
G1 X144.753 Y80.775 E0.02899
G1 X145.476 Y81.554 E0.03330
G1 X145.738 Y82.048 E0.01754
G1 X145.959 Y82.856 E0.02625
G1 X145.965 Y96.357 E0.42332
G1 X145.668 Y97.266 E0.03000
G1 X145.291 Y97.212 F10800.000
G1 F1200.000
G1 X145.235 Y97.376 E0.00545
G1 X144.985 Y97.707 E0.01301
G1 X144.322 Y98.328 E0.02847
G1 X143.908 Y98.551 E0.01474
G1 X143.146 Y98.760 E0.02477
G1 X126.248 Y98.759 E0.52983
G1 X126.248 Y112.125 E0.41909
G1 X143.146 Y112.124 E0.52982
G1 X143.909 Y112.332 E0.02479
G1 X144.459 Y112.663 E0.02012
G1 X145.231 Y113.504 E0.03581
G1 X145.294 Y113.644 E0.00481
G1 F8640.000
G1 X145.231 Y113.504 E-0.03544
G1 X144.459 Y112.663 E-0.26369
G1 X143.909 Y112.332 E-0.14820
G1 X143.146 Y112.124 E-0.18257
G1 X142.583 Y112.124 E-0.13010
G1 E-0.04000 F2100.00000
G1 Z0.800 F10800.000
G1 X114.540 Y129.272
G1 Z0.200
G1 E0.80000 F2100.00000
G1 F1200.000
G1 X114.364 Y129.218 E0.00578
G1 X113.811 Y128.849 E0.02086
G1 X113.354 Y128.369 E0.02076
G1 X112.918 Y127.464 E0.03153
G1 X112.569 Y128.167 E0.02460
G1 X111.871 Y128.930 E0.03244
G1 X111.326 Y129.272 E0.02016
G1 F8640.000
G1 X111.871 Y128.930 E-0.14843
G1 X112.569 Y128.167 E-0.23891
G1 X112.918 Y127.464 E-0.18117
G1 X113.278 Y128.211 E-0.19149
G1 E-0.04000 F2100.00000
G1 Z0.800 F10800.000
G1 X101.240 Y128.984
G1 Z0.200
G1 E0.80000 F2100.00000
G1 F1200.000
G1 X100.859 Y128.685 E0.01521
G1 X100.399 Y128.091 E0.02355
G1 X100.289 Y127.860 E0.00802
G1 X100.054 Y126.942 E0.02970
G1 X99.987 Y126.188 E0.02375
G1 X99.986 Y83.834 E1.32798
G1 X100.066 Y82.978 E0.02694
G1 X100.270 Y82.185 E0.02570
G1 X100.735 Y81.443 E0.02743
G1 X101.114 Y81.136 E0.01527
G1 F8640.000
G1 X100.735 Y81.443 E-0.11248
G1 X100.270 Y82.185 E-0.20202
G1 X100.066 Y82.978 E-0.18924
G1 X99.986 Y83.834 E-0.19838
G1 X99.986 Y84.084 E-0.05788
G1 E-0.04000 F2100.00000
G1 Z0.800 F10800.000
G1 X111.328 Y80.728
G1 Z0.200
G1 E0.80000 F2100.00000
G1 F1200.000
G1 X111.850 Y81.051 E0.01925
G1 X112.401 Y81.596 E0.02430
G1 X112.924 Y82.514 E0.03312
G1 X113.237 Y81.812 E0.02409
G1 X113.687 Y81.262 E0.02228
G1 X114.357 Y80.785 E0.02577
G1 X114.545 Y80.728 E0.00619
G1 F8640.000
G1 X114.357 Y80.785 E-0.04558
G1 X113.687 Y81.262 E-0.18980
G1 X113.237 Y81.812 E-0.16410
G1 X112.924 Y82.514 E-0.17740
G1 X112.531 Y81.825 E-0.18311
G1 E-0.04000 F2100.00000
G1 Z0.800 F10800.000
G1 X111.158 Y81.060
G1 Z0.200
G1 E0.80000 F2100.00000
G1 F1200.000
G1 X111.630 Y81.358 E0.01752
G1 X112.115 Y81.843 E0.02150
G1 X112.453 Y82.451 E0.02181
G1 X112.578 Y83.011 E0.01798
G1 X112.559 Y83.961 E0.02980
G1 X112.411 Y84.501 E0.01755
G1 X112.115 Y85.051 E0.01961
G1 X111.587 Y85.604 E0.02395
G1 X110.839 Y86.014 E0.02677
G1 X110.222 Y86.147 E0.01979
G1 X109.416 Y86.149 E0.02526
G1 X109.084 Y86.171 E0.01044
G1 X108.794 Y86.221 E0.00921
G1 X108.420 Y86.328 E0.01219
G1 X107.940 Y86.547 E0.01654
G1 X107.617 Y86.763 E0.01219
G1 X107.355 Y86.987 E0.01082
G1 X107.013 Y87.385 E0.01643
G1 X106.800 Y87.732 E0.01278
G1 X106.597 Y88.208 E0.01622
G1 X106.482 Y88.738 E0.01701
G1 X106.455 Y89.174 E0.01369
G1 X106.455 Y120.945 E0.99616
G1 X106.507 Y121.547 E0.01894
G1 X106.657 Y122.079 E0.01734
G1 X106.810 Y122.411 E0.01148
G1 X107.106 Y122.855 E0.01671
G1 X107.355 Y123.129 E0.01160
G1 X107.648 Y123.380 E0.01211
G1 X108.101 Y123.655 E0.01663
G1 X108.457 Y123.804 E0.01208
G1 X108.702 Y123.876 E0.00800
G1 X108.995 Y123.932 E0.00937
G1 X109.311 Y123.960 E0.00994
G1 X110.394 Y123.983 E0.03397
G1 X111.036 Y124.175 E0.02102
G1 X111.412 Y124.381 E0.01343
G1 X111.966 Y124.871 E0.02318
G1 X112.450 Y125.713 E0.03046
G1 X112.577 Y126.319 E0.01940
G1 X112.556 Y127.186 E0.02720
G1 X112.463 Y127.527 E0.01108
G1 X112.269 Y127.936 E0.01419
G1 X111.645 Y128.627 E0.02919
G1 X111.158 Y128.939 E0.01815
G1 X110.597 Y129.113 E0.01839
G1 X102.400 Y129.110 E0.25702
G1 X102.149 Y129.047 E0.00813
G1 X101.597 Y128.791 E0.01906
G1 X101.514 Y128.725 E0.00334
G1 F8640.000
G1 X101.597 Y128.791 E-0.02459
G1 X102.149 Y129.047 E-0.14037
G1 X102.400 Y129.110 E-0.05990
G1 X104.718 Y129.111 E-0.53514
G1 E-0.04000 F2100.00000
G1 Z0.800 F10800.000
G1 X101.432 Y81.352
G1 Z0.200
G1 E0.80000 F2100.00000
G1 F1200.000
G1 X101.641 Y81.182 E0.00846
G1 X102.411 Y80.889 E0.02583
G1 X110.598 Y80.886 E0.25668
G1 X111.158 Y81.060 E0.01837
G1 F8640.000
G1 X110.598 Y80.886 E-0.13528
G1 X107.892 Y80.887 E-0.62472
G1 E-0.04000 F2100.00000
G1 Z0.800 F10800.000
G1 X102.465 Y81.266
