; generated by PrusaSlicer 2.2.0+win64 on 2022-01-16 at 14:40:28 UTC

; 

; external perimeters extrusion width = 0.60mm
; perimeters extrusion width = 0.50mm
; infill extrusion width = 0.50mm
; solid infill extrusion width = 0.50mm
; top infill extrusion width = 0.45mm
; first layer extrusion width = 0.42mm

; external perimeters extrusion width = 0.60mm
; perimeters extrusion width = 0.50mm
; infill extrusion width = 0.50mm
; solid infill extrusion width = 0.50mm
; top infill extrusion width = 0.45mm
; first layer extrusion width = 0.42mm

M73 P0 R25
M73 Q0 S25
M201 X1000 Y1000 Z200 E5000 ; sets maximum accelerations, mm/sec^2
M203 X200 Y200 Z12 E120 ; sets maximum feedrates, mm/sec
M204 P1250 R1250 T1250 ; sets acceleration (P, T) and retract acceleration (R), mm/sec^2
M205 X8.00 Y8.00 Z0.40 E4.50 ; sets the jerk limits, mm/sec
M205 S0 T0 ; sets the minimum extruding and travel feed rate, mm/sec
M107
M862.3 P "MK3S" ; printer model check
M862.1 P0.4 ; nozzle diameter check
M115 U3.10.1 ; tell printer latest fw version
G90 ; use absolute coordinates
M83 ; extruder relative mode
M104 S225 ; set extruder temp
M140 S80 ; set bed temp
M190 S80 ; wait for bed temp
M109 S225 ; wait for extruder temp
G28 W ; home all without mesh bed level
G80 ; mesh bed leveling
G1 Y-3.0 F1000.0 ; go outside print area
G92 E0.0
G1 X60.0 E9.0 F1000.0 ; intro line
M73 Q0 S25
M73 P0 R25
G1 X100.0 E12.5 F1000.0 ; intro line
G92 E0.0
M221 S95

; Don't change E values below. Excessive value can damage the printer.

M907 E538 ; set extruder motor current
G21 ; set units to millimeters
G90 ; use absolute coordinates
M83 ; use relative distances for extrusion
M900 K0.05 ; Filament gcode LA 1.5
M900 K30 ; Filament gcode LA 1.0
;BEFORE_LAYER_CHANGE
G92 E0.0
;0.2


G1 Z0.200 F15000.000
;AFTER_LAYER_CHANGE
;0.2
G1 E-0.80000 F4200.00000
G1 Z0.300 F15000.000
G1 X111.714 Y94.216
G1 Z0.200
G1 E0.80000 F4200.00000
M204 S1000
G1 F3600.000
G1 X112.615 Y93.202 E0.04254
G1 X114.073 Y91.869 E0.06194
G1 X119.973 Y88.681 E0.21026
G1 X121.659 Y88.225 E0.05478
G1 X123.548 Y87.965 E0.05979
G1 X130.806 Y88.922 E0.22951
G1 X132.724 Y89.741 E0.06539
G1 X133.748 Y90.292 E0.03647
G1 X134.210 Y90.644 E0.01822
G1 X138.995 Y95.212 E0.20741
G1 X139.593 Y96.087 E0.03325
G1 X140.198 Y97.165 E0.03873
G1 X140.814 Y98.600 E0.04897
G1 X142.075 Y105.496 E0.21980
G1 X141.941 Y107.299 E0.05671
G1 X141.556 Y109.180 E0.06019
G1 X138.654 Y115.239 E0.21064
G1 X137.541 Y116.618 E0.05556
G1 X136.563 Y117.595 E0.04335
G1 X136.014 Y118.034 E0.02205
G1 X129.940 Y121.327 E0.21661
G1 X128.422 Y121.750 E0.04943
G1 X126.577 Y122.034 E0.05851
G1 X125.988 Y122.023 E0.01848
G1 X119.316 Y121.115 E0.21115
G1 X117.287 Y120.259 E0.06902
G1 X116.343 Y119.750 E0.03364
G1 X115.900 Y119.413 E0.01745
G1 X110.962 Y114.711 E0.21379
G1 X110.640 Y114.298 E0.01643
G1 X109.943 Y113.107 E0.04328
G1 X109.136 Y111.324 E0.06134
G1 X107.915 Y104.614 E0.21384
G1 X108.094 Y102.412 E0.06927
G1 X108.424 Y100.916 E0.04805
G1 X111.418 Y94.653 E0.21765
G1 X111.680 Y94.265 E0.01468
M204 S1250
G1 X112.000 Y94.531 F15000.000
M204 S1000
G1 F3600.000
G1 X112.890 Y93.460 E0.04368
G1 X114.271 Y92.190 E0.05880
G1 X120.133 Y89.022 E0.20895
G1 X121.733 Y88.595 E0.05190
G1 X123.550 Y88.342 E0.05754
G1 X130.704 Y89.285 E0.22625
G1 X132.548 Y90.075 E0.06289
G1 X133.544 Y90.609 E0.03543
G1 X133.952 Y90.919 E0.01609
G1 X138.715 Y95.465 E0.20642
G1 X139.864 Y97.338 E0.06891
G1 X140.446 Y98.683 E0.04593
G1 X141.699 Y105.527 E0.21817
G1 X141.568 Y107.246 E0.05405
G1 X141.205 Y109.044 E0.05752
G1 X138.323 Y115.057 E0.20906
G1 X137.265 Y116.360 E0.05263
G1 X135.812 Y117.716 E0.06232
G1 X129.774 Y120.989 E0.21533
G1 X128.336 Y121.382 E0.04675
G1 X126.547 Y121.658 E0.05674
G1 X126.034 Y121.649 E0.01609
G1 X119.409 Y120.749 E0.20965
G1 X117.460 Y119.924 E0.06633
G1 X116.551 Y119.434 E0.03240
G1 X116.156 Y119.136 E0.01550
G1 X111.237 Y114.454 E0.21295
G1 X110.276 Y112.929 E0.05651
G1 X109.503 Y111.236 E0.05836
G1 X108.290 Y104.583 E0.21203
G1 X108.395 Y102.987 E0.05016
G1 X108.774 Y101.055 E0.06172
G1 X111.748 Y94.835 E0.21617
G1 X111.962 Y94.578 E0.01050
M204 S1250
G1 F12000.000
G1 X112.890 Y93.460 E-0.48314
G1 X113.503 Y92.896 E-0.27686
G1 E-0.04000 F4200.00000
G1 Z0.300 F15000.000
G1 X109.922 Y97.344
G1 Z0.200
G1 E0.80000 F4200.00000
M204 S1000
G1 F3600.000
G1 X109.837 Y96.972 E0.01196
G1 X109.821 Y95.688 E0.04025
G1 X110.253 Y94.226 E0.04782
G1 X110.726 Y93.485 E0.02757
G1 X111.460 Y92.651 E0.03484
G1 X111.986 Y92.097 E0.02394
G1 X113.417 Y90.770 E0.06120
G1 X114.377 Y90.211 E0.03482
G1 X115.753 Y89.863 E0.04452
G1 X116.977 Y89.903 E0.03840
G1 X117.177 Y89.940 E0.00636
G1 X118.003 Y88.669 E0.04750
G1 X118.823 Y87.937 E0.03448
G1 X119.755 Y87.440 E0.03312
G1 X121.338 Y87.045 E0.05116
G1 X122.086 Y86.908 E0.02384
G1 X123.724 Y86.702 E0.05178
G1 X124.445 Y86.702 E0.02259
M204 S1250
M204 S1000
G1 X126.190 Y87.262 E0.05747
G1 X127.208 Y88.009 E0.03959
G1 X127.445 Y88.288 E0.01147
M204 S1250
G1 X127.587 Y88.307 F15000.000
M204 S1000
G1 F3600.000
G1 X127.870 Y88.132 E0.01043
G1 X128.952 Y87.737 E0.03614
G1 X130.003 Y87.602 E0.03321
G1 X131.218 Y87.760 E0.03843
G1 X132.112 Y88.109 E0.03007
G1 X133.262 Y88.645 E0.03978
G1 X134.964 Y89.591 E0.06105
G1 X135.954 Y90.542 E0.04304
G1 X136.539 Y91.554 E0.03667
G1 X136.928 Y92.930 E0.04484
G1 X137.178 Y92.949 E0.00786
G1 X138.350 Y93.293 E0.03829
G1 X139.710 Y94.178 E0.05088
G1 X140.137 Y94.676 E0.02058
G1 X140.585 Y95.364 E0.02573
G1 X141.303 Y96.643 E0.04599
G1 X142.099 Y98.392 E0.06024
G1 X142.299 Y99.363 E0.03111
G1 X142.270 Y100.419 E0.03310
G1 X141.814 Y101.880 E0.04800
G1 X141.655 Y102.152 E0.00988
M204 S1250
G1 X141.676 Y102.266 F15000.000
M204 S1000
G1 F3600.000
G1 X142.554 Y103.300 E0.04255
G1 X143.098 Y104.414 E0.03888
G1 X143.313 Y105.633 E0.03879
G1 X143.207 Y107.009 E0.04329
G1 X143.105 Y107.785 E0.02453
G1 X142.660 Y109.913 E0.06818
G1 X142.248 Y110.772 E0.02986
G1 X141.621 Y111.569 E0.03180
G1 X140.183 Y112.600 E0.05549
G1 X140.256 Y114.055 E0.04569
G1 X139.850 Y115.590 E0.04979
G1 X139.344 Y116.413 E0.03026
G1 X138.502 Y117.375 E0.04010
G1 X138.007 Y117.896 E0.02253
G1 X136.659 Y119.146 E0.05764
G1 X135.696 Y119.711 E0.03503
G1 X134.498 Y120.038 E0.03892
G1 X133.323 Y120.048 E0.03684
G1 X132.856 Y119.961 E0.01490
M204 S1250
G1 X132.716 Y120.037 F15000.000
M204 S1000
G1 F3600.000
G1 X132.653 Y120.188 E0.00515
G1 X131.795 Y121.456 E0.04801
G1 X131.023 Y122.116 E0.03183
G1 X130.079 Y122.599 E0.03326
G1 X128.035 Y123.062 E0.06570
G1 X126.114 Y123.309 E0.06075
G1 X124.956 Y123.215 E0.03640
G1 X123.833 Y122.812 E0.03741
G1 X122.613 Y121.925 E0.04730
G1 X122.479 Y121.784 E0.00610
G1 X120.880 Y122.354 E0.05323
G1 X119.823 Y122.422 E0.03321
G1 X118.839 Y122.257 E0.03129
G1 X117.386 Y121.660 E0.04924
G1 X116.703 Y121.332 E0.02375
G1 X115.275 Y120.546 E0.05110
G1 X114.696 Y120.126 E0.02243
G1 X113.652 Y118.731 E0.05463
G1 X113.272 Y117.646 E0.03606
G1 X113.210 Y117.112 E0.01686
M204 S1250
G1 X113.063 Y116.972 F15000.000
M204 S1000
G1 F3600.000
G1 X112.753 Y116.949 E0.00975
G1 X111.590 Y116.609 E0.03799
G1 X110.686 Y116.098 E0.03256
G1 X109.785 Y115.221 E0.03943
G1 X109.066 Y114.043 E0.04327
G1 X108.535 Y113.036 E0.03570
G1 X107.854 Y111.522 E0.05202
G1 X107.638 Y110.287 E0.03934
G1 X107.761 Y109.077 E0.03811
G1 X108.245 Y107.783 E0.04332
G1 X107.328 Y106.639 E0.04599
G1 X106.860 Y105.574 E0.03646
G1 X106.677 Y104.479 E0.03483
G1 X106.792 Y102.950 E0.04808
G1 X106.892 Y102.194 E0.02391
G1 X107.299 Y100.228 E0.06293
G1 X107.754 Y99.278 E0.03305
G1 X108.398 Y98.482 E0.03210
G1 X109.620 Y97.598 E0.04727
G1 X109.848 Y97.500 E0.00779
M204 S1250
G1 X109.558 Y98.106 F15000.000
M204 S1000
G1 F3600.000
G1 X108.675 Y98.739 E0.03406
G1 X108.062 Y99.497 E0.03057
G1 X107.650 Y100.368 E0.03022
G1 X107.265 Y102.249 E0.06020
G1 X107.167 Y102.983 E0.02321
G1 X107.055 Y104.483 E0.04716
G1 X107.228 Y105.486 E0.03190
G1 X107.663 Y106.462 E0.03352
G1 X108.175 Y107.100 E0.02564
M204 S1250
G1 F12000.000
G1 X107.663 Y106.462 E-0.27195
G1 X107.228 Y105.486 E-0.35544
G1 X107.160 Y105.093 E-0.13261
G1 E-0.04000 F4200.00000
G1 Z0.300 F15000.000
G1 X108.414 Y108.409
G1 Z0.200
G1 E0.80000 F4200.00000
M204 S1000
G1 F3600.000
G1 X108.123 Y109.187 E0.02604
G1 X108.014 Y110.249 E0.03348
G1 X108.208 Y111.390 E0.03629
G1 X108.871 Y112.865 E0.05070
G1 X109.391 Y113.851 E0.03496
G1 X110.094 Y115.003 E0.04231
G1 X110.930 Y115.810 E0.03642
G1 X111.716 Y116.253 E0.02831
G1 X112.569 Y116.502 E0.02786
M204 S1250
G1 F12000.000
G1 X111.716 Y116.253 E-0.29545
G1 X110.930 Y115.810 E-0.30017
G1 X110.574 Y115.467 E-0.16438
G1 E-0.04000 F4200.00000
G1 Z0.300 F15000.000
G1 X113.632 Y117.514
G1 Z0.200
G1 E0.80000 F4200.00000
M204 S1000
G1 F3600.000
G1 X113.998 Y118.579 E0.03533
G1 X114.941 Y119.838 E0.04931
G1 X115.468 Y120.221 E0.02042
G1 X116.872 Y120.994 E0.05024
G1 X117.535 Y121.314 E0.02309
G1 X118.924 Y121.889 E0.04713
G1 X119.821 Y122.044 E0.02854
G1 X120.829 Y121.979 E0.03168
G1 X121.779 Y121.641 E0.03163
M204 S1250
G1 F12000.000
G1 X120.829 Y121.979 E-0.33541
G1 X119.821 Y122.044 E-0.33591
G1 X119.558 Y121.999 E-0.08868
G1 E-0.04000 F4200.00000
G1 Z0.300 F15000.000
G1 X123.110 Y121.822
G1 Z0.200
G1 E0.80000 F4200.00000
M204 S1000
G1 F3600.000
G1 X123.989 Y122.468 E0.03421
G1 X125.014 Y122.842 E0.03422
G1 X126.086 Y122.932 E0.03373
G1 X127.962 Y122.692 E0.05929
G1 X129.930 Y122.252 E0.06325
G1 X130.796 Y121.815 E0.03040
G1 X131.530 Y121.187 E0.03029
G1 X132.063 Y120.391 E0.03005
M204 S1250
G1 F12000.000
G1 X131.530 Y121.187 E-0.31871
G1 X130.796 Y121.815 E-0.32117
G1 X130.473 Y121.978 E-0.12012
G1 E-0.04000 F4200.00000
G1 Z0.300 F15000.000
G1 X133.392 Y119.670
G1 Z0.200
G1 E0.80000 F4200.00000
M204 S1000
G1 F3600.000
G1 X134.469 Y119.661 E0.03379
G1 X135.570 Y119.355 E0.03583
G1 X136.418 Y118.856 E0.03083
G1 X137.738 Y117.631 E0.05646
G1 X138.221 Y117.124 E0.02197
G1 X139.051 Y116.175 E0.03951
G1 X139.493 Y115.466 E0.02620
G1 X139.884 Y113.988 E0.04793
G1 X139.839 Y113.201 E0.02472
M204 S1250
G1 F12000.000
G1 X139.884 Y113.988 E-0.26215
G1 X139.501 Y115.436 E-0.49785
G1 E-0.04000 F4200.00000
G1 Z0.300 F15000.000
G1 X140.426 Y111.975
G1 Z0.200
G1 E0.80000 F4200.00000
M204 S1000
G1 F3600.000
G1 X141.341 Y111.316 E0.03535
G1 X141.938 Y110.556 E0.03030
G1 X142.309 Y109.773 E0.02717
G1 X142.732 Y107.729 E0.06544
G1 X142.831 Y106.974 E0.02389
G1 X142.937 Y105.672 E0.04095
G1 X142.746 Y104.553 E0.03558
G1 X142.251 Y103.524 E0.03581
G1 X141.811 Y103.004 E0.02137
M204 S1250
G1 F12000.000
G1 X142.251 Y103.524 E-0.22662
G1 X142.746 Y104.553 E-0.37972
G1 X142.824 Y105.009 E-0.15366
G1 E-0.04000 F4200.00000
G1 Z0.300 F15000.000
G1 X141.537 Y101.507
G1 Z0.200
G1 E0.80000 F4200.00000
M204 S1000
G1 F3600.000
G1 X141.894 Y100.382 E0.03701
G1 X141.921 Y99.376 E0.03154
G1 X141.735 Y98.490 E0.02837
G1 X140.963 Y96.808 E0.05804
G1 X140.259 Y95.554 E0.04507
G1 X139.829 Y94.893 E0.02475
G1 X139.443 Y94.445 E0.01853
G1 X138.170 Y93.625 E0.04746
G1 X137.364 Y93.394 E0.02630
M204 S1250
G1 F12000.000
G1 X138.170 Y93.625 E-0.27888
G1 X139.387 Y94.409 E-0.48112
G1 E-0.04000 F4200.00000
G1 Z0.300 F15000.000
G1 X136.410 Y92.484
G1 Z0.200
G1 E0.80000 F4200.00000
M204 S1000
G1 F3600.000
G1 X136.183 Y91.679 E0.02621
G1 X135.673 Y90.794 E0.03204
G1 X134.759 Y89.909 E0.03990
G1 X133.096 Y88.984 E0.05963
G1 X131.958 Y88.453 E0.03938
G1 X131.104 Y88.120 E0.02876
G1 X129.980 Y87.979 E0.03550
G1 X129.062 Y88.098 E0.02903
G1 X128.250 Y88.395 E0.02710
M204 S1250
G1 F12000.000
G1 X129.062 Y88.098 E-0.28735
G1 X129.980 Y87.979 E-0.30783
G1 X130.472 Y88.041 E-0.16481
G1 E-0.04000 F4200.00000
G1 Z0.300 F15000.000
G1 X126.844 Y88.209
G1 Z0.200
G1 E0.80000 F4200.00000
M204 S1000
G1 F3600.000
G1 X125.992 Y87.584 E0.03313
G1 X124.415 Y87.079 E0.05192
G1 X123.759 Y87.077 E0.02055
M204 S1250
M204 S1000
G1 X122.148 Y87.280 E0.05091
G1 X121.422 Y87.412 E0.02315
G1 X119.912 Y87.784 E0.04878
G1 X119.021 Y88.259 E0.03164
G1 X118.274 Y88.932 E0.03153
G1 X117.828 Y89.625 E0.02585
M204 S1250
G1 F12000.000
G1 X118.274 Y88.932 E-0.27415
G1 X119.021 Y88.259 E-0.33437
G1 X119.423 Y88.044 E-0.15148
G1 E-0.04000 F4200.00000
G1 Z0.300 F15000.000
G1 X116.641 Y90.267
G1 Z0.200
G1 E0.80000 F4200.00000
M204 S1000
G1 F3600.000
G1 X115.817 Y90.236 E0.02584
G1 X114.541 Y90.551 E0.04120
G1 X113.658 Y91.061 E0.03199
G1 X112.255 Y92.361 E0.05997
G1 X111.741 Y92.903 E0.02341
G1 X111.018 Y93.724 E0.03430
G1 X110.606 Y94.361 E0.02379
G1 X110.199 Y95.713 E0.04427
G1 X110.212 Y96.739 E0.03218
M204 S1250
G1 X110.579 Y95.971 F15000.000
M204 S1000
G1 F3600.000
G1 X110.576 Y95.738 E0.00729
G1 X110.958 Y94.499 E0.04067
G1 X111.309 Y93.964 E0.02007
G1 X112.021 Y93.155 E0.03379
G1 X112.524 Y92.626 E0.02289
G1 X113.899 Y91.352 E0.05876
G1 X114.660 Y90.910 E0.02759
G1 X115.830 Y90.614 E0.03784
G1 X115.989 Y90.620 E0.00497
M204 S1250
G1 F12000.000
G1 X115.830 Y90.614 E-0.05270
G1 X114.660 Y90.910 E-0.40132
G1 X113.899 Y91.352 E-0.29261
G1 X113.870 Y91.379 E-0.01337
G1 E-0.04000 F4200.00000
G1 Z0.300 F15000.000
G1 X117.330 Y90.751
G1 Z0.200
G1 E0.80000 F4200.00000
M204 S1000
G1 F3600.000
G1 X117.665 Y90.828 E0.01078
G1 X117.779 Y90.508 E0.01063
M204 S1250
G1 F12000.000
G1 X117.665 Y90.828 E-0.11274
G1 X117.330 Y90.751 E-0.11432
G1 E-0.57293 F4200.00000
G1 Z0.300 F15000.000
G1 X118.505 Y89.260
G1 Z0.200
G1 E0.80000 F4200.00000
M204 S1000
G1 F3600.000
G1 X118.547 Y89.193 E0.00246
G1 X119.220 Y88.580 E0.02853
G1 X120.068 Y88.128 E0.03013
G1 X121.505 Y87.780 E0.04637
G1 X122.211 Y87.652 E0.02249
G1 X123.794 Y87.453 E0.05003
G1 X124.384 Y87.455 E0.01851
M204 S1250
M204 S1000
G1 X125.793 Y87.906 E0.04639
G1 X126.066 Y88.107 E0.01061
M204 S1250
G1 F12000.000
G1 X125.793 Y87.906 E-0.11253
G1 X124.384 Y87.455 E-0.49193
G1 E-0.19555 F4200.00000
G1 Z0.300 F15000.000
G1 X127.043 Y88.993
G1 Z0.200
G1 E0.80000 F4200.00000
M204 S1000
G1 F3600.000
G1 X127.340 Y89.367 E0.01499
G1 X127.767 Y89.088 E0.01600
M204 S1250
G1 F12000.000
G1 X127.340 Y89.367 E-0.16965
G1 X127.043 Y88.993 E-0.15892
G1 E-0.47143 F4200.00000
G1 Z0.300 F15000.000
G1 X129.058 Y88.501
G1 Z0.200
G1 E0.80000 F4200.00000
M204 S1000
G1 F3600.000
G1 X129.172 Y88.460 E0.00382
G1 X129.959 Y88.356 E0.02489
G1 X130.989 Y88.480 E0.03253
G1 X131.804 Y88.798 E0.02742
G1 X132.931 Y89.323 E0.03897
G1 X134.553 Y90.226 E0.05820
G1 X135.390 Y91.045 E0.03673
G1 X135.826 Y91.804 E0.02745
G1 X135.873 Y91.971 E0.00546
M204 S1250
G1 F12000.000
G1 X135.826 Y91.804 E-0.05785
G1 X135.390 Y91.045 E-0.29111
G1 X134.553 Y90.226 E-0.38948
G1 X134.496 Y90.194 E-0.02155
G1 E-0.04000 F4200.00000
G1 Z0.300 F15000.000
G1 X136.168 Y93.295
G1 Z0.200
G1 E0.80000 F4200.00000
M204 S1000
G1 F3600.000
G1 X136.187 Y93.675 E0.01192
G1 X136.573 Y93.681 E0.01210
M204 S1250
G1 F12000.000
G1 X136.187 Y93.675 E-0.12834
G1 X136.168 Y93.295 E-0.12640
G1 E-0.54526 F4200.00000
G1 Z0.300 F15000.000
G1 X137.951 Y93.954
G1 Z0.200
G1 E0.80000 F4200.00000
M204 S1000
G1 F3600.000
G1 X138.040 Y93.980 E0.00291
G1 X139.175 Y94.712 E0.04237
G1 X139.520 Y95.110 E0.01649
G1 X139.934 Y95.744 E0.02375
G1 X140.624 Y96.973 E0.04418
G1 X141.371 Y98.591 E0.05589
G1 X141.543 Y99.389 E0.02559
G1 X141.518 Y100.344 E0.02996
G1 X141.394 Y100.726 E0.01259
M204 S1250
G1 F12000.000
G1 X141.518 Y100.344 E-0.13350
G1 X141.543 Y99.389 E-0.31767
G1 X141.371 Y98.591 E-0.27142
G1 X141.324 Y98.489 E-0.03740
G1 E-0.04000 F4200.00000
G1 Z0.300 F15000.000
G1 X140.862 Y102.000
G1 Z0.200
G1 E0.80000 F4200.00000
M204 S1000
G1 F3600.000
G1 X140.589 Y102.434 E0.01607
G1 X140.993 Y102.720 E0.01554
M204 S1250
G1 F12000.000
G1 X140.589 Y102.434 E-0.16484
G1 X140.862 Y102.000 E-0.17041
G1 E-0.46474 F4200.00000
G1 Z0.300 F15000.000
G1 X141.951 Y103.769
G1 Z0.200
G1 E0.80000 F4200.00000
M204 S1000
G1 F3600.000
G1 X142.380 Y104.646 E0.03060
G1 X142.559 Y105.666 E0.03248
G1 X142.456 Y106.938 E0.04003
G1 X142.359 Y107.673 E0.02324
G1 X141.958 Y109.634 E0.06275
G1 X141.628 Y110.340 E0.02444
G1 X141.061 Y111.061 E0.02875
G1 X140.762 Y111.275 E0.01153
M204 S1250
G1 F12000.000
G1 X141.061 Y111.061 E-0.12230
G1 X141.628 Y110.340 E-0.30487
