; generated by PrusaSlicer 2.2.0+win64 on 2020-10-18 at 02:30:47 UTC

; 

; external perimeters extrusion width = 0.45mm
; perimeters extrusion width = 0.45mm
; infill extrusion width = 0.45mm
; solid infill extrusion width = 0.45mm
; top infill extrusion width = 0.40mm
; first layer extrusion width = 0.42mm

M73 P0 R85
M73 Q0 S86
M201 X1000 Y1000 Z200 E5000 ; sets maximum accelerations, mm/sec^2
M203 X200 Y200 Z12 E120 ; sets maximum feedrates, mm/sec
M204 P1250 R1250 T1250 ; sets acceleration (P, T) and retract acceleration (R), mm/sec^2
M205 X8.00 Y8.00 Z0.40 E4.50 ; sets the jerk limits, mm/sec
M205 S0 T0 ; sets the minimum extruding and travel feed rate, mm/sec
M107
M862.3 P "MK3S" ; printer model check
M862.1 P0.4 ; nozzle diameter check
M115 U3.9.1 ; tell printer latest fw version
G90 ; use absolute coordinates
M83 ; extruder relative mode
M104 S215 ; set extruder temp
M140 S60 ; set bed temp
M190 S60 ; wait for bed temp
M109 S215 ; wait for extruder temp
G28 W ; home all without mesh bed level
G80 ; mesh bed leveling
G1 Y-3.0 F1000.0 ; go outside print area
G92 E0.0
G1 X60.0 E9.0 F1000.0 ; intro line
M73 Q0 S86
M73 P0 R85
G1 X100.0 E12.5 F1000.0 ; intro line
G92 E0.0
M221 S95

; Don't change E values below. Excessive value can damage the printer.
M907 E430 ; set extruder motor current
G21 ; set units to millimeters
G90 ; use absolute coordinates
M83 ; use relative distances for extrusion
M900 K0.05 ; Filament gcode LA 1.5
M900 K30 ; Filament gcode LA 1.0
;BEFORE_LAYER_CHANGE
G92 E0.0
;0.2


G1 E-0.80000 F2100.00000
G1 Z0.600 F10800.000
;AFTER_LAYER_CHANGE
;0.2
G1 X15.367 Y110.091
G1 Z0.200
G1 E0.80000 F2100.00000
M204 S1000
G1 F1200.000
G1 X15.975 Y109.505 E0.02649
G1 X16.534 Y109.230 E0.01953
G1 X18.094 Y108.790 E0.05083
G1 X25.731 Y108.745 E0.23947
G1 X142.300 Y108.793 E3.65494
G1 X226.891 Y109.868 E2.65251
G1 X237.030 Y110.099 E0.31799
G1 X237.802 Y110.414 E0.02614
G1 X238.416 Y110.973 E0.02602
G1 X238.939 Y111.949 E0.03473
G1 X239.089 Y112.769 E0.02614
G1 X238.549 Y126.505 E0.43100
G1 X237.245 Y153.955 E0.86164
G1 X237.085 Y154.438 E0.01597
G1 X236.826 Y154.877 E0.01597
G1 X235.865 Y155.802 E0.04182
G1 X164.891 Y201.506 E2.64684
G1 X164.169 Y201.815 E0.02461
G1 X163.609 Y201.883 E0.01769
G1 X41.350 Y201.986 E3.83335
G1 X40.851 Y201.933 E0.01574
G1 X40.193 Y201.687 E0.02201
G1 X39.639 Y201.262 E0.02190
G1 X38.428 Y199.427 E0.06894
G1 X25.844 Y167.071 E1.08852
G1 X16.564 Y142.195 E0.83246
G1 X16.177 Y138.524 E0.11574
G1 X14.919 Y111.761 E0.84006
G1 X15.002 Y110.853 E0.02859
G1 X15.341 Y110.145 E0.02461
G1 F8640.000
G1 X15.975 Y109.505 E-0.20812
G1 X16.534 Y109.230 E-0.14382
G1 X18.094 Y108.790 E-0.37429
G1 X18.240 Y108.789 E-0.03376
G1 E-0.04000 F2100.00000
G1 Z0.800 F10800.000
G1 X28.455 Y106.620
G1 Z0.200
G1 E0.80000 F2100.00000
G1 F1200.000
G1 X25.976 Y106.415 E0.07800
G1 X17.717 Y106.482 E0.25895
G1 X15.494 Y107.116 E0.07249
G1 X14.664 Y107.542 E0.02926
G1 X13.775 Y108.318 E0.03698
G1 X13.183 Y109.140 E0.03177
G1 X12.765 Y110.064 E0.03181
G1 X12.587 Y111.938 E0.05902
G1 X13.126 Y117.866 E0.18664
G1 X13.483 Y130.174 E0.38607
G1 X13.987 Y137.412 E0.22749
G1 X13.829 Y138.575 E0.03679
G1 X14.267 Y142.657 E0.12872
G1 X21.100 Y160.601 E0.60203
G1 X22.211 Y164.118 E0.11566
G1 X22.676 Y165.023 E0.03191
G1 X22.796 Y165.190 E0.00645
G1 X23.654 Y167.889 E0.08878
G1 X32.596 Y190.420 E0.76006
G1 X33.598 Y193.556 E0.10321
G1 X34.989 Y196.517 E0.10259
G1 X36.249 Y200.296 E0.12490
G1 X37.926 Y202.873 E0.09640
G1 X38.677 Y203.508 E0.03082
G1 X39.556 Y203.983 E0.03134
G1 X41.174 Y204.335 E0.05193
G1 X46.765 Y204.019 E0.17559
G1 X47.581 Y203.737 E0.02706
G1 X50.721 Y202.166 E0.11008
G1 X51.250 Y201.789 F10800.000
G1 F1200.000
G1 X51.993 Y201.192 E0.02988
G1 X55.233 Y196.744 E0.17256
G1 X56.227 Y195.873 E0.04142
G1 X61.428 Y189.187 E0.26558
G1 X64.916 Y184.335 E0.18738
G1 X65.424 Y184.018 E0.01876
G1 X66.261 Y183.153 E0.03773
G1 X66.901 Y182.080 E0.03917
G1 X67.157 Y181.305 E0.02561
G1 X72.313 Y174.405 E0.27006
G1 X72.920 Y172.784 E0.05428
G1 X73.115 Y170.878 E0.06006
G1 X73.969 Y170.730 E0.02718
G1 X74.917 Y170.319 E0.03241
G1 X75.937 Y169.649 E0.03824
G1 X76.705 Y168.936 E0.03286
G1 X77.812 Y166.992 E0.07015
G1 X90.588 Y150.238 E0.66060
G1 X92.832 Y148.243 E0.09414
G1 X94.549 Y147.589 E0.05763
G1 X95.109 Y147.545 E0.01760
G1 X97.029 Y147.065 E0.06206
G1 X98.942 Y147.065 E0.05998
G1 X102.362 Y147.886 E0.11027
G1 X105.825 Y149.617 E0.12139
G1 X108.623 Y151.679 E0.10899
G1 X110.522 Y153.577 E0.08418
G1 X112.813 Y156.416 E0.11439
G1 X113.794 Y157.181 E0.03902
G1 X114.809 Y157.625 E0.03474
G1 X117.616 Y158.204 E0.08986
G1 X121.274 Y157.924 E0.11501
G1 X122.381 Y157.530 E0.03686
G1 X123.228 Y157.021 E0.03097
G1 X124.288 Y155.978 E0.04664
G1 X124.855 Y155.144 E0.03162
G1 X125.376 Y153.491 E0.05434
G1 X126.641 Y120.575 E1.03281
G1 X126.765 Y119.178 E0.04396
G1 X127.108 Y119.176 E0.01075
G1 X127.309 Y121.156 E0.06240
G1 X127.170 Y122.045 E0.02820
G1 X127.591 Y130.540 E0.26667
G1 X129.251 Y138.935 E0.26833
G1 X129.919 Y140.328 E0.04844
G1 X130.224 Y141.697 E0.04397
G1 X130.504 Y142.339 E0.02195
G1 X130.624 Y142.898 E0.01795
G1 X131.382 Y144.386 E0.05234
G1 X131.723 Y145.815 E0.04607
G1 X132.215 Y146.870 E0.03651
G1 X132.238 Y147.060 E0.00600
G1 X132.523 Y148.072 E0.03296
G1 X133.042 Y148.998 E0.03326
G1 X133.516 Y150.837 E0.05955
G1 X134.650 Y153.355 E0.08658
G1 X135.677 Y156.607 E0.10695
G1 X137.039 Y159.707 E0.10615
G1 X137.317 Y161.000 E0.04146
G1 X139.442 Y165.957 E0.16909
G1 X140.091 Y168.187 E0.07285
G1 X140.935 Y169.755 E0.05580
G1 X141.531 Y171.812 E0.06717
G1 X141.923 Y172.534 E0.02574
G1 X142.200 Y172.887 E0.01409
G1 X144.522 Y179.544 E0.22104
G1 X145.172 Y180.792 E0.04414
G1 X145.355 Y181.565 E0.02489
G1 X148.075 Y187.548 E0.20607
G1 X148.615 Y189.348 E0.05892
G1 X149.004 Y190.037 E0.02482
G1 X149.204 Y190.720 E0.02232
G1 X149.903 Y191.893 E0.04281
G1 X150.192 Y193.001 E0.03590
G1 X150.586 Y193.745 E0.02641
G1 X150.882 Y194.666 E0.03034
G1 X151.205 Y195.231 E0.02041
G1 X151.217 Y195.368 E0.00431
G1 X151.405 Y196.198 E0.02666
G1 X151.719 Y196.912 E0.02445
G1 X151.797 Y197.045 E0.00484
G1 X151.945 Y197.490 E0.01471
G1 X152.380 Y198.252 E0.02752
G1 X152.596 Y198.804 E0.01857
G1 X152.936 Y199.322 E0.01942
G1 X153.180 Y200.105 E0.02572
G1 X153.881 Y201.259 E0.04232
G1 X154.371 Y201.702 E0.02072
G1 X154.789 Y202.079 F10800.000
G1 F1200.000
G1 X156.083 Y203.247 E0.05466
G1 X156.765 Y203.697 E0.02564
G1 X158.584 Y204.220 E0.05934
G1 X164.429 Y204.157 E0.18327
G1 X165.349 Y203.886 E0.03005
G1 X166.206 Y203.452 E0.03013
G1 X167.724 Y202.056 E0.06466
G1 X170.975 Y197.813 E0.16760
G1 F8640.000
G1 X168.973 Y200.426 E-0.76000
G1 E-0.04000 F2100.00000
G1 Z0.800 F10800.000
G1 X171.653 Y196.928
G1 Z0.200
G1 E0.80000 F2100.00000
G1 F1200.000
G1 X182.280 Y183.053 E0.54797
G1 X183.435 Y182.029 E0.04842
G1 X184.848 Y179.912 E0.07979
G1 X186.420 Y178.314 E0.07031
G1 X187.747 Y176.037 E0.08262
G1 X190.283 Y172.993 E0.12422
G1 X191.068 Y171.687 E0.04778
G1 X193.107 Y169.479 E0.09422
G1 X193.865 Y168.021 E0.05155
G1 X194.913 Y166.937 E0.04727
G1 X200.641 Y159.060 E0.30536
G1 X203.656 Y155.514 E0.14594
G1 X205.790 Y152.341 E0.11990
G1 X206.891 Y151.240 E0.04882
G1 X207.524 Y150.341 E0.03447
G1 X209.080 Y148.980 E0.06480
G1 X209.939 Y148.550 E0.03012
G1 X211.391 Y148.135 E0.04737
G1 X214.541 Y148.135 E0.09875
G1 X217.032 Y148.660 E0.07981
G1 X220.532 Y150.118 E0.11889
G1 X222.847 Y151.616 E0.08646
G1 X226.277 Y154.897 E0.14884
G1 X227.391 Y156.525 E0.06186
G1 X228.182 Y157.260 E0.03383
G1 X229.008 Y157.747 E0.03008
G1 X229.944 Y158.063 E0.03098
G1 X231.647 Y158.294 E0.05388
G1 X232.222 Y158.372 F10800.000
G1 F1200.000
G1 X233.221 Y158.508 E0.03161
G1 X235.359 Y158.468 E0.06704
G1 X236.396 Y158.158 E0.03393
G1 X237.382 Y157.602 E0.03550
G1 X238.549 Y156.469 E0.05099
G1 X239.082 Y155.685 E0.02973
G1 X239.603 Y154.092 E0.05254
G1 X240.886 Y126.566 E0.86402
G1 X240.888 Y120.827 E0.17994
G1 X241.434 Y112.745 E0.25399
G1 X241.187 Y111.300 E0.04594
G1 X240.595 Y110.003 E0.04471
G1 X239.832 Y109.037 E0.03860
G1 X238.726 Y108.235 E0.04282
G1 X237.089 Y107.727 E0.05375
G1 X226.596 Y107.525 E0.32907
M73 Q1 S85
M73 P1 R84
G1 X225.132 Y107.857 E0.04706
G1 X224.391 Y108.230 E0.02601
G1 X222.786 Y109.453 E0.06328
G1 X222.655 Y109.625 E0.00677
G1 X222.371 Y109.999 F10800.000
G1 F1200.000
G1 X222.060 Y110.406 E0.01606
G1 X221.596 Y111.485 E0.03683
G1 X221.426 Y112.497 E0.03216
G1 X221.458 Y113.486 E0.03103
G1 X214.694 Y113.257 E0.21222
G1 X213.895 Y113.404 E0.02548
G1 X209.151 Y113.086 E0.14906
G1 X203.949 Y113.261 E0.16321
G1 X196.089 Y112.906 E0.24667
G1 X187.205 Y112.906 E0.27858
G1 X185.916 Y113.280 E0.04207
G1 X185.640 Y113.154 E0.00950
G1 X184.561 Y112.915 E0.03467
G1 X164.019 Y112.548 E0.64418
G1 X147.726 Y112.693 E0.51087
G1 X147.639 Y111.221 E0.04624
G1 X147.410 Y110.392 E0.02697
G1 X146.936 Y109.460 E0.03277
G1 X146.587 Y109.036 E0.01724
G1 X146.274 Y108.655 F10800.000
G1 F1200.000
G1 X145.498 Y107.709 E0.03835
G1 X144.666 Y107.092 E0.03248
G1 X143.729 Y106.673 E0.03219
G1 X142.696 Y106.464 E0.03302
G1 X131.108 Y106.468 E0.36335
G1 X129.977 Y106.755 E0.03660
G1 X129.164 Y107.163 E0.02852
G1 X128.130 Y108.085 E0.04341
G1 X127.738 Y108.598 E0.02027
G1 X127.544 Y108.975 F10800.000
G1 F1200.000
G1 X127.008 Y110.565 E0.05259
G1 X126.995 Y111.038 E0.01485
G1 X126.713 Y111.105 E0.00908
G1 X126.054 Y109.878 E0.04367
G1 X125.178 Y108.974 E0.03945
G1 X124.813 Y108.597 F10800.000
G1 F1200.000
G1 X124.674 Y108.454 E0.00624
G1 X123.740 Y107.823 E0.03536
G1 X122.022 Y107.312 E0.05619
G1 X112.383 Y107.304 E0.30221
G1 X110.868 Y107.710 E0.04917
G1 X109.790 Y108.370 E0.03964
G1 X109.565 Y108.591 E0.00990
G1 X109.181 Y108.968 F10800.000
G1 F1200.000
G1 X108.900 Y109.244 E0.01235
G1 X108.047 Y110.849 E0.05698
G1 X107.839 Y111.979 E0.03604
G1 X107.839 Y113.359 E0.04328
G1 X73.131 Y112.869 E1.08837
G1 X33.396 Y112.870 E1.24587
G1 X33.224 Y110.682 E0.06883
G1 X32.797 Y109.484 E0.03988
G1 X32.413 Y108.937 E0.02097
G1 X32.148 Y108.559 F10800.000
G1 F1200.000
G1 X32.081 Y108.465 E0.00363
G1 X31.071 Y107.629 E0.04110
G1 X29.296 Y106.801 E0.06143
G1 X28.455 Y106.620 E0.02696
G1 F8640.000
G1 X29.296 Y106.801 E-0.19857
G1 X31.071 Y107.629 E-0.45236
G1 X31.435 Y107.930 E-0.10907
G1 E-0.04000 F2100.00000
G1 Z0.800 F10800.000
G1 X25.953 Y106.792
G1 Z0.200
G1 E0.80000 F2100.00000
G1 F1200.000
G1 X17.796 Y106.852 E0.25577
G1 X15.615 Y107.474 E0.07111
G1 X14.893 Y107.842 E0.02542
G1 X14.068 Y108.557 E0.03421
G1 X13.500 Y109.345 E0.03046
G1 X13.122 Y110.189 E0.02902
G1 X12.964 Y111.921 E0.05452
G1 X13.502 Y117.844 E0.18647
G1 X13.860 Y130.160 E0.38632
G1 X14.366 Y137.426 E0.22839
G1 X14.207 Y138.558 E0.03585
G1 X14.639 Y142.593 E0.12721
G1 X21.456 Y160.476 E0.60010
G1 X22.566 Y163.989 E0.11549
G1 X23.003 Y164.836 E0.02988
G1 X23.136 Y165.015 E0.00701
G1 X24.007 Y167.756 E0.09015
G1 X32.951 Y190.293 E0.76026
G1 X33.944 Y193.406 E0.10246
G1 X35.340 Y196.376 E0.10290
G1 X36.599 Y200.154 E0.12485
G1 X38.191 Y202.604 E0.09161
G1 X38.876 Y203.187 E0.02820
G1 X39.665 Y203.621 E0.02823
G1 X41.180 Y203.957 E0.04865
G1 X46.668 Y203.654 E0.17234
G1 X47.424 Y203.394 E0.02507
G1 X49.877 Y202.167 E0.08599
G1 X50.632 Y201.789 F10800.000
G1 F1200.000
G1 X50.691 Y201.760 E0.00204
G1 X51.736 Y200.914 E0.04217
G1 X54.954 Y196.487 E0.17160
G1 X55.941 Y195.627 E0.04106
G1 X61.128 Y188.958 E0.26489
G1 X64.655 Y184.052 E0.18946
G1 X65.171 Y183.737 E0.01897
G1 X65.948 Y182.940 E0.03489
G1 X66.566 Y181.905 E0.03777
G1 X66.817 Y181.129 E0.02558
G1 X71.995 Y174.202 E0.27117
G1 X72.557 Y172.676 E0.05098
G1 X72.768 Y170.553 E0.06692
G1 X73.842 Y170.374 E0.03414
G1 X74.724 Y169.995 E0.03012
G1 X75.716 Y169.343 E0.03721
G1 X76.426 Y168.680 E0.03044
G1 X77.496 Y166.784 E0.06827
G1 X90.310 Y149.981 E0.66257
G1 X92.633 Y147.916 E0.09745
G1 X94.467 Y147.217 E0.06154
G1 X95.033 Y147.175 E0.01781
G1 X96.983 Y146.688 E0.06300
G1 X98.987 Y146.688 E0.06284
G1 X102.492 Y147.529 E0.11302
G1 X106.022 Y149.294 E0.12376
G1 X108.870 Y151.392 E0.11089
G1 X110.803 Y153.325 E0.08571
G1 X113.062 Y156.132 E0.11298
G1 X114.007 Y156.869 E0.03758
G1 X114.906 Y157.260 E0.03072
G1 X117.615 Y157.826 E0.08679
G1 X121.171 Y157.560 E0.11181
G1 X122.237 Y157.181 E0.03548
G1 X122.979 Y156.736 E0.02712
G1 X124.010 Y155.722 E0.04533
G1 X124.527 Y154.956 E0.02899
G1 X125.000 Y153.451 E0.04946
G1 X126.265 Y120.551 E1.03232
G1 X126.630 Y116.418 E0.13009
G1 X126.630 Y112.472 E0.12372
G1 X126.386 Y111.296 E0.03767
G1 X125.763 Y110.120 E0.04171
G1 X124.657 Y108.974 E0.04995
G1 X124.216 Y108.597 F10800.000
G1 F1200.000
G1 X123.603 Y108.175 E0.02332
G1 X121.941 Y107.681 E0.05439
G1 X112.409 Y107.681 E0.29887
G1 X110.994 Y108.066 E0.04598
G1 X110.141 Y108.591 E0.03140
G1 X109.714 Y108.968 F10800.000
G1 F1200.000
G1 X109.218 Y109.449 E0.02167
G1 X108.412 Y110.947 E0.05334
G1 X108.216 Y111.997 E0.03347
G1 X108.216 Y113.742 E0.05472
G1 X73.129 Y113.246 E1.10024
G1 X33.045 Y113.247 E1.25681
G1 X32.860 Y110.783 E0.07750
G1 X32.472 Y109.677 E0.03673
G1 X31.958 Y108.936 E0.02828
G1 X31.606 Y108.559 F10800.000
G1 F1200.000
G1 X30.889 Y107.961 E0.02929
G1 X29.156 Y107.152 E0.05996
G1 X28.413 Y106.994 E0.02383
G1 X25.953 Y106.792 E0.07738
G1 F8640.000
G1 X28.413 Y106.994 E-0.56981
G1 X29.156 Y107.152 E-0.17549
G1 X29.214 Y107.179 E-0.01470
G1 E-0.04000 F2100.00000
G1 Z0.800 F10800.000
G1 X28.371 Y107.369
G1 Z0.200
G1 E0.80000 F2100.00000
G1 F1200.000
G1 X25.930 Y107.168 E0.07677
G1 X17.875 Y107.221 E0.25259
G1 X15.735 Y107.831 E0.06975
G1 X15.121 Y108.143 E0.02161
G1 X14.360 Y108.797 E0.03145
G1 X13.836 Y109.517 E0.02792
G1 X13.479 Y110.314 E0.02739
G1 X13.341 Y111.903 E0.05000
G1 X13.879 Y117.821 E0.18632
G1 X14.237 Y130.145 E0.38656
G1 X14.745 Y137.441 E0.22932
G1 X14.584 Y138.542 E0.03490
G1 X15.011 Y142.528 E0.12569
G1 X21.813 Y160.352 E0.59817
G1 X22.920 Y163.859 E0.11532
G1 X23.330 Y164.646 E0.02780
G1 X23.475 Y164.838 E0.00756
G1 X24.360 Y167.623 E0.09161
G1 X33.306 Y190.166 E0.76046
G1 X34.291 Y193.257 E0.10171
G1 X35.691 Y196.236 E0.10320
G1 X36.950 Y200.012 E0.12479
G1 X38.458 Y202.336 E0.08686
G1 X39.075 Y202.866 E0.02553
G1 X39.823 Y203.278 E0.02676
G1 X41.185 Y203.579 E0.04374
G1 X46.571 Y203.288 E0.16911
G1 X47.267 Y203.051 E0.02306
G1 X49.032 Y202.168 E0.06189
G1 X49.788 Y201.790 F10800.000
G1 F1200.000
G1 X50.503 Y201.432 E0.02508
G1 X51.479 Y200.638 E0.03945
G1 X54.674 Y196.231 E0.17068
G1 X55.655 Y195.381 E0.04069
G1 X60.828 Y188.729 E0.26420
G1 X64.395 Y183.768 E0.19161
G1 X64.921 Y183.454 E0.01918
G1 X65.636 Y182.727 E0.03199
G1 X66.230 Y181.731 E0.03635
G1 X66.477 Y180.955 E0.02554
G1 X71.676 Y173.998 E0.27232
G1 X72.184 Y172.616 E0.04618
G1 X72.421 Y170.228 E0.07523
G1 X73.756 Y170.006 E0.04245
G1 X74.558 Y169.656 E0.02742
G1 X75.495 Y169.037 E0.03520
G1 X76.146 Y168.426 E0.02802
G1 X77.179 Y166.577 E0.06641
G1 X90.032 Y149.723 E0.66456
G1 X92.434 Y147.588 E0.10076
G1 X94.386 Y146.845 E0.06549
G1 X94.959 Y146.805 E0.01801
G1 X96.936 Y146.311 E0.06392
G1 X99.031 Y146.311 E0.06569
G1 X102.622 Y147.172 E0.11578
G1 X106.220 Y148.971 E0.12613
G1 X109.116 Y151.105 E0.11280
G1 X111.084 Y153.073 E0.08725
G1 X113.311 Y155.848 E0.11158
G1 X114.220 Y156.557 E0.03613
G1 X115.002 Y156.895 E0.02671
G1 X117.615 Y157.448 E0.08372
G1 X121.069 Y157.196 E0.10860
G1 X122.094 Y156.831 E0.03411
G1 X122.731 Y156.451 E0.02327
G1 X123.732 Y155.467 E0.04400
G1 X124.198 Y154.769 E0.02633
G1 X124.624 Y153.412 E0.04461
G1 X125.888 Y120.527 E1.03183
G1 X126.253 Y116.410 E0.12961
G1 X126.253 Y112.491 E0.12287
G1 X126.040 Y111.448 E0.03337
G1 X125.443 Y110.321 E0.04000
G1 X124.188 Y109.030 E0.05644
G1 X124.105 Y108.974 E0.00315
G1 X123.552 Y108.596 F10800.000
G1 F1200.000
G1 X123.416 Y108.504 E0.00517
G1 X121.914 Y108.058 E0.04912
G1 X112.435 Y108.058 E0.29720
G1 X111.122 Y108.422 E0.04272
G1 X110.850 Y108.591 E0.01003
G1 X110.250 Y108.968 F10800.000
G1 F1200.000
G1 X109.502 Y109.697 E0.03275
G1 X108.760 Y111.097 E0.04969
G1 X108.594 Y112.013 E0.02918
G1 X108.594 Y114.124 E0.06619
G1 X73.128 Y113.624 E1.11210
G1 X32.694 Y113.624 E1.26778
