; generated by PrusaSlicer 2.4.0+win64 on 2022-03-09 at 01:04:51 UTC

; 

; external perimeters extrusion width = 0.60mm
; perimeters extrusion width = 0.50mm
; infill extrusion width = 0.50mm
; solid infill extrusion width = 0.50mm
; top infill extrusion width = 0.45mm
; first layer extrusion width = 0.42mm

; external perimeters extrusion width = 0.60mm
; perimeters extrusion width = 0.50mm
; infill extrusion width = 0.50mm
; solid infill extrusion width = 0.50mm
; top infill extrusion width = 0.45mm
; first layer extrusion width = 0.42mm

; external perimeters extrusion width = 0.60mm
; perimeters extrusion width = 0.50mm
; infill extrusion width = 0.50mm
; solid infill extrusion width = 0.50mm
; top infill extrusion width = 0.45mm
; first layer extrusion width = 0.42mm

M73 P0 R112
M73 Q0 S119
M201 X4000 Y4000 Z1000 E5000 ; sets maximum accelerations, mm/sec^2
M203 X200 Y200 Z12 E120 ; sets maximum feedrates, mm/sec
M204 P2000 R2000 T2000 ; sets acceleration (P, T) and retract acceleration (R), mm/sec^2
M205 X8.00 Y8.00 Z0.40 E4.50 ; sets the jerk limits, mm/sec
M205 S0 T0 ; sets the minimum extruding and travel feed rate, mm/sec
M107
;TYPE:Custom
M862.3 P "MK3S" ; printer model check
M862.1 P0.4 ; nozzle diameter check
M115 U3.10.0 ; tell printer latest fw version
G90 ; use absolute coordinates
M83 ; extruder relative mode
M104 S225 ; set extruder temp
M140 S80 ; set bed temp
M190 S80 ; wait for bed temp
M109 S225 ; wait for extruder temp
G28 W ; home all without mesh bed level
G80 ; mesh bed leveling
G1 Y-3.0 F1000.0 ; go outside print area
G92 E0.0
G1 X60.0 E9.0 F1000.0 ; intro line
G1 X100.0 E12.5 F1000.0 ; intro line
G92 E0.0
M221 S95

; Don't change E values below. Excessive value can damage the printer.

M907 E538 ; set extruder motor current
G21 ; set units to millimeters
G90 ; use absolute coordinates
M83 ; use relative distances for extrusion
M900 K0.05 ; Filament gcode LA 1.5
M900 K30 ; Filament gcode LA 1.0
M107
;LAYER_CHANGE
;Z:0.2
;HEIGHT:0.2
;BEFORE_LAYER_CHANGE
G92 E0.0
;0.2


G1 E-.6 F3600
G1 Z.2 F10800
;AFTER_LAYER_CHANGE
;0.2
G1 X64.829 Y20.146
G1 E.6 F3600
M204 S1000
;TYPE:Skirt/Brim
;WIDTH:0.42
G1 X65.62 Y18.235 E.06486
G1 X66.136 Y17.463 E.02908
G1 X68.461 Y15.138 E.10312
G1 X69.233 Y14.622 E.02908
G1 X71.144 Y13.831 E.06486
G1 X71.895 Y13.655 E.02419
G1 X162.045 Y7.661 E2.83284
G1 X165.244 Y7.894 E.10055
G1 X166.06 Y8.103 E.02642
G1 X167.763 Y8.882 E.05872
G1 X168.455 Y9.363 E.02642
G1 X183.689 Y24.596 E.67549
G1 X184.17 Y25.288 E.02642
G1 X184.949 Y26.992 E.05873
G1 X185.158 Y27.808 E.02642
G1 X185.397 Y31.179 E.10596
G1 X185.397 Y155.071 E3.88456
G1 X179.376 Y195.245 E1.27368
G1 X179.221 Y195.8 E.01809
G1 X178.429 Y197.712 E.06486
G1 X177.914 Y198.483 E.02908
G1 X175.589 Y200.808 E.10312
G1 X174.817 Y201.324 E.02908
G1 X172.906 Y202.115 E.06486
G1 X171.996 Y202.296 E.02908
G1 X72.053 Y202.296 E3.13364
G1 X71.144 Y202.115 E.02908
M73 P0 R111
G1 X69.233 Y201.324 E.06486
G1 X68.461 Y200.808 E.02908
G1 X66.136 Y198.483 E.10312
G1 X65.62 Y197.712 E.02908
G1 X64.829 Y195.8 E.06486
G1 X64.648 Y194.891 E.02908
G1 X64.648 Y21.055 E5.45048
G1 X64.817 Y20.205 E.0272
M204 S2000
;WIPE_START
G1 F8640
G1 X65.361 Y18.871 E-.57
;WIPE_END
G1 E-.03 F3600
G1 X67.526 Y20.872 F10800
G1 E.6 F3600
M204 S1000
G1 X67.696 Y20.18 E.02233
G1 X68.313 Y19.109 E.03876
G1 X69.88 Y17.501 E.0704
G1 X70.781 Y16.887 E.03417
G1 X72.683 Y16.313 E.06231
G1 X152.644 Y16.313 E2.50712
G1 X152.966 Y16.207 E.01063
G1 X159.791 Y11.124 E.26681
G1 X161.375 Y10.485 E.05357
G1 X163.098 Y10.408 E.05405
G1 X165.143 Y10.674 E.06468
G1 X166.934 Y11.608 E.06333
G1 X181.455 Y26.129 E.64387
G1 X182.486 Y28.298 E.07531
G1 X182.7 Y30.719 E.07621
G1 X181.97 Y33.204 E.0812
G1 X176.845 Y40.086 E.26904
G1 X176.738 Y40.408 E.01063
G1 X176.738 Y70.31 E.93755
G1 X176.45 Y71.622 E.04214
G1 X175.741 Y72.94 E.04694
G1 X174.298 Y74.442 E.06529
G1 X173.38 Y75.112 E.03563
G1 X171.422 Y75.732 E.06441
G1 X169.122 Y75.742 E.07211
G1 X181.455 Y88.075 E.54684
G1 X182.486 Y90.244 E.07531
G1 X182.7 Y92.665 E.07621
G1 X181.97 Y95.15 E.0812
G1 X176.845 Y102.032 E.26904
G1 X176.738 Y102.354 E.01063
G1 X176.738 Y132.256 E.93755
G1 X176.45 Y133.568 E.04214
G1 X175.741 Y134.886 E.04694
G1 X174.298 Y136.388 E.06529
G1 X173.38 Y137.058 E.03563
G1 X171.422 Y137.678 E.06441
G1 X169.122 Y137.689 E.07211
G1 X181.455 Y150.021 E.54684
G1 X182.538 Y152.39 E.08167
G1 X182.692 Y154.664 E.07146
G1 X182.06 Y156.914 E.07327
G1 X176.845 Y163.978 E.27531
G1 X176.738 Y164.3 E.01064
G1 X176.738 Y194.205 E.93764
G1 X176.354 Y195.766 E.05042
G1 X175.736 Y196.837 E.03876
G1 X174.17 Y198.446 E.0704
G1 X173.269 Y199.059 E.03417
G1 X171.367 Y199.633 E.06231
G1 X72.74 Y199.633 E3.09239
G1 X71.178 Y199.248 E.05042
G1 X70.107 Y198.631 E.03876
G1 X68.499 Y197.064 E.0704
G1 X67.885 Y196.164 E.03417
G1 X67.311 Y194.261 E.06231
G1 X67.311 Y145.637 E1.52458
G1 X67.599 Y144.327 E.04203
G1 X68.149 Y143.229 E.03853
G1 X69.741 Y141.515 E.07334
G1 X70.476 Y140.938 E.02931
G1 X72.68 Y140.206 E.07281
G1 X152.644 Y140.206 E2.50722
G1 X152.966 Y140.099 E.01063
G1 X155.859 Y137.945 E.11308
G1 X155.773 Y137.687 E.00854
G1 X72.742 Y137.687 E2.60337
G1 X71.433 Y137.399 E.04203
G1 X70.334 Y136.849 E.03853
G1 X68.621 Y135.257 E.07334
G1 X68.043 Y134.522 E.02931
G1 X67.311 Y132.318 E.07281
G1 X67.311 Y83.69 E1.52468
G1 X67.599 Y82.381 E.04203
G1 X68.149 Y81.282 E.03853
G1 X69.741 Y79.569 E.07334
G1 X70.476 Y78.992 E.02931
G1 X72.68 Y78.26 E.07281
G1 X152.644 Y78.26 E2.50722
G1 X152.966 Y78.153 E.01063
G1 X155.859 Y75.999 E.11308
G1 X155.773 Y75.74 E.00854
G1 X72.742 Y75.74 E2.60337
G1 X71.433 Y75.453 E.04203
G1 X70.334 Y74.903 E.03853
G1 X68.621 Y73.311 E.07334
G1 X68.043 Y72.576 E.02931
G1 X67.311 Y70.372 E.07281
G1 X67.311 Y21.742 E1.52477
G1 X67.511 Y20.93 E.02621
M204 S2000
G1 X67.871 Y21.018 F10800
M204 S1000
G1 F3600
G1 X68.037 Y20.344 E.02178
G1 X68.601 Y19.354 E.03571
G1 X70.11 Y17.799 E.06794
G1 X70.92 Y17.239 E.03088
G1 X72.712 Y16.691 E.05875
G1 X152.705 Y16.691 E2.50814
G1 X153.142 Y16.546 E.01444
G1 X159.996 Y11.442 E.26794
G1 X161.485 Y10.848 E.05025
G1 X163.067 Y10.784 E.04964
G1 X165.001 Y11.024 E.06111
G1 X166.688 Y11.896 E.05954
G1 X181.164 Y26.372 E.6419
G1 X182.13 Y28.427 E.0712
G1 X182.32 Y30.698 E.07145
G1 X181.647 Y33.006 E.07538
G1 X176.506 Y39.91 E.26987
G1 X176.361 Y40.347 E.01444
G1 X176.361 Y70.289 E.9388
G1 X176.088 Y71.515 E.03939
G1 X175.451 Y72.698 E.04213
G1 X174.038 Y74.168 E.06395
G1 X173.184 Y74.788 E.03308
G1 X171.338 Y75.363 E.06064
G1 X168.21 Y75.363 E.09808
G1 X181.164 Y88.318 E.57444
G1 X182.13 Y90.373 E.0712
G1 X182.32 Y92.644 E.07145
G1 X181.647 Y94.952 E.07538
G1 X176.506 Y101.856 E.26987
G1 X176.361 Y102.293 E.01444
G1 X176.361 Y132.235 E.9388
G1 X176.088 Y133.461 E.03939
G1 X175.451 Y134.644 E.04213
G1 X174.038 Y136.115 E.06395
G1 X173.184 Y136.734 E.03308
G1 X171.338 Y137.309 E.06064
G1 X168.21 Y137.309 E.09808
G1 X181.164 Y150.264 E.57442
G1 X182.164 Y152.449 E.07535
G1 X182.313 Y154.656 E.06935
G1 X181.707 Y156.777 E.06915
G1 X176.506 Y163.802 E.27406
G1 X176.361 Y164.239 E.01444
G1 X176.361 Y194.182 E.93884
G1 X176.013 Y195.603 E.04586
G1 X175.449 Y196.592 E.03571
G1 X173.939 Y198.147 E.06794
G1 X173.13 Y198.708 E.03088
G1 X171.338 Y199.256 E.05875
G1 X72.762 Y199.256 E3.09079
G1 X71.342 Y198.907 E.04586
G1 X70.352 Y198.343 E.03571
G1 X68.798 Y196.834 E.06794
G1 X68.237 Y196.024 E.03088
G1 X67.689 Y194.233 E.05875
G1 X67.689 Y145.658 E1.52303
G1 X67.961 Y144.433 E.03934
G1 X68.473 Y143.423 E.03549
G1 X70.006 Y141.784 E.07039
G1 X70.683 Y141.255 E.02692
G1 X72.71 Y140.583 E.06698
G1 X152.705 Y140.583 E2.50818
G1 X153.142 Y140.438 E.01444
M73 Q0 S118
G1 X156.996 Y137.568 E.15066
G1 X156.911 Y137.309 E.00854
G1 X72.763 Y137.309 E2.63838
G1 X71.539 Y137.037 E.03934
G1 X70.529 Y136.525 E.03549
G1 X68.889 Y134.992 E.07039
G1 X68.361 Y134.315 E.02692
G1 X67.689 Y132.288 E.06698
G1 X67.689 Y83.711 E1.52308
G1 X67.961 Y82.487 E.03934
G1 X68.473 Y81.477 E.03549
G1 X70.006 Y79.838 E.07039
G1 X70.683 Y79.309 E.02692
G1 X72.71 Y78.637 E.06698
G1 X152.705 Y78.637 E2.50818
G1 X153.142 Y78.492 E.01444
G1 X156.996 Y75.622 E.15066
G1 X156.911 Y75.363 E.00854
G1 X72.763 Y75.363 E2.63838
G1 X71.539 Y75.091 E.03934
G1 X70.529 Y74.579 E.03549
G1 X68.889 Y73.046 E.07039
G1 X68.361 Y72.369 E.02692
G1 X67.689 Y70.342 E.06698
G1 X67.689 Y21.764 E1.52311
G1 X67.857 Y21.076 E.0222
M204 S2000
G1 X68.217 Y21.164 F10800
M204 S1000
G1 F3600
G1 X68.378 Y20.506 E.02126
G1 X68.889 Y19.599 E.03264
G1 X70.343 Y18.097 E.06554
G1 X71.061 Y17.589 E.02757
G1 X72.741 Y17.068 E.05514
G1 X152.766 Y17.068 E2.50914
G1 X153.319 Y16.884 E.01826
G1 X160.202 Y11.759 E.26909
G1 X161.533 Y11.223 E.04497
G1 X163.038 Y11.161 E.04724
G1 X164.86 Y11.376 E.05753
G1 X166.443 Y12.184 E.05571
G1 X180.874 Y26.615 E.6399
G1 X181.774 Y28.554 E.06704
G1 X181.941 Y30.693 E.06725
G1 X181.324 Y32.808 E.06908
G1 X176.168 Y39.733 E.27073
G1 X175.984 Y40.286 E.01826
G1 X175.984 Y70.267 E.94004
G1 X175.726 Y71.406 E.03661
G1 X175.161 Y72.455 E.03735
G1 X173.778 Y73.895 E.06261
G1 X172.989 Y74.464 E.03052
G1 X171.309 Y74.986 E.05514
G1 X167.299 Y74.986 E.12574
G1 X180.874 Y88.561 E.60193
G1 X181.774 Y90.5 E.06704
G1 X181.941 Y92.639 E.06725
G1 X181.324 Y94.754 E.06908
G1 X176.168 Y101.679 E.27073
G1 X175.984 Y102.232 E.01826
G1 X175.984 Y132.213 E.94004
G1 X175.726 Y133.352 E.03661
G1 X175.161 Y134.401 E.03735
G1 X173.778 Y135.841 E.06261
G1 X172.989 Y136.411 E.03052
G1 X171.309 Y136.932 E.05514
G1 X167.299 Y136.932 E.12574
G1 X180.874 Y150.507 E.60191
G1 X181.79 Y152.511 E.0691
G1 X181.941 Y154.585 E.06521
G1 X181.354 Y156.64 E.06702
G1 X176.167 Y163.626 E.27279
G1 X175.984 Y164.178 E.01826
G1 X175.984 Y194.16 E.94004
G1 X175.672 Y195.441 E.04134
G1 X175.161 Y196.348 E.03264
G1 X173.707 Y197.85 E.06554
G1 X172.989 Y198.357 E.02757
G1 X171.309 Y198.879 E.05514
G1 X72.785 Y198.879 E3.08918
G1 X71.504 Y198.566 E.04134
G1 X70.597 Y198.055 E.03264
G1 X69.095 Y196.601 E.06554
G1 X68.587 Y195.883 E.02757
G1 X68.066 Y194.204 E.05514
G1 X68.066 Y145.679 E1.52146
G1 X68.324 Y144.54 E.03661
G1 X68.796 Y143.62 E.03244
G1 X70.27 Y142.053 E.06746
G1 X70.888 Y141.572 E.02455
G1 X72.74 Y140.96 E.06116
G1 X152.766 Y140.96 E2.50914
G1 X153.319 Y140.777 E.01826
G1 X158.134 Y137.191 E.18825
G1 X158.048 Y136.932 E.00854
G1 X72.785 Y136.932 E2.67339
G1 X71.646 Y136.674 E.03661
G1 X70.726 Y136.202 E.03244
G1 X69.159 Y134.728 E.06746
G1 X68.678 Y134.11 E.02455
G1 X68.066 Y132.258 E.06116
G1 X68.066 Y83.733 E1.52146
G1 X68.324 Y82.594 E.03661
G1 X68.796 Y81.674 E.03244
G1 X70.27 Y80.107 E.06746
G1 X70.888 Y79.626 E.02455
G1 X72.74 Y79.014 E.06116
G1 X152.766 Y79.014 E2.50914
G1 X153.319 Y78.831 E.01826
G1 X158.134 Y75.245 E.18825
G1 X158.048 Y74.986 E.00854
G1 X72.785 Y74.986 E2.67339
G1 X71.646 Y74.728 E.03661
G1 X70.726 Y74.256 E.03244
G1 X69.159 Y72.782 E.06746
G1 X68.678 Y72.163 E.02455
G1 X68.066 Y70.311 E.06116
G1 X68.066 Y21.787 E1.52146
G1 X68.203 Y21.223 E.0182
M204 S2000
M73 P1 R111
G1 X68.564 Y21.31 F10800
M204 S1000
G1 F3600
G1 X68.72 Y20.666 E.02079
G1 X69.178 Y19.842 E.02954
G1 X70.578 Y18.392 E.06321
G1 X71.205 Y17.939 E.02424
G1 X72.77 Y17.445 E.05146
G1 X152.827 Y17.445 E2.51013
G1 X153.495 Y17.223 E.02208
G1 X160.407 Y12.076 E.27021
G1 X161.641 Y11.586 E.04163
G1 X163.01 Y11.537 E.04295
G1 X164.722 Y11.728 E.054
G1 X166.198 Y12.472 E.05183
G1 X180.583 Y26.857 E.63787
G1 X181.417 Y28.679 E.06283
G1 X181.563 Y30.686 E.06308
G1 X181.002 Y32.61 E.06283
G1 X175.829 Y39.557 E.27158
G1 X175.607 Y40.225 E.02208
G1 X175.607 Y70.245 E.94127
G1 X175.365 Y71.296 E.03382
G1 X174.872 Y72.212 E.03261
G1 X173.517 Y73.622 E.06131
G1 X172.845 Y74.115 E.02613
G1 X171.28 Y74.609 E.05145
G1 X166.389 Y74.609 E.15336
G1 X180.583 Y88.803 E.6294
G1 X181.417 Y90.626 E.06283
M73 Q1 S118
G1 X181.563 Y92.632 E.06308
G1 X181.002 Y94.556 E.06283
G1 X175.829 Y101.503 E.27158
G1 X175.607 Y102.171 E.02208
G1 X175.607 Y132.192 E.94127
G1 X175.365 Y133.243 E.03382
G1 X174.872 Y134.158 E.03261
G1 X173.517 Y135.568 E.06131
G1 X172.845 Y136.061 E.02613
G1 X171.28 Y136.555 E.05145
G1 X166.389 Y136.555 E.15336
G1 X180.583 Y150.75 E.6294
G1 X181.417 Y152.572 E.06283
M73 P1 R110
G1 X181.563 Y154.578 E.06308
G1 X181.002 Y156.502 E.06283
G1 X175.829 Y163.449 E.27158
G1 X175.607 Y164.117 E.02208
G1 X175.607 Y194.137 E.94125
G1 X175.33 Y195.28 E.03688
G1 X174.872 Y196.104 E.02954
G1 X173.472 Y197.554 E.06321
G1 X172.845 Y198.007 E.02424
G1 X171.28 Y198.501 E.05146
G1 X72.807 Y198.501 E3.08755
G1 X71.664 Y198.224 E.03688
G1 X70.84 Y197.766 E.02954
G1 X69.39 Y196.366 E.06321
G1 X68.937 Y195.739 E.02424
G1 X68.443 Y194.174 E.05146
G1 X68.443 Y145.701 E1.51985
G1 X68.685 Y144.649 E.03384
G1 X69.118 Y143.818 E.02938
G1 X70.534 Y142.323 E.06455
G1 X71.093 Y141.891 E.02219
G1 X72.771 Y141.337 E.05537
G1 X152.827 Y141.337 E2.51011
G1 X153.495 Y141.115 E.02208
G1 X159.272 Y136.814 E.22583
G1 X159.186 Y136.555 E.00854
G1 X72.806 Y136.555 E2.70838
G1 X71.755 Y136.313 E.03384
G1 X70.924 Y135.88 E.02938
G1 X69.429 Y134.464 E.06455
G1 X68.996 Y133.905 E.02219
G1 X68.443 Y132.228 E.05537
G1 X68.443 Y83.755 E1.51984
G1 X68.685 Y82.703 E.03384
G1 X69.118 Y81.872 E.02938
G1 X70.534 Y80.377 E.06455
G1 X71.093 Y79.944 E.02219
G1 X72.771 Y79.391 E.05537
G1 X152.827 Y79.391 E2.51011
G1 X153.495 Y79.169 E.02208
G1 X159.272 Y74.868 E.22583
G1 X159.186 Y74.609 E.00854
G1 X72.806 Y74.609 E2.70838
G1 X71.755 Y74.367 E.03384
G1 X70.924 Y73.934 E.02938
G1 X69.429 Y72.518 E.06455
G1 X68.996 Y71.958 E.02219
G1 X68.443 Y70.281 E.05537
G1 X68.443 Y21.809 E1.51982
G1 X68.55 Y21.369 E.01421
M204 S2000
G1 X68.911 Y21.456 F10800
M204 S1000
G1 F3600
G1 X69.063 Y20.824 E.02037
G1 X69.468 Y20.085 E.02642
G1 X70.816 Y18.685 E.06096
G1 X71.351 Y18.288 E.02089
G1 X72.8 Y17.822 E.04771
G1 X152.888 Y17.822 E2.5111
G1 X153.672 Y17.562 E.02589
G1 X160.612 Y12.394 E.27131
G1 X161.747 Y11.949 E.03823
G1 X162.983 Y11.913 E.03877
G1 X164.585 Y12.081 E.0505
G1 X165.953 Y12.761 E.0479
G1 X180.293 Y27.1 E.63584
G1 X181.043 Y28.74 E.05656
G1 X181.184 Y30.68 E.06097
G1 X180.679 Y32.412 E.05656
G1 X175.49 Y39.38 E.27243
G1 X175.23 Y40.164 E.02589
G1 X175.23 Y70.223 E.94248
G1 X175.004 Y71.185 E.031
G1 X174.582 Y71.969 E.02791
G1 X173.255 Y73.35 E.06005
G1 X172.698 Y73.766 E.02179
G1 X171.25 Y74.232 E.0477
G1 X165.673 Y74.232 E.17486
G1 X165.602 Y74.517 E.00922
G1 X165.951 Y74.705 E.01243
G1 X180.293 Y89.046 E.63593
G1 X181.043 Y90.687 E.05656
G1 X181.184 Y92.626 E.06097
G1 X180.679 Y94.358 E.05656
G1 X175.49 Y101.326 E.27243
G1 X175.23 Y102.11 E.02589
G1 X175.23 Y132.169 E.94248
G1 X175.004 Y133.132 E.031
G1 X174.582 Y133.915 E.02791
G1 X173.255 Y135.296 E.06005
G1 X172.698 Y135.712 E.02179
G1 X171.25 Y136.178 E.0477
G1 X165.673 Y136.178 E.17486
G1 X165.602 Y136.464 E.00922
G1 X165.951 Y136.651 E.01243
G1 X180.293 Y150.992 E.63593
G1 X181.043 Y152.633 E.05656
G1 X181.184 Y154.572 E.06097
G1 X180.679 Y156.304 E.05656
G1 X175.49 Y163.273 E.27243
G1 X175.23 Y164.057 E.02589
G1 X175.23 Y194.115 E.94246
G1 X174.987 Y195.122 E.03248
G1 X174.582 Y195.861 E.02642
G1 X173.234 Y197.262 E.06096
G1 X172.698 Y197.658 E.02089
G1 X171.25 Y198.124 E.04771
G1 X72.829 Y198.124 E3.08591
G1 X71.822 Y197.881 E.03248
G1 X71.083 Y197.477 E.02642
G1 X69.683 Y196.128 E.06096
G1 X69.286 Y195.593 E.02089
G1 X68.82 Y194.144 E.04771
G1 X68.82 Y145.723 E1.51822
G1 X69.047 Y144.76 E.03102
G1 X69.438 Y144.018 E.02632
G1 X70.796 Y142.595 E.06167
G1 X71.298 Y142.209 E.01984
G1 X72.801 Y141.714 E.04961
G1 X152.888 Y141.714 E2.51108
G1 X153.672 Y141.454 E.02589
G1 X160.41 Y136.437 E.26341
G1 X160.324 Y136.178 E.00854
G1 X72.829 Y136.178 E2.74335
G1 X71.866 Y135.951 E.03102
G1 X71.123 Y135.56 E.02632
G1 X69.7 Y134.202 E.06167
G1 X69.315 Y133.7 E.01984
G1 X68.82 Y132.198 E.04961
G1 X68.82 Y83.777 E1.5182
G1 X69.047 Y82.814 E.03102
G1 X69.438 Y82.071 E.02632
G1 X70.796 Y80.648 E.06167
G1 X71.298 Y80.263 E.01984
G1 X72.801 Y79.768 E.04961
G1 X152.888 Y79.768 E2.51108
G1 X153.672 Y79.508 E.02589
G1 X160.41 Y74.491 E.26341
G1 X160.324 Y74.232 E.00854
