; generated by PrusaSlicer 2.2.0+win64 on 2021-12-24 at 16:51:34 UTC

; 

; external perimeters extrusion width = 0.45mm
; perimeters extrusion width = 0.45mm
; infill extrusion width = 0.45mm
; solid infill extrusion width = 0.45mm
; top infill extrusion width = 0.40mm
; first layer extrusion width = 0.42mm

M73 P0 R34
M73 Q0 S34
M201 X1000 Y1000 Z200 E5000 ; sets maximum accelerations, mm/sec^2
M203 X200 Y200 Z12 E120 ; sets maximum feedrates, mm/sec
M204 P1250 R1250 T1250 ; sets acceleration (P, T) and retract acceleration (R), mm/sec^2
M205 X8.00 Y8.00 Z0.40 E4.50 ; sets the jerk limits, mm/sec
M205 S0 T0 ; sets the minimum extruding and travel feed rate, mm/sec
M107
M862.3 P "MK3S" ; printer model check
M862.1 P0.4 ; nozzle diameter check
M115 U3.10.0 ; tell printer latest fw version
G90 ; use absolute coordinates
M83 ; extruder relative mode
M104 S215 ; set extruder temp
M140 S60 ; set bed temp
M190 S60 ; wait for bed temp
M109 S215 ; wait for extruder temp
G28 W ; home all without mesh bed level
G80 ; mesh bed leveling
G1 Y-3.0 F1000.0 ; go outside print area
G92 E0.0
G1 X60.0 E9.0 F1000.0 ; intro line
M73 Q0 S34
M73 P0 R34
G1 X100.0 E12.5 F1000.0 ; intro line
G92 E0.0
M221 S95

; Don't change E values below. Excessive value can damage the printer.

M907 E538 ; set extruder motor current
G21 ; set units to millimeters
G90 ; use absolute coordinates
M83 ; use relative distances for extrusion
M900 K0.05 ; Filament gcode LA 1.5
M900 K30 ; Filament gcode LA 1.0
;BEFORE_LAYER_CHANGE
G92 E0.0
;0.2


G1 E-0.80000 F2100.00000
G1 Z0.400 F10800.000
;AFTER_LAYER_CHANGE
;0.2
G1 X21.481 Y74.688
G1 Z0.200
G1 E0.80000 F2100.00000
M204 S1000
G1 F1200.000
G1 X22.333 Y74.525 E0.02719
G1 X57.775 Y74.521 E1.11125
G1 X58.387 Y74.589 E0.01931
G1 X58.921 Y74.759 E0.01759
G1 X59.424 Y75.032 E0.01794
G1 X59.848 Y75.382 E0.01723
G1 X60.197 Y75.797 E0.01699
G1 X60.475 Y76.295 E0.01789
G1 X60.647 Y76.808 E0.01696
G1 X60.727 Y77.435 E0.01984
G1 X60.469 Y181.494 E3.26272
G1 X60.324 Y182.401 E0.02879
G1 X59.918 Y183.207 E0.02829
G1 X59.284 Y183.856 E0.02844
G1 X58.511 Y184.274 E0.02757
G1 X57.636 Y184.449 E0.02797
G1 X22.193 Y184.452 E1.11129
G1 X21.284 Y184.307 E0.02887
G1 X20.494 Y183.911 E0.02770
G1 X19.859 Y183.306 E0.02749
G1 X19.437 Y182.561 E0.02686
G1 X19.246 Y181.752 E0.02608
G1 X18.913 Y161.721 E0.62814
G1 X18.632 Y116.663 E1.41277
G1 X19.492 Y77.419 E1.23078
G1 X19.651 Y76.535 E0.02815
G1 X20.053 Y75.753 E0.02756
G1 X20.686 Y75.110 E0.02831
G1 X21.428 Y74.716 E0.02635
G1 F8640.000
G1 X22.333 Y74.525 E-0.21351
G1 X24.700 Y74.524 E-0.54649
G1 E-0.04000 F2100.00000
G1 Z0.600 F10800.000
G1 X19.085 Y87.387
G1 Z0.200
G1 E0.80000 F2100.00000
G1 F1200.000
G1 X18.220 Y86.419 E0.04069
G1 X17.585 Y84.983 E0.04924
G1 X17.452 Y84.166 E0.02594
G1 X17.515 Y76.490 E0.24068
G1 X17.966 Y75.202 E0.04282
G1 X18.782 Y74.039 E0.04453
G1 X19.858 Y73.169 E0.04339
G1 X21.148 Y72.626 E0.04388
G1 X22.300 Y72.447 E0.03656
G1 X58.091 Y72.448 E1.12220
G1 X59.874 Y72.912 E0.05775
G1 X61.374 Y73.972 E0.05759
G1 X62.373 Y75.455 E0.05607
G1 X62.803 Y77.245 E0.05773
G1 X62.697 Y84.722 E0.23446
G1 X62.238 Y86.010 E0.04286
G1 X61.419 Y87.163 E0.04433
G1 X60.891 Y87.585 E0.02121
G1 X60.513 Y87.887 F10800.000
G1 F1200.000
G1 X60.353 Y88.014 E0.00641
G1 X59.083 Y88.557 E0.04331
G1 X58.243 Y88.698 E0.02671
G1 X22.217 Y88.732 E1.12957
G1 X20.646 Y88.395 E0.05037
G1 X19.455 Y87.709 E0.04310
G1 X19.465 Y87.247 F10800.000
G1 F1200.000
G1 X19.546 Y87.337 E0.00381
G1 X20.806 Y88.053 E0.04544
G1 X22.236 Y88.355 E0.04583
G1 X58.227 Y88.321 E1.12848
G1 X58.958 Y88.200 E0.02321
G1 X60.139 Y87.703 E0.04017
G1 X60.514 Y87.403 E0.01507
G1 X60.892 Y87.101 F10800.000
G1 F1200.000
G1 X61.163 Y86.885 E0.01086
G1 X61.914 Y85.815 E0.04099
G1 X62.331 Y84.627 E0.03949
G1 X62.426 Y77.264 E0.23086
G1 X62.015 Y75.578 E0.05442
G1 X61.083 Y74.213 E0.05181
G1 X59.687 Y73.241 E0.05335
G1 X58.068 Y72.825 E0.05242
G1 X22.314 Y72.824 E1.12103
G1 X21.271 Y72.983 E0.03310
G1 X20.072 Y73.481 E0.04069
G1 X19.073 Y74.279 E0.04008
G1 X18.313 Y75.352 E0.04122
G1 X17.881 Y76.585 E0.04099
G1 X17.829 Y84.154 E0.23730
G1 X17.940 Y84.855 E0.02227
G1 X18.522 Y86.190 E0.04567
G1 X19.097 Y86.834 E0.02707
G1 X19.477 Y86.704 F10800.000
G1 F1200.000
G1 X19.762 Y87.026 E0.01350
G1 X20.915 Y87.690 E0.04172
G1 X22.256 Y87.978 E0.04301
G1 X58.212 Y87.944 E1.12739
G1 X58.835 Y87.843 E0.01976
G1 X59.926 Y87.390 E0.03706
G1 X60.515 Y86.925 E0.02353
G1 X60.893 Y86.614 F10800.000
G1 F1200.000
G1 X61.567 Y85.665 E0.03648
G1 X61.965 Y84.531 E0.03768
G1 X62.049 Y77.283 E0.22727
G1 X61.683 Y75.760 E0.04912
G1 X60.837 Y74.501 E0.04757
G1 X59.558 Y73.597 E0.04909
G1 X58.043 Y73.202 E0.04907
G1 X22.328 Y73.201 E1.11983
G1 X21.391 Y73.341 E0.02968
G1 X20.286 Y73.793 E0.03745
G1 X19.330 Y74.556 E0.03836
G1 X18.638 Y75.545 E0.03786
G1 X18.247 Y76.678 E0.03758
G1 X18.206 Y84.141 E0.23399
G1 X18.296 Y84.730 E0.01867
G1 X18.825 Y85.965 E0.04213
G1 X19.109 Y86.286 E0.01345
G1 X19.489 Y86.154 F10800.000
G1 F1200.000
G1 X19.978 Y86.716 E0.02335
G1 X21.077 Y87.348 E0.03977
G1 X22.275 Y87.601 E0.03839
G1 X58.198 Y87.566 E1.12634
G1 X58.711 Y87.486 E0.01629
G1 X59.757 Y87.052 E0.03549
G1 X60.517 Y86.445 E0.03049
G1 X60.895 Y85.967 F10800.000
G1 F1200.000
G1 X61.242 Y85.471 E0.01899
G1 X61.598 Y84.437 E0.03427
G1 X61.672 Y77.303 E0.22370
G1 X61.325 Y75.883 E0.04583
G1 X60.546 Y74.743 E0.04330
G1 X59.371 Y73.927 E0.04485
G1 X58.020 Y73.579 E0.04375
G1 X22.341 Y73.578 E1.11868
G1 X21.510 Y73.699 E0.02632
G1 X20.497 Y74.106 E0.03423
G1 X19.621 Y74.797 E0.03499
G1 X18.985 Y75.694 E0.03448
G1 X18.614 Y76.772 E0.03574
G1 X18.583 Y84.129 E0.23068
G1 X18.653 Y84.607 E0.01513
G1 X19.121 Y85.720 E0.03786
G1 X19.501 Y85.595 F10800.000
G1 F1200.000
G1 X20.196 Y86.407 E0.03352
G1 X21.186 Y86.986 E0.03597
G1 X22.295 Y87.224 E0.03555
G1 X58.184 Y87.189 E1.12528
G1 X58.591 Y87.128 E0.01289
G1 X59.545 Y86.739 E0.03232
G1 X60.322 Y86.128 E0.03099
G1 X60.518 Y85.847 E0.01073
G1 X60.896 Y85.307 F10800.000
G1 F1200.000
G1 X61.231 Y84.346 E0.03192
G1 X61.294 Y77.323 E0.22022
G1 X60.993 Y76.064 E0.04057
G1 X60.299 Y75.030 E0.03906
G1 X59.242 Y74.282 E0.04059
G1 X57.995 Y73.956 E0.04040
G1 X22.354 Y73.955 E1.11751
G1 X21.629 Y74.058 E0.02295
G1 X20.664 Y74.445 E0.03261
G1 X19.879 Y75.074 E0.03153
G1 X19.310 Y75.887 E0.03112
G1 X18.981 Y76.863 E0.03229
G1 X18.960 Y84.117 E0.22746
G1 X19.012 Y84.486 E0.01168
G1 X19.141 Y84.802 E0.01070
G1 X19.520 Y84.741 F10800.000
G1 F1200.000
G1 X19.773 Y85.345 E0.02055
G1 X20.459 Y86.135 E0.03279
G1 X21.347 Y86.644 E0.03210
G1 X22.314 Y86.847 E0.03097
G1 X58.171 Y86.812 E1.12429
G1 X58.473 Y86.769 E0.00956
G1 X59.334 Y86.426 E0.02905
G1 X60.065 Y85.849 E0.02920
G1 X60.520 Y85.190 E0.02509
G1 F8640.000
G1 X60.065 Y85.849 E-0.18478
G1 X59.334 Y86.426 E-0.21507
G1 X58.473 Y86.769 E-0.21396
G1 X58.171 Y86.812 E-0.07042
G1 X57.843 Y86.813 E-0.07576
G1 E-0.04000 F2100.00000
G1 Z0.600 F10800.000
G1 X60.916 Y77.525
G1 Z0.200
G1 E0.80000 F2100.00000
G1 F1200.000
G1 X60.917 Y77.342 E0.00574
G1 X60.892 Y77.233 E0.00349
G1 X60.667 Y76.276 F10800.000
G1 F1200.000
G1 X60.654 Y76.236 E0.00130
G1 F8640.000
G1 X60.667 Y76.276 E-0.00956
G1 E-0.79044 F2100.00000
G1 Z0.600 F10800.000
G1 X60.027 Y75.302
G1 Z0.200
G1 E0.80000 F2100.00000
G1 F1200.000
G1 X59.993 Y75.261 E0.00168
G1 F8640.000
G1 X60.027 Y75.302 E-0.01239
G1 E-0.78761 F2100.00000
G1 Z0.600 F10800.000
G1 X59.096 Y74.640
G1 Z0.200
G1 E0.80000 F2100.00000
G1 F1200.000
G1 X59.035 Y74.606 E0.00220
G1 X58.110 Y74.369 F10800.000
G1 F1200.000
G1 X57.972 Y74.333 E0.00447
G1 X57.792 Y74.333 E0.00566
G1 F8640.000
G1 X57.972 Y74.333 E-0.04165
G1 X58.110 Y74.369 E-0.03292
G1 E-0.72543 F2100.00000
G1 Z0.600 F10800.000
G1 X51.710 Y74.333
G1 Z0.200
G1 E0.80000 F2100.00000
G1 F1200.000
G1 X22.366 Y74.333 E0.92007
G1 X22.339 Y74.336 E0.00085
G1 X22.255 Y74.348 F10800.000
G1 F1200.000
G1 X21.745 Y74.417 E0.01615
G1 X21.605 Y74.472 E0.00473
G1 X21.146 Y74.653 F10800.000
G1 F1200.000
G1 X20.875 Y74.759 E0.00915
G1 X20.728 Y74.875 E0.00585
G1 X20.396 Y75.137 F10800.000
G1 F1200.000
G1 X20.172 Y75.313 E0.00894
G1 X20.050 Y75.488 E0.00668
G1 X19.776 Y75.880 F10800.000
G1 F1200.000
G1 X19.636 Y76.080 E0.00767
G1 X19.569 Y76.281 E0.00662
G1 X19.427 Y76.713 F10800.000
G1 F1200.000
G1 X19.349 Y76.952 E0.00788
G1 X19.348 Y77.152 E0.00629
G1 X19.717 Y77.234 F10800.000
G1 F1200.000
G1 X19.714 Y84.089 E0.21492
G1 X19.750 Y84.329 E0.00761
G1 X20.079 Y85.124 E0.02698
G1 X20.678 Y85.826 E0.02893
G1 X21.457 Y86.282 E0.02828
G1 X22.334 Y86.470 E0.02813
G1 X58.157 Y86.435 E1.12320
G1 X58.395 Y86.400 E0.00755
G1 X59.166 Y86.087 E0.02609
G1 X59.807 Y85.574 E0.02575
G1 X60.263 Y84.899 E0.02555
G1 X60.496 Y84.170 E0.02400
G1 X60.538 Y77.588 E0.20639
G1 X60.512 Y77.240 F10800.000
G1 F1200.000
G1 X60.341 Y76.487 E0.02420
G1 X60.312 Y76.401 F10800.000
G1 F1200.000
G1 X59.792 Y75.608 E0.02972
G1 X59.734 Y75.539 F10800.000
G1 F1200.000
G1 X58.981 Y75.006 E0.02894
G1 X58.894 Y74.959 F10800.000
G1 F1200.000
G1 X58.077 Y74.745 E0.02646
G1 X57.771 Y74.710 F10800.000
G1 F1200.000
G1 X51.721 Y74.710 E0.18970
G1 F8640.000
G1 X55.012 Y74.710 E-0.76000
G1 E-0.04000 F2100.00000
G1 Z0.600 F10800.000
G1 X21.700 Y74.838
G1 Z0.200
G1 E0.80000 F2100.00000
G1 F1200.000
G1 X21.344 Y74.974 E0.01194
G1 X20.935 Y75.192 F10800.000
G1 F1200.000
G1 X20.648 Y75.418 E0.01146
G1 X20.316 Y75.755 F10800.000
G1 F1200.000
G1 X20.109 Y76.057 E0.01148
G1 X19.902 Y76.458 F10800.000
G1 F1200.000
G1 X19.797 Y76.787 E0.01082
G1 F8640.000
G1 X19.902 Y76.458 E-0.07970
G1 E-0.72030 F2100.00000
G1 Z0.600 F10800.000
G1 X20.119 Y84.246
G1 Z0.200
G1 E0.80000 F2100.00000
G1 F1200.000
G1 X20.091 Y84.073 E0.00550
G1 X20.085 Y77.121 E0.21798
G1 X20.290 Y76.458 E0.02175
G1 X20.722 Y75.830 E0.02391
G1 X21.291 Y75.390 E0.02255
G1 X21.967 Y75.139 E0.02262
G1 X22.389 Y75.087 E0.01332
G1 X57.924 Y75.088 E1.11418
G1 X58.741 Y75.297 E0.02644
G1 X59.466 Y75.797 E0.02762
G1 X59.967 Y76.543 E0.02817
G1 X60.163 Y77.381 E0.02699
G1 X60.128 Y84.083 E0.21012
G1 X59.913 Y84.757 E0.02219
G1 X59.514 Y85.335 E0.02202
G1 X58.955 Y85.774 E0.02227
G1 X58.315 Y86.031 E0.02164
G1 X58.141 Y86.058 E0.00552
G1 X22.352 Y86.093 E1.12212
M73 Q3 S33
M73 P3 R33
G1 X21.616 Y85.939 E0.02358
G1 X20.940 Y85.554 E0.02440
G1 X20.415 Y84.949 E0.02512
G1 X20.142 Y84.302 E0.02203
G1 X20.487 Y84.161 F10800.000
G1 F1200.000
G1 X20.468 Y84.055 E0.00338
G1 X20.455 Y77.201 E0.21492
G1 X20.620 Y76.642 E0.01826
G1 X20.977 Y76.109 E0.02013
G1 X21.497 Y75.708 E0.02059
G1 X22.072 Y75.502 E0.01915
G1 X22.399 Y75.464 E0.01031
G1 X57.899 Y75.465 E1.11308
G1 X58.610 Y75.653 E0.02306
G1 X59.217 Y76.083 E0.02334
G1 X59.632 Y76.719 E0.02381
G1 X59.786 Y77.401 E0.02191
G1 X59.760 Y84.000 E0.20691
G1 X59.583 Y84.571 E0.01875
G1 X59.254 Y85.060 E0.01849
G1 X58.786 Y85.436 E0.01882
G1 X58.229 Y85.663 E0.01884
G1 X58.124 Y85.681 E0.00337
G1 X22.373 Y85.716 E1.12095
G1 X21.726 Y85.577 E0.02072
G1 X21.160 Y85.246 E0.02057
G1 X20.722 Y84.729 E0.02124
G1 X20.510 Y84.217 E0.01739
G1 X20.854 Y84.072 F10800.000
G1 F1200.000
G1 X20.825 Y77.277 E0.21306
G1 X20.953 Y76.821 E0.01483
G1 X21.237 Y76.383 E0.01638
G1 X21.657 Y76.050 E0.01679
G1 X22.140 Y75.873 E0.01612
G1 X22.411 Y75.841 E0.00855
G1 X57.876 Y75.842 E1.11199
G1 X58.426 Y75.983 E0.01783
G1 X58.927 Y76.325 E0.01900
G1 X59.273 Y76.840 E0.01945
G1 X59.409 Y77.422 E0.01874
G1 X59.390 Y83.920 E0.20375
G1 X59.254 Y84.386 E0.01520
G1 X58.959 Y84.823 E0.01655
G1 X58.577 Y85.121 E0.01519
G1 X58.103 Y85.304 E0.01592
G1 X22.391 Y85.339 E1.11973
G1 X21.884 Y85.234 E0.01622
G1 X21.421 Y84.972 E0.01667
G1 X21.057 Y84.554 E0.01741
G1 X20.877 Y84.127 E0.01451
G1 X21.226 Y83.987 F10800.000
G1 F1200.000
G1 X21.195 Y77.354 E0.20798
G1 X21.308 Y76.954 E0.01301
G1 X21.531 Y76.621 E0.01257
G1 X21.860 Y76.370 E0.01298
G1 X22.241 Y76.237 E0.01265
G1 X22.419 Y76.218 E0.00563
G1 X57.850 Y76.219 E1.11090
G1 X58.294 Y76.338 E0.01441
G1 X58.677 Y76.609 E0.01471
G1 X58.937 Y77.013 E0.01507
G1 X59.031 Y77.441 E0.01374
G1 X59.020 Y83.846 E0.20083
G1 X58.921 Y84.207 E0.01174
G1 X58.697 Y84.550 E0.01283
G1 X58.409 Y84.782 E0.01160
G1 X58.048 Y84.927 E0.01219
G1 X22.411 Y84.961 E1.11738
G1 X21.995 Y84.872 E0.01335
G1 X21.643 Y84.666 E0.01280
G1 X21.367 Y84.337 E0.01346
G1 X21.248 Y84.043 E0.00994
G1 X21.599 Y83.910 F10800.000
G1 F1200.000
G1 X21.566 Y77.422 E0.20341
G1 X21.640 Y77.136 E0.00927
G1 X21.824 Y76.861 E0.01039
G1 X22.056 Y76.693 E0.00897
G1 X22.302 Y76.609 E0.00817
G1 X22.430 Y76.595 E0.00404
G1 X57.827 Y76.596 E1.10984
G1 X58.113 Y76.670 E0.00927
G1 X58.388 Y76.855 E0.01039
G1 X58.579 Y77.135 E0.01063
G1 X58.654 Y77.463 E0.01056
G1 X58.649 Y83.778 E0.19800
G1 X58.583 Y84.037 E0.00838
G1 X58.434 Y84.278 E0.00886
G1 X58.197 Y84.468 E0.00953
G1 X57.949 Y84.562 E0.00834
G1 X22.433 Y84.584 E1.11358
G1 X22.111 Y84.512 E0.01034
G1 X21.872 Y84.364 E0.00882
G1 X21.681 Y84.127 E0.00953
G1 X21.620 Y83.966 E0.00542
G1 X22.021 Y83.961 F10800.000
G1 F1200.000
G1 X21.952 Y83.777 E0.00616
G1 X21.943 Y77.450 E0.19838
G1 X21.992 Y77.273 E0.00574
G1 X22.108 Y77.112 E0.00623
G1 X22.241 Y77.022 E0.00504
G1 X22.365 Y76.981 E0.00410
G1 X57.799 Y76.973 E1.11102
G1 X57.976 Y77.022 E0.00574
G1 X58.135 Y77.136 E0.00612
G1 X58.240 Y77.303 E0.00618
G1 X58.277 Y77.481 E0.00571
G1 X58.276 Y83.718 E0.19557
G1 X58.240 Y83.879 E0.00518
G1 X58.161 Y84.017 E0.00496
G1 X58.031 Y84.128 E0.00538
G1 X57.847 Y84.198 E0.00616
G1 X22.451 Y84.207 E1.10982
G1 X22.269 Y84.169 E0.00584
G1 X22.133 Y84.091 E0.00492
G1 X22.060 Y84.006 E0.00349
G1 F8640.000
G1 X21.952 Y83.777 E-0.05858
G1 X21.948 Y80.739 E-0.70142
G1 E-0.04000 F2100.00000
G1 Z0.600 F10800.000
G1 X57.870 Y91.981
G1 Z0.200
G1 E0.80000 F2100.00000
G1 F1200.000
G1 X59.652 Y92.446 E0.05775
G1 X60.500 Y93.044 E0.03254
G1 X60.877 Y93.310 F10800.000
G1 F1200.000
G1 X61.153 Y93.505 E0.01060
G1 X62.152 Y94.988 E0.05607
G1 X62.582 Y96.778 E0.05773
G1 X62.475 Y104.255 E0.23446
G1 X62.016 Y105.543 E0.04286
G1 X61.198 Y106.696 E0.04433
G1 X60.843 Y106.980 E0.01425
G1 X60.465 Y107.282 F10800.000
G1 F1200.000
G1 X60.132 Y107.548 E0.01336
G1 X58.862 Y108.090 E0.04331
G1 X58.021 Y108.231 E0.02671
G1 X21.995 Y108.266 E1.12957
G1 X20.425 Y107.928 E0.05037
G1 X19.064 Y107.145 E0.04923
G1 X19.030 Y107.107 E0.00162
G1 X18.662 Y106.694 F10800.000
G1 F1200.000
G1 X17.999 Y105.952 E0.03119
G1 X17.363 Y104.516 E0.04924
G1 X17.230 Y103.700 E0.02594
G1 X17.293 Y96.024 E0.24068
G1 X17.745 Y94.735 E0.04282
G1 X18.560 Y93.572 E0.04453
G1 X18.956 Y93.252 E0.01596
G1 X19.340 Y92.942 F10800.000
G1 F1200.000
G1 X19.637 Y92.703 E0.01195
G1 X20.926 Y92.159 E0.04388
G1 X22.079 Y91.981 E0.03656
G1 X57.870 Y91.981 E1.12220
G1 F8640.000
G1 X54.578 Y91.981 E-0.76000
G1 E-0.04000 F2100.00000
G1 Z0.600 F10800.000
G1 X60.499 Y93.494
G1 Z0.200
G1 E0.80000 F2100.00000
G1 F1200.000
G1 X59.465 Y92.775 E0.03949
G1 X57.846 Y92.359 E0.05242
G1 X22.093 Y92.358 E1.12103
G1 X21.049 Y92.516 E0.03310
G1 X19.851 Y93.014 E0.04069
G1 X19.329 Y93.431 E0.02091
G1 X18.946 Y93.737 F10800.000
G1 F1200.000
G1 X18.852 Y93.812 E0.00376
G1 X18.092 Y94.885 E0.04122
G1 X17.659 Y96.119 E0.04099
G1 X17.607 Y103.687 E0.23730
G1 X17.719 Y104.389 E0.02227
G1 X18.300 Y105.724 E0.04567
G1 X18.674 Y106.142 E0.01757
G1 X19.042 Y106.554 F10800.000
G1 F1200.000
G1 X19.325 Y106.871 E0.01331
G1 X20.585 Y107.586 E0.04544
G1 X22.015 Y107.889 E0.04583
G1 X58.006 Y107.854 E1.12848
G1 X58.736 Y107.734 E0.02321
G1 X59.917 Y107.236 E0.04017
G1 X60.466 Y106.798 E0.02202
G1 X60.844 Y106.496 F10800.000
G1 F1200.000
G1 X60.941 Y106.419 E0.00391
G1 X61.692 Y105.348 E0.04099
G1 X62.109 Y104.160 E0.03949
G1 X62.205 Y96.798 E0.23086
G1 X61.794 Y95.112 E0.05442
G1 X60.875 Y93.767 E0.05105
G1 X60.498 Y93.951 F10800.000
G1 F1200.000
G1 X59.336 Y93.131 E0.04459
G1 X57.822 Y92.736 E0.04907
G1 X22.106 Y92.735 E1.11983
G1 X21.170 Y92.874 E0.02968
G1 X20.064 Y93.326 E0.03745
G1 X19.319 Y93.922 E0.02993
G1 X18.932 Y94.342 F10800.000
G1 F1200.000
G1 X18.416 Y95.079 E0.02822
G1 X18.026 Y96.212 E0.03758
G1 X17.985 Y103.675 E0.23399
G1 X18.075 Y104.263 E0.01867
