; generated by PrusaSlicer 2.4.0+win64 on 2022-03-09 at 01:10:26 UTC

; 

; external perimeters extrusion width = 0.60mm
; perimeters extrusion width = 0.50mm
; infill extrusion width = 0.50mm
; solid infill extrusion width = 0.50mm
; top infill extrusion width = 0.45mm
; first layer extrusion width = 0.42mm

; external perimeters extrusion width = 0.60mm
; perimeters extrusion width = 0.50mm
; infill extrusion width = 0.50mm
; solid infill extrusion width = 0.50mm
; top infill extrusion width = 0.45mm
; first layer extrusion width = 0.42mm

; external perimeters extrusion width = 0.60mm
; perimeters extrusion width = 0.50mm
; infill extrusion width = 0.50mm
; solid infill extrusion width = 0.50mm
; top infill extrusion width = 0.45mm
; first layer extrusion width = 0.42mm

; external perimeters extrusion width = 0.60mm
; perimeters extrusion width = 0.50mm
; infill extrusion width = 0.50mm
; solid infill extrusion width = 0.50mm
; top infill extrusion width = 0.45mm
; first layer extrusion width = 0.42mm

; external perimeters extrusion width = 0.60mm
; perimeters extrusion width = 0.50mm
; infill extrusion width = 0.50mm
; solid infill extrusion width = 0.50mm
; top infill extrusion width = 0.45mm
; first layer extrusion width = 0.42mm

M73 P0 R110
M73 Q0 S121
M201 X4000 Y4000 Z1000 E5000 ; sets maximum accelerations, mm/sec^2
M203 X200 Y200 Z12 E120 ; sets maximum feedrates, mm/sec
M204 P2000 R2000 T2000 ; sets acceleration (P, T) and retract acceleration (R), mm/sec^2
M205 X8.00 Y8.00 Z0.40 E4.50 ; sets the jerk limits, mm/sec
M205 S0 T0 ; sets the minimum extruding and travel feed rate, mm/sec
M107
;TYPE:Custom
M862.3 P "MK3S" ; printer model check
M862.1 P0.4 ; nozzle diameter check
M115 U3.10.0 ; tell printer latest fw version
G90 ; use absolute coordinates
M83 ; extruder relative mode
M104 S225 ; set extruder temp
M140 S80 ; set bed temp
M190 S80 ; wait for bed temp
M109 S225 ; wait for extruder temp
G28 W ; home all without mesh bed level
G80 ; mesh bed leveling
G1 Y-3.0 F1000.0 ; go outside print area
G92 E0.0
G1 X60.0 E9.0 F1000.0 ; intro line
G1 X100.0 E12.5 F1000.0 ; intro line
G92 E0.0
M221 S95

; Don't change E values below. Excessive value can damage the printer.

M907 E538 ; set extruder motor current
G21 ; set units to millimeters
G90 ; use absolute coordinates
M83 ; use relative distances for extrusion
M900 K0.05 ; Filament gcode LA 1.5
M900 K30 ; Filament gcode LA 1.0
M107
;LAYER_CHANGE
;Z:0.2
;HEIGHT:0.2
;BEFORE_LAYER_CHANGE
G92 E0.0
;0.2


G1 E-.6 F3600
G1 Z.2 F10800
;AFTER_LAYER_CHANGE
;0.2
G1 X71.495 Y64.42
G1 E.6 F3600
M204 S1000
;TYPE:Skirt/Brim
;WIDTH:0.42
M73 P0 R109
G1 X72.598 Y63.25 E.05041
G1 X73.429 Y62.637 E.03236
G1 X74.4 Y62.091 E.03493
G1 X75.798 Y61.589 E.0466
G1 X77.372 Y61.358 E.04986
G1 X138.103 Y61.35 E1.90417
G1 X139.096 Y61.426 E.03123
G1 X140.04 Y61.628 E.03027
G1 X141.193 Y62.04 E.03838
G1 X142.032 Y62.478 E.02969
G1 X176.332 Y82.478 E1.24492
G1 X177.773 Y83.59 E.05706
G1 X178.796 Y84.83 E.05041
G1 X179.36 Y85.863 E.0369
G1 X179.66 Y86.592 E.02472
G1 X179.972 Y87.764 E.03803
G1 X180.096 Y88.884 E.03533
G1 X180.102 Y117.656 E.90211
G1 X179.995 Y118.809 E.03632
G1 X179.727 Y119.906 E.03539
G1 X179.323 Y120.929 E.03449
G1 X178.507 Y122.24 E.04842
G1 X177.909 Y122.948 E.02904
G1 X173.693 Y127.164 E.18695
G1 X173.21 Y127.536 E.01914
G1 X138.91 Y147.536 E1.24492
G1 X136.711 Y148.471 E.07491
G1 X135.801 Y148.652 E.02908
G1 X77.613 Y148.652 E1.82444
G1 X76.39 Y148.537 E.0385
G1 X75.142 Y148.21 E.04045
G1 X74.192 Y147.8 E.03246
G1 X72.97 Y147.055 E.04487
G1 X71.8 Y145.952 E.05041
G1 X71.187 Y145.121 E.03236
G1 X70.641 Y144.15 E.03493
G1 X70.139 Y142.752 E.0466
G1 X69.95 Y141.76 E.03165
G1 X69.898 Y140.892 E.02726
G1 X69.898 Y69.063 E2.25215
G1 X70.013 Y67.841 E.0385
G1 X70.34 Y66.592 E.04046
G1 X70.75 Y65.642 E.03246
G1 X71.464 Y64.471 E.04299
M204 S2000
;WIPE_START
G1 F8640
G1 X72.444 Y63.416 E-.57
;WIPE_END
G1 E-.03 F3600
G1 X73.622 Y66.051 F10800
G1 E.6 F3600
M204 S1000
G1 X74.483 Y65.178 E.03844
G1 X75.479 Y64.536 E.03715
G1 X76.495 Y64.168 E.03387
G1 X77.553 Y64.016 E.03351
G1 X103.965 Y64.018 E.82815
G1 X105.775 Y64.471 E.05851
G1 X107.238 Y65.447 E.05514
G1 X107.831 Y66.135 E.02848
G1 X108.717 Y65.233 E.03964
G1 X109.739 Y64.557 E.03842
G1 X110.754 Y64.178 E.03399
G1 X111.824 Y64.018 E.03394
G1 X138.267 Y64.018 E.8291
G1 X140.082 Y64.474 E.05866
G1 X141.581 Y65.486 E.0567
G1 X142.186 Y66.207 E.02952
G1 X142.653 Y67.001 E.02888
G1 X143.12 Y68.797 E.0582
G1 X143.137 Y85.151 E.51275
G1 X144.076 Y84.538 E.03515
G1 X145.095 Y84.168 E.03401
G1 X146.206 Y84.012 E.03515
G1 X172.523 Y84.012 E.82515
G1 X174.382 Y84.474 E.06008
G1 X175.798 Y85.411 E.05323
G1 X176.468 Y86.182 E.03203
G1 X176.957 Y87.009 E.03012
G1 X177.438 Y88.94 E.06238
G1 X177.438 Y117.71 E.90207
G1 X177.089 Y119.387 E.05372
G1 X176.762 Y120.061 E.02347
G1 X176.347 Y120.685 E.0235
G1 X172.186 Y124.875 E.18514
G1 X170.95 Y125.614 E.04517
G1 X169.513 Y125.977 E.04646
G1 X146.099 Y125.984 E.73414
G1 X144.579 Y125.675 E.04863
G1 X143.138 Y124.904 E.05124
G1 X143.138 Y137.709 E.40149
G1 X142.807 Y139.336 E.05204
G1 X142.448 Y140.085 E.02606
G1 X141.956 Y140.796 E.02711
G1 X138.031 Y144.759 E.17489
G1 X136.823 Y145.539 E.04508
G1 X135.369 Y145.956 E.04742
G1 X111.725 Y145.977 E.74135
G1 X110.232 Y145.657 E.04789
G1 X108.907 Y144.932 E.04737
G1 X108.082 Y144.132 E.03603
G1 X107.408 Y143.113 E.0383
G1 X107.039 Y142.137 E.03273
G1 X106.935 Y141.52 E.0196
G1 X103.665 Y144.812 E.14549
G1 X102.42 Y145.584 E.04594
G1 X100.969 Y145.969 E.04708
G1 X77.537 Y145.988 E.7347
G1 X75.924 Y145.655 E.05162
G1 X74.515 Y144.863 E.05069
G1 X73.729 Y144.067 E.03507
G1 X73.106 Y143.11 E.0358
G1 X72.718 Y142.054 E.03527
G1 X72.562 Y140.945 E.03514
G1 X72.562 Y108.987 E1.00202
G1 X72.874 Y107.433 E.04968
G1 X73.59 Y106.095 E.04758
G1 X74.42 Y105.23 E.03759
M73 Q0 S120
G1 X74.697 Y105.031 E.01071
G1 X73.783 Y104.134 E.04016
G1 X73.088 Y103.073 E.03976
G1 X72.719 Y102.059 E.03386
G1 X72.564 Y100.972 E.03442
G1 X72.562 Y68.986 E1.00289
G1 X72.875 Y67.431 E.04975
G1 X73.594 Y66.104 E.04732
M204 S2000
G1 X73.924 Y66.285 F10800
M204 S1000
G1 F3600
G1 X74.706 Y65.483 E.03511
G1 X75.63 Y64.883 E.03455
G1 X76.568 Y64.538 E.03134
G1 X77.593 Y64.391 E.03246
G1 X103.898 Y64.389 E.82479
G1 X105.594 Y64.803 E.05473
G1 X107.006 Y65.745 E.05322
G1 X107.571 Y66.415 E.02745
G1 X107.871 Y66.899 E.01788
G1 X108.236 Y66.261 E.02306
G1 X108.942 Y65.536 E.03171
G1 X109.928 Y64.884 E.03707
G1 X110.866 Y64.539 E.03132
G1 X111.838 Y64.395 E.03083
G1 X138.244 Y64.395 E.82792
G1 X139.956 Y64.831 E.0554
G1 X141.346 Y65.781 E.05279
G1 X141.87 Y66.414 E.02575
G1 X142.295 Y67.123 E.02593
G1 X142.749 Y68.869 E.05657
G1 X142.76 Y86.017 E.53765
G1 X143.239 Y85.538 E.0212
G1 X144.226 Y84.885 E.03713
G1 X145.205 Y84.529 E.03266
G1 X146.218 Y84.389 E.03207
G1 X172.499 Y84.389 E.82402
G1 X174.258 Y84.832 E.05686
G1 X175.566 Y85.709 E.04938
G1 X176.17 Y86.414 E.02911
G1 X176.617 Y87.176 E.02772
G1 X177.061 Y88.963 E.05771
G1 X177.061 Y117.691 E.90075
G1 X176.74 Y119.244 E.04973
G1 X176.429 Y119.884 E.02232
G1 X176.044 Y120.46 E.02172
G1 X171.972 Y124.563 E.18124
G1 X170.781 Y125.276 E.04353
G1 X169.446 Y125.605 E.04312
G1 X146.118 Y125.607 E.73141
G1 X144.683 Y125.311 E.04595
G1 X143.447 Y124.64 E.0441
G1 X142.761 Y123.989 E.02965
G1 X142.761 Y137.69 E.42959
G1 X142.457 Y139.195 E.04812
G1 X142.128 Y139.884 E.02395
G1 X141.676 Y140.543 E.02505
G1 X137.778 Y144.479 E.17369
G1 X136.644 Y145.206 E.04224
G1 X135.293 Y145.586 E.04401
G1 X111.783 Y145.604 E.73714
G1 X110.386 Y145.313 E.04472
G1 X109.149 Y144.642 E.04412
G1 X108.384 Y143.906 E.03327
G1 X107.734 Y142.923 E.03695
G1 X107.399 Y142.025 E.03007
G1 X107.199 Y140.717 E.04147
G1 X103.446 Y144.505 E.16719
G1 X102.294 Y145.228 E.04265
G1 X100.944 Y145.592 E.04386
G1 X77.555 Y145.611 E.73333
G1 X76.082 Y145.311 E.04715
G1 X74.763 Y144.578 E.04731
G1 X74.034 Y143.845 E.0324
G1 X73.434 Y142.923 E.03449
G1 X73.079 Y141.945 E.03262
G1 X72.939 Y140.932 E.03207
G1 X72.939 Y109.005 E1.00105
G1 X73.219 Y107.586 E.04534
G1 X73.91 Y106.297 E.04585
G1 X74.674 Y105.509 E.03442
G1 X75.457 Y104.983 E.02957
G1 X74.811 Y104.614 E.02333
G1 X74.086 Y103.908 E.03171
G1 X73.434 Y102.922 E.03707
G1 X73.089 Y101.985 E.03132
G1 X72.941 Y100.958 E.03252
G1 X72.939 Y69.005 E1.00186
G1 X73.238 Y67.534 E.04706
G1 X73.895 Y66.338 E.04281
M204 S2000
G1 X74.221 Y66.514 F10800
M204 S1000
G1 F3600
G1 X74.929 Y65.788 E.03181
G1 X75.817 Y65.211 E.0332
G1 X76.678 Y64.9 E.0287
G1 X77.606 Y64.768 E.02941
G1 X103.876 Y64.766 E.82369
G1 X105.413 Y65.136 E.04954
G1 X106.773 Y66.043 E.05128
G1 X107.271 Y66.643 E.02444
G1 X107.638 Y67.246 E.02213
G1 X107.812 Y67.797 E.01812
G1 X108.525 Y66.504 E.0463
G1 X109.197 Y65.814 E.03022
G1 X110.116 Y65.211 E.03444
G1 X110.975 Y64.9 E.02866
G1 X111.878 Y64.77 E.02862
G1 X138.176 Y64.766 E.82454
G1 X139.773 Y65.162 E.0516
G1 X141.073 Y66.043 E.04922
G1 X141.57 Y66.643 E.02443
G1 X141.957 Y67.292 E.0237
G1 X142.378 Y68.939 E.05331
G1 X142.383 Y86.706 E.55706
G1 X142.661 Y86.781 E.00903
G1 X142.823 Y86.506 E.01002
G1 X143.467 Y85.84 E.02904
G1 X144.378 Y85.231 E.03436
G1 X145.278 Y84.9 E.03007
G1 X146.232 Y84.766 E.03019
G1 X172.476 Y84.766 E.82289
G1 X174.075 Y85.163 E.05166
G1 X175.334 Y86.007 E.04751
G1 X175.855 Y86.621 E.02524
G1 X176.259 Y87.296 E.02467
G1 X176.684 Y88.986 E.05463
G1 X176.684 Y117.672 E.89942
G1 X176.39 Y119.101 E.04576
G1 X176.108 Y119.686 E.02035
G1 X175.74 Y120.235 E.02073
G1 X171.757 Y124.253 E.1774
G1 X170.661 Y124.918 E.04017
G1 X169.422 Y125.228 E.04005
G1 X146.137 Y125.23 E.73009
G1 X144.838 Y124.967 E.04156
G1 X143.651 Y124.322 E.04236
G1 X142.962 Y123.65 E.03016
G1 X142.65 Y123.19 E.01743
G1 X142.384 Y123.272 E.00874
G1 X142.384 Y137.672 E.4515
G1 X142.106 Y139.055 E.04423
G1 X141.808 Y139.685 E.02184
G1 X141.396 Y140.29 E.02297
G1 X137.525 Y144.199 E.17246
G1 X136.466 Y144.872 E.03936
G1 X135.218 Y145.215 E.0406
G1 X111.838 Y145.23 E.73304
G1 X110.541 Y144.967 E.04151
G1 X109.352 Y144.323 E.04239
G1 X108.662 Y143.651 E.0302
G1 X108.08 Y142.772 E.03306
G1 X107.76 Y141.912 E.02877
G1 X107.62 Y140.971 E.02982
G1 X107.617 Y140.005 E.03029
G1 X107.352 Y139.923 E.00869
G1 X107.119 Y140.262 E.01291
G1 X103.225 Y144.198 E.1736
G1 X102.166 Y144.872 E.03936
G1 X100.918 Y145.215 E.0406
G1 X77.574 Y145.234 E.73191
G1 X76.186 Y144.947 E.04444
G1 X75.011 Y144.292 E.04221
G1 X74.338 Y143.621 E.02978
G1 X73.78 Y142.772 E.03186
G1 X73.45 Y141.872 E.03005
G1 X73.316 Y140.918 E.03019
G1 X73.316 Y109.024 E1.00004
G1 X73.583 Y107.689 E.04269
G1 X74.228 Y106.501 E.04236
G1 X74.928 Y105.788 E.03134
G1 X75.739 Y105.25 E.03051
G1 X76.316 Y105.021 E.01946
G1 X75.054 Y104.325 E.04518
G1 X74.364 Y103.653 E.03022
G1 X73.761 Y102.734 E.03444
G1 X73.45 Y101.875 E.02865
G1 X73.318 Y100.945 E.02946
G1 X73.316 Y69.024 E1.00087
G1 X73.583 Y67.689 E.04269
G1 X74.192 Y66.567 E.04001
M204 S2000
G1 X74.522 Y66.748 F10800
M204 S1000
G1 F3600
G1 X75.153 Y66.092 E.02854
G1 X75.966 Y65.558 E.03052
G1 X76.787 Y65.261 E.02736
G1 X77.644 Y65.143 E.02714
G1 X103.854 Y65.144 E.82177
G1 X105.29 Y65.494 E.04635
G1 X106.538 Y66.339 E.04727
G1 X106.955 Y66.85 E.02068
G1 X107.299 Y67.415 E.02073
G1 X107.704 Y68.974 E.0505
G1 X108.004 Y68.966 E.00938
G1 X108.247 Y67.792 E.03759
G1 X108.815 Y66.747 E.03729
G1 X109.423 Y66.116 E.02748
G1 X110.267 Y65.557 E.03173
G1 X111.049 Y65.271 E.02611
G1 X111.919 Y65.145 E.02756
G1 X138.154 Y65.144 E.82257
G1 X139.59 Y65.494 E.04635
G1 X140.838 Y66.339 E.04727
G1 X141.255 Y66.85 E.02068
G1 X141.599 Y67.415 E.02073
G1 X142.001 Y68.963 E.05017
G1 X142.007 Y88.721 E.61947
G1 X142.345 Y88.756 E.01066
G1 X142.547 Y87.792 E.03085
G1 X143.115 Y86.747 E.0373
G1 X143.723 Y86.116 E.02748
G1 X144.567 Y85.558 E.03172
G1 X145.387 Y85.261 E.02734
G1 X146.244 Y85.143 E.02714
G1 X172.453 Y85.144 E.82175
G1 X173.95 Y85.521 E.04841
G1 X175.099 Y86.303 E.04358
G1 X175.555 Y86.85 E.02233
G1 X175.921 Y87.465 E.02243
G1 X176.307 Y89.009 E.04991
G1 X176.307 Y117.653 E.8981
G1 X176.04 Y118.959 E.04178
G1 X175.774 Y119.51 E.01919
G1 X175.437 Y120.01 E.01891
G1 X171.539 Y123.944 E.17365
G1 X170.539 Y124.56 E.03682
G1 X169.398 Y124.851 E.03693
G1 X146.156 Y124.853 E.72873
G1 X144.943 Y124.603 E.03885
G1 X143.856 Y124.005 E.03888
G1 X143.242 Y123.397 E.0271
G1 X142.727 Y122.622 E.02918
G1 X142.42 Y121.8 E.02752
G1 X142.355 Y121.379 E.01334
G1 X142.007 Y121.406 E.01094
G1 X142.007 Y137.653 E.50942
G1 X141.755 Y138.916 E.04037
G1 X141.487 Y139.487 E.01976
G1 X141.115 Y140.038 E.02085
G1 X137.273 Y143.918 E.17122
G1 X136.29 Y144.538 E.03644
G1 X135.145 Y144.845 E.03718
G1 X111.892 Y144.857 E.72906
G1 X110.695 Y144.622 E.03826
G1 X109.556 Y144.005 E.04061
G1 X108.942 Y143.397 E.02707
G1 X108.408 Y142.583 E.03054
G1 X108.121 Y141.801 E.02612
G1 X107.995 Y140.931 E.02756
G1 X107.993 Y137.967 E.09293
G1 X107.655 Y137.932 E.01066
G1 X107.44 Y138.958 E.03286
G1 X107.174 Y139.51 E.0192
G1 X106.837 Y140.01 E.01892
G1 X102.973 Y143.918 E.17232
G1 X101.99 Y144.538 E.03644
G1 X100.845 Y144.845 E.03718
G1 X77.593 Y144.857 E.72904
G1 X76.342 Y144.603 E.04001
G1 X75.256 Y144.005 E.03887
G1 X74.642 Y143.397 E.02709
G1 X74.108 Y142.584 E.03052
G1 X73.811 Y141.763 E.02736
G1 X73.693 Y140.906 E.02714
G1 X73.693 Y109.043 E.99904
G1 X73.947 Y107.792 E.04
G1 X74.545 Y106.706 E.03887
G1 X75.153 Y106.092 E.02711
G1 X75.928 Y105.577 E.02918
G1 X76.749 Y105.27 E.02749
G1 X77.498 Y105.161 E.02371
G1 X77.507 Y104.845 E.00992
G1 X76.342 Y104.603 E.0373
G1 X75.297 Y104.035 E.03729
G1 X74.666 Y103.427 E.02748
G1 X74.108 Y102.583 E.03173
G1 X73.821 Y101.801 E.02611
G1 X73.695 Y100.931 E.02756
G1 X73.693 Y69.043 E.99984
G1 X73.947 Y67.792 E.04
G1 X74.493 Y66.801 E.03548
M204 S2000
G1 X74.818 Y66.978 F10800
M204 S1000
G1 F3600
G1 X75.378 Y66.395 E.02534
G1 X76.118 Y65.904 E.02783
G1 X76.859 Y65.632 E.02477
G1 X77.657 Y65.52 E.02527
G1 X103.83 Y65.521 E.82063
G1 X105.166 Y65.851 E.04314
G1 X106.264 Y66.599 E.04165
G1 X106.64 Y67.058 E.01861
G1 X106.963 Y67.586 E.01941
G1 X107.33 Y69.033 E.04679
G1 X107.33 Y97.634 E.89677
G1 X107.09 Y98.817 E.03784
G1 X106.853 Y99.311 E.01716
G1 X106.534 Y99.785 E.01792
G1 X102.721 Y103.637 E.16995
G1 X101.815 Y104.202 E.03347
G1 X100.773 Y104.474 E.03376
G1 X77.611 Y104.48 E.72624
G1 X76.497 Y104.258 E.03563
G1 X75.501 Y103.717 E.03553
G1 X74.945 Y103.172 E.02442
G1 X74.454 Y102.432 E.02783
G1 X74.182 Y101.691 E.02477
G1 X74.07 Y100.893 E.02527
G1 X74.07 Y69.061 E.99806
G1 X74.292 Y67.947 E.03562
G1 X74.79 Y67.031 E.03268
M204 S2000
G1 X75.119 Y67.213 F10800
M204 S1000
G1 F3600
G1 X75.149 Y67.158 E.00197
G1 X75.631 Y66.676 E.02135
G1 X76.305 Y66.232 E.02533
G1 X76.968 Y65.993 E.02206
G1 X77.67 Y65.897 E.02223
G1 X103.808 Y65.898 E.81955
G1 X104.984 Y66.183 E.03794
G1 X105.99 Y66.86 E.03801
G1 X106.34 Y67.287 E.0173
G1 X106.625 Y67.757 E.01726
G1 X106.953 Y69.056 E.04199
G1 X106.953 Y97.616 E.89546
G1 X106.74 Y98.675 E.03389
G1 X106.52 Y99.135 E.01597
G1 X106.232 Y99.559 E.01605
G1 X102.469 Y103.355 E.16761
G1 X101.642 Y103.866 E.03049
G1 X100.75 Y104.097 E.02889
G1 X77.63 Y104.103 E.7249
G1 X76.601 Y103.894 E.03293
G1 X75.708 Y103.401 E.03199
G1 X75.226 Y102.919 E.02135
G1 X74.782 Y102.245 E.02533
G1 X74.543 Y101.583 E.02206
G1 X74.447 Y100.88 E.02223
G1 X74.447 Y69.08 E.99707
G1 X74.656 Y68.051 E.03293
G1 X75.09 Y67.265 E.02814
M204 S2000
G1 X75.416 Y67.442 F10800
M204 S1000
G1 F3600
G1 X75.857 Y66.978 E.02008
G1 X76.457 Y66.577 E.02264
G1 X77.04 Y66.364 E.01946
G1 X77.683 Y66.275 E.02036
G1 X103.785 Y66.275 E.8184
G1 X104.86 Y66.541 E.03474
G1 X105.716 Y67.121 E.03242
G1 X106.025 Y67.494 E.01518
G1 X106.288 Y67.928 E.01592
G1 X106.575 Y69.079 E.03719
G1 X106.575 Y97.597 E.89417
G1 X106.389 Y98.534 E.02995
G1 X106.186 Y98.959 E.01476
G1 X105.931 Y99.331 E.01416
G1 X102.216 Y103.074 E.16533
G1 X101.517 Y103.51 E.02583
G1 X100.725 Y103.72 E.02571
G1 X77.648 Y103.725 E.72355
G1 X76.755 Y103.549 E.02855
G1 X75.953 Y103.113 E.02862
G1 X75.528 Y102.693 E.01872
G1 X75.127 Y102.093 E.02264
G1 X74.914 Y101.51 E.01946
