; generated by PrusaSlicer 2.2.0+win64 on 2020-10-18 at 23:00:10 UTC

; 

; external perimeters extrusion width = 0.45mm
; perimeters extrusion width = 0.45mm
; infill extrusion width = 0.45mm
; solid infill extrusion width = 0.45mm
; top infill extrusion width = 0.40mm
; first layer extrusion width = 0.42mm

M73 P0 R61
M73 Q0 S61
M201 X1000 Y1000 Z200 E5000 ; sets maximum accelerations, mm/sec^2
M203 X200 Y200 Z12 E120 ; sets maximum feedrates, mm/sec
M204 P1250 R1250 T1250 ; sets acceleration (P, T) and retract acceleration (R), mm/sec^2
M205 X8.00 Y8.00 Z0.40 E4.50 ; sets the jerk limits, mm/sec
M205 S0 T0 ; sets the minimum extruding and travel feed rate, mm/sec
M107
M862.3 P "MK3S" ; printer model check
M862.1 P0.4 ; nozzle diameter check
M115 U3.9.1 ; tell printer latest fw version
G90 ; use absolute coordinates
M83 ; extruder relative mode
M104 S215 ; set extruder temp
M140 S60 ; set bed temp
M190 S60 ; wait for bed temp
M109 S215 ; wait for extruder temp
G28 W ; home all without mesh bed level
G80 ; mesh bed leveling
G1 Y-3.0 F1000.0 ; go outside print area
G92 E0.0
G1 X60.0 E9.0 F1000.0 ; intro line
M73 Q0 S61
M73 P0 R61
G1 X100.0 E12.5 F1000.0 ; intro line
G92 E0.0
M221 S95

; Don't change E values below. Excessive value can damage the printer.
M907 E430 ; set extruder motor current
G21 ; set units to millimeters
G90 ; use absolute coordinates
M83 ; use relative distances for extrusion
M900 K0.05 ; Filament gcode LA 1.5
M900 K30 ; Filament gcode LA 1.0
;BEFORE_LAYER_CHANGE
G92 E0.0
;0.2


G1 E-0.80000 F2100.00000
G1 Z0.600 F10800.000
;AFTER_LAYER_CHANGE
;0.2
G1 X17.857 Y145.982
G1 Z0.200
G1 E0.80000 F2100.00000
M204 S1000
G1 F1200.000
G1 X18.512 Y145.802 E0.02130
G1 X89.052 Y136.999 E2.22887
G1 X93.389 Y136.716 E0.13629
G1 X97.892 Y137.026 E0.14153
G1 X102.024 Y137.854 E0.13212
G1 X106.070 Y139.222 E0.13391
G1 X125.404 Y147.946 E0.66508
G1 X125.987 Y148.337 E0.02201
G1 X126.432 Y148.885 E0.02213
G1 X126.676 Y149.459 E0.01953
G1 X126.762 Y150.076 E0.01953
G1 X126.762 Y190.124 E1.25568
G1 X126.701 Y190.629 E0.01597
G1 X126.533 Y191.111 E0.01597
G1 X126.265 Y191.548 E0.01609
G1 X125.912 Y191.915 E0.01597
G1 X125.372 Y192.256 E0.02000
G1 X106.128 Y200.942 E0.66200
G1 X102.019 Y202.334 E0.13603
G1 X97.623 Y203.197 E0.14046
G1 X93.335 Y203.470 E0.13474
G1 X18.737 Y201.536 E2.33976
G1 X18.243 Y201.469 E0.01562
G1 X17.771 Y201.298 E0.01574
G1 X17.348 Y201.035 E0.01562
G1 X16.987 Y200.686 E0.01574
G1 X16.580 Y199.985 E0.02543
G1 X16.433 Y199.187 E0.02543
G1 X16.432 Y148.149 E1.60028
G1 X16.491 Y147.635 E0.01621
G1 X16.658 Y147.150 E0.01609
G1 X16.925 Y146.711 E0.01609
G1 X17.283 Y146.338 E0.01621
G1 X17.806 Y146.014 E0.01931
G1 F8640.000
G1 X18.512 Y145.802 E-0.17023
G1 X21.047 Y145.485 E-0.58977
G1 E-0.04000 F2100.00000
G1 Z0.800 F10800.000
G1 X76.294 Y138.781
G1 Z0.200
G1 E0.80000 F2100.00000
G1 F1200.000
G1 X75.630 Y139.106 E0.02320
G1 X71.779 Y141.657 E0.14484
G1 X68.255 Y144.718 E0.14634
G1 X67.651 Y145.387 E0.02826
G1 X61.504 Y145.440 E0.19275
G1 X61.157 Y145.509 E0.01109
G1 X60.032 Y145.966 E0.03808
G1 X59.331 Y146.481 E0.02727
G1 X58.645 Y147.191 E0.03096
G1 X58.001 Y148.271 E0.03944
G1 X57.848 Y148.842 E0.01852
G1 X57.522 Y148.801 E0.01029
G1 X57.507 Y147.692 E0.03477
G1 X57.166 Y146.560 E0.03708
G1 X56.432 Y145.437 E0.04206
G1 X55.335 Y144.473 E0.04577
G1 X54.452 Y144.043 E0.03081
G1 X53.535 Y143.822 E0.02958
G1 X40.517 Y143.834 E0.40815
G1 X39.289 Y144.211 E0.04029
G1 X38.271 Y144.878 E0.03816
G1 X37.287 Y145.991 E0.04658
G1 X36.698 Y147.341 E0.04619
G1 X36.592 Y148.112 E0.02438
G1 X36.592 Y200.019 E1.62752
G1 X36.949 Y201.393 E0.04451
G1 X37.225 Y201.827 E0.01612
G1 X37.469 Y202.210 F10800.000
G1 F1200.000
G1 X37.703 Y202.578 E0.01366
G1 X38.787 Y203.528 E0.04518
G1 X40.138 Y204.117 E0.04621
G1 X40.910 Y204.223 E0.02445
G1 X53.680 Y204.175 E0.40039
G1 X54.899 Y203.785 E0.04011
G1 X55.908 Y203.108 E0.03809
G1 X56.268 Y202.698 E0.01712
G1 X56.591 Y202.329 F10800.000
G1 F1200.000
G1 X56.855 Y202.028 E0.01255
G1 X57.444 Y200.677 E0.04621
G1 X57.550 Y199.906 E0.02438
G1 X57.550 Y193.999 E0.18521
G1 X57.250 Y192.772 E0.03962
G1 X56.675 Y191.727 E0.03738
G1 X55.637 Y190.688 E0.04605
G1 X54.657 Y190.126 E0.03542
G1 X53.601 Y189.830 E0.03440
G1 X48.784 Y189.799 E0.15102
G1 X48.784 Y158.218 E0.99021
G1 X53.506 Y158.202 E0.14804
G1 X54.948 Y157.760 E0.04730
G1 X55.844 Y157.162 E0.03378
G1 X56.639 Y156.334 E0.03596
G1 X57.176 Y155.433 E0.03289
G1 X57.345 Y154.826 E0.01978
G1 X57.671 Y154.870 E0.01031
G1 X57.671 Y190.640 E1.12153
G1 X58.320 Y192.563 E0.06363
G1 X58.824 Y193.201 E0.02549
G1 X59.832 Y194.097 E0.04231
G1 X60.610 Y194.494 E0.02736
G1 X61.539 Y194.760 E0.03031
G1 X67.655 Y194.803 E0.19177
G1 X68.254 Y195.467 E0.02804
G1 X71.757 Y198.513 E0.14553
G1 X75.627 Y201.078 E0.14558
G1 X79.384 Y202.920 E0.13118
G1 F8640.000
G1 X76.428 Y201.471 E-0.76000
G1 E-0.04000 F2100.00000
G1 Z0.800 F10800.000
G1 X80.401 Y203.323
G1 Z0.200
G1 E0.80000 F2100.00000
G1 F1200.000
G1 X84.094 Y204.571 E0.12221
G1 X88.551 Y205.478 E0.14262
G1 X93.268 Y205.806 E0.14825
G1 X98.210 Y205.479 E0.15530
G1 X102.665 Y204.579 E0.14249
G1 X106.968 Y203.122 E0.14245
G1 X111.139 Y201.080 E0.14562
G1 X115.012 Y198.513 E0.14568
G1 X118.301 Y195.654 E0.13664
G1 F8640.000
G1 X115.817 Y197.813 E-0.76000
G1 E-0.04000 F2100.00000
G1 Z0.800 F10800.000
G1 X119.008 Y194.921
G1 Z0.200
G1 E0.80000 F2100.00000
G1 F1200.000
G1 X119.118 Y194.799 E0.00516
G1 X119.282 Y194.798 E0.00514
G1 X120.216 Y194.790 F10800.000
G1 F1200.000
G1 X125.266 Y194.746 E0.15834
G1 X125.579 Y194.688 E0.00996
G1 X126.779 Y194.198 E0.04064
G1 X127.438 Y193.706 E0.02581
G1 X128.098 Y193.031 E0.02959
G1 X128.789 Y191.866 E0.04246
G1 X129.098 Y190.603 E0.04077
G1 X129.098 Y149.546 E1.28731
G1 X128.449 Y147.623 E0.06363
G1 X127.945 Y146.985 E0.02550
G1 X126.976 Y146.115 E0.04083
G1 X126.191 Y145.705 E0.02777
G1 X125.281 Y145.434 E0.02976
G1 X120.203 Y145.392 E0.15924
G1 X119.269 Y145.384 F10800.000
G1 F1200.000
G1 X119.114 Y145.383 E0.00484
G1 X119.010 Y145.268 E0.00487
G1 F8640.000
G1 X119.114 Y145.383 E-0.03584
G1 X119.269 Y145.384 E-0.03566
G1 E-0.72850 F2100.00000
G1 Z0.800 F10800.000
G1 X118.305 Y144.536
G1 Z0.200
G1 E0.80000 F2100.00000
G1 F1200.000
G1 X114.992 Y141.658 E0.13761
G1 X111.142 Y139.108 E0.14478
G1 X106.991 Y137.074 E0.14494
G1 X102.468 Y135.554 E0.14961
G1 X98.058 Y134.687 E0.14093
G1 X93.549 Y134.380 E0.14170
G1 X88.559 Y134.707 E0.15680
G1 X84.102 Y135.607 E0.14255
G1 X79.777 Y137.074 E0.14322
G1 X77.335 Y138.271 E0.08526
G1 X77.442 Y138.638 F10800.000
G1 F1200.000
G1 X75.807 Y139.440 E0.05711
G1 X71.997 Y141.965 E0.14330
G1 X68.511 Y144.995 E0.14482
G1 X67.821 Y145.763 E0.03238
G1 X61.525 Y145.817 E0.19741
G1 X61.283 Y145.865 E0.00775
G1 X60.196 Y146.306 E0.03676
G1 X59.590 Y146.755 E0.02365
G1 X58.957 Y147.403 E0.02841
G1 X58.340 Y148.439 E0.03780
G1 X58.048 Y149.607 E0.03774
G1 X58.048 Y190.609 E1.28561
G1 X58.637 Y192.356 E0.05778
G1 X59.089 Y192.932 E0.02295
G1 X60.027 Y193.774 E0.03953
G1 X60.734 Y194.138 E0.02494
G1 X61.569 Y194.383 E0.02728
G1 X67.825 Y194.427 E0.19615
G1 X68.510 Y195.191 E0.03217
G1 X71.976 Y198.205 E0.14401
G1 X75.804 Y200.745 E0.14405
G1 X79.908 Y202.758 E0.14334
G1 X80.467 Y202.948 E0.01851
G1 F8640.000
G1 X79.908 Y202.758 E-0.13634
G1 X77.483 Y201.569 E-0.62366
G1 E-0.04000 F2100.00000
G1 Z0.800 F10800.000
G1 X81.675 Y203.356
G1 Z0.200
G1 E0.80000 F2100.00000
G1 F1200.000
G1 X84.181 Y204.204 E0.08295
G1 X88.614 Y205.106 E0.14186
G1 X93.256 Y205.429 E0.14589
G1 X98.148 Y205.107 E0.15372
G1 X102.555 Y204.218 E0.14097
G1 X106.836 Y202.769 E0.14169
G1 X110.962 Y200.747 E0.14409
G1 X114.793 Y198.206 E0.14414
G1 X117.107 Y196.193 E0.09616
G1 F8640.000
G1 X114.793 Y198.206 E-0.70815
G1 X114.606 Y198.330 E-0.05185
G1 E-0.04000 F2100.00000
G1 Z0.800 F10800.000
G1 X118.096 Y195.333
G1 Z0.200
G1 E0.80000 F2100.00000
G1 F1200.000
G1 X118.259 Y195.191 E0.00680
G1 X118.949 Y194.423 E0.03234
G1 X120.134 Y194.413 E0.03716
G1 X121.068 Y194.405 F10800.000
G1 F1200.000
G1 X125.244 Y194.369 E0.13096
G1 X125.487 Y194.321 E0.00775
G1 X126.573 Y193.881 E0.03676
G1 X127.179 Y193.431 E0.02365
G1 X127.813 Y192.783 E0.02841
G1 X128.430 Y191.747 E0.03780
G1 X128.721 Y190.580 E0.03774
G1 X128.721 Y149.577 E1.28561
G1 X128.133 Y147.831 E0.05778
G1 X127.681 Y147.255 E0.02295
G1 X126.743 Y146.413 E0.03953
G1 X126.035 Y146.049 E0.02494
G1 X125.201 Y145.803 E0.02728
G1 X121.049 Y145.774 E0.13017
G1 X120.118 Y145.767 F10800.000
G1 F1200.000
G1 X118.945 Y145.759 E0.03677
G1 X118.259 Y144.995 E0.03221
G1 X118.100 Y144.857 E0.00659
G1 F8640.000
G1 X118.259 Y144.995 E-0.04850
G1 X118.945 Y145.759 E-0.23720
G1 X120.118 Y145.767 E-0.27077
G1 E-0.24353 F2100.00000
G1 Z0.800 F10800.000
G1 X117.110 Y143.997
G1 Z0.200
G1 E0.80000 F2100.00000
G1 F1200.000
G1 X114.773 Y141.965 E0.09710
G1 X110.965 Y139.441 E0.14325
G1 X106.859 Y137.427 E0.14339
G1 X102.383 Y135.922 E0.14806
G1 X97.997 Y135.059 E0.14017
G1 X93.536 Y134.757 E0.14019
G1 X88.621 Y135.080 E0.15444
G1 X84.189 Y135.975 E0.14177
G1 X79.909 Y137.427 E0.14171
G1 X78.481 Y138.128 E0.04987
G1 X78.589 Y138.494 F10800.000
G1 F1200.000
G1 X76.005 Y139.761 E0.09023
G1 X72.216 Y142.272 E0.14253
G1 X68.768 Y145.272 E0.14329
G1 X67.991 Y146.139 E0.03650
G1 X61.546 Y146.194 E0.20209
G1 X61.408 Y146.221 E0.00442
G1 X60.361 Y146.646 E0.03542
G1 X59.849 Y147.030 E0.02008
G1 X59.267 Y147.618 E0.02593
G1 X58.698 Y148.560 E0.03450
G1 X58.425 Y149.631 E0.03464
G1 X58.425 Y190.579 E1.28390
G1 X58.954 Y192.150 E0.05197
G1 X59.354 Y192.664 E0.02043
G1 X60.223 Y193.451 E0.03675
G1 X60.859 Y193.781 E0.02245
G1 X61.650 Y194.014 E0.02586
G1 X67.994 Y194.051 E0.19892
G1 X68.767 Y194.914 E0.03632
G1 X72.194 Y197.898 E0.14249
M73 Q1 S60
G1 X75.981 Y200.412 E0.14251
G1 X80.041 Y202.405 E0.14180
G1 X81.741 Y202.981 E0.05630
M73 P1 R60
G1 F8640.000
G1 X80.041 Y202.405 E-0.41458
G1 X78.698 Y201.746 E-0.34542
G1 E-0.04000 F2100.00000
G1 Z0.800 F10800.000
G1 X82.949 Y203.389
G1 Z0.200
G1 E0.80000 F2100.00000
G1 F1200.000
G1 X84.290 Y203.843 E0.04441
G1 X88.677 Y204.734 E0.14036
G1 X93.269 Y205.052 E0.14433
G1 X98.086 Y204.735 E0.15135
G1 X102.446 Y203.857 E0.13944
G1 X106.681 Y202.425 E0.14016
G1 X110.785 Y200.414 E0.14332
G1 X114.574 Y197.898 E0.14260
G1 X115.916 Y196.731 E0.05577
G1 F8640.000
G1 X114.574 Y197.898 E-0.41071
G1 X113.314 Y198.735 E-0.34929
G1 E-0.04000 F2100.00000
G1 Z0.800 F10800.000
G1 X116.903 Y195.871
G1 Z0.200
G1 E0.80000 F2100.00000
G1 F1200.000
G1 X118.003 Y194.914 E0.04571
G1 X118.779 Y194.048 E0.03646
G1 X120.985 Y194.029 E0.06919
G1 X121.919 Y194.021 F10800.000
G1 F1200.000
G1 X125.224 Y193.993 E0.10361
G1 X125.362 Y193.965 E0.00442
G1 X126.409 Y193.540 E0.03542
G1 X126.921 Y193.156 E0.02008
G1 X127.502 Y192.568 E0.02593
G1 X128.072 Y191.626 E0.03450
G1 X128.344 Y190.556 E0.03464
G1 X128.344 Y149.608 E1.28390
G1 X127.816 Y148.037 E0.05197
G1 X127.415 Y147.522 E0.02043
G1 X126.546 Y146.736 E0.03675
G1 X125.911 Y146.405 E0.02245
G1 X125.120 Y146.173 E0.02586
G1 X121.890 Y146.154 E0.10126
G1 X120.961 Y146.148 F10800.000
G1 F1200.000
G1 X118.776 Y146.135 E0.06854
G1 X118.002 Y145.272 E0.03635
G1 X116.906 Y144.319 E0.04553
G1 F8640.000
G1 X118.002 Y145.272 E-0.33529
G1 X118.776 Y146.135 E-0.26772
G1 X119.455 Y146.139 E-0.15699
G1 E-0.04000 F2100.00000
G1 Z0.800 F10800.000
G1 X115.918 Y143.459
G1 Z0.200
G1 E0.80000 F2100.00000
G1 F1200.000
G1 X114.554 Y142.273 E0.05668
G1 X110.788 Y139.774 E0.14171
G1 X106.727 Y137.781 E0.14184
G1 X102.299 Y136.290 E0.14651
G1 X97.936 Y135.432 E0.13940
G1 X93.523 Y135.134 E0.13867
G1 X88.683 Y135.452 E0.15208
G1 X84.299 Y136.336 E0.14025
G1 X80.064 Y137.771 E0.14019
G1 X79.629 Y137.985 E0.01518
G1 X79.739 Y138.351 F10800.000
G1 F1200.000
G1 X76.182 Y140.094 E0.12419
G1 X72.435 Y142.580 E0.14099
G1 X69.024 Y145.548 E0.14176
G1 X68.161 Y146.514 E0.04062
G1 X61.533 Y146.577 E0.20784
G1 X60.527 Y146.986 E0.03404
G1 X60.106 Y147.306 E0.01656
G1 X59.576 Y147.836 E0.02350
G1 X59.055 Y148.683 E0.03119
G1 X58.803 Y149.655 E0.03149
G1 X58.803 Y190.548 E1.28217
G1 X59.272 Y191.945 E0.04619
G1 X59.622 Y192.397 E0.01793
G1 X60.421 Y193.129 E0.03398
G1 X60.983 Y193.425 E0.01992
G1 X61.731 Y193.645 E0.02442
G1 X68.164 Y193.675 E0.20170
G1 X69.023 Y194.638 E0.04048
G1 X72.413 Y197.591 E0.14096
G1 X76.158 Y200.079 E0.14098
G1 X80.173 Y202.052 E0.14026
G1 X83.012 Y203.014 E0.09397
G1 F8640.000
G1 X80.173 Y202.052 E-0.69203
G1 X79.909 Y201.922 E-0.06797
G1 E-0.04000 F2100.00000
G1 Z0.800 F10800.000
G1 X84.218 Y203.422
G1 Z0.200
G1 E0.80000 F2100.00000
G1 F1200.000
G1 X84.377 Y203.476 E0.00527
G1 X88.740 Y204.362 E0.13959
G1 X93.283 Y204.675 E0.14277
G1 X98.024 Y204.363 E0.14899
G1 X102.337 Y203.496 E0.13792
G1 X106.526 Y202.081 E0.13864
G1 X110.587 Y200.093 E0.14178
G1 X114.356 Y197.591 E0.14182
G1 X114.728 Y197.267 E0.01547
G1 F8640.000
G1 X114.356 Y197.591 E-0.11394
G1 X112.025 Y199.139 E-0.64606
G1 E-0.04000 F2100.00000
G1 Z0.800 F10800.000
G1 X115.713 Y196.408
G1 Z0.200
G1 E0.80000 F2100.00000
G1 F1200.000
G1 X117.746 Y194.638 E0.08453
G1 X118.608 Y193.672 E0.04059
G1 X121.837 Y193.644 E0.10123
G1 X122.771 Y193.636 F10800.000
G1 F1200.000
G1 X125.203 Y193.616 E0.07626
G1 X126.243 Y193.201 E0.03511
G1 X126.663 Y192.881 E0.01656
G1 X127.193 Y192.351 E0.02350
G1 X127.714 Y191.503 E0.03119
G1 X127.967 Y190.531 E0.03149
G1 X127.967 Y149.638 E1.28217
G1 X127.498 Y148.242 E0.04619
G1 X127.148 Y147.789 E0.01793
G1 X126.349 Y147.058 E0.03398
G1 X125.786 Y146.762 E0.01992
G1 X125.039 Y146.542 E0.02442
G1 X122.727 Y146.531 E0.07249
G1 X121.800 Y146.527 F10800.000
G1 F1200.000
G1 X118.606 Y146.512 E0.10016
G1 X117.745 Y145.548 E0.04051
G1 X115.716 Y143.781 E0.08437
G1 F8640.000
G1 X117.745 Y145.548 E-0.62136
G1 X118.145 Y145.996 E-0.13864
G1 E-0.04000 F2100.00000
G1 Z0.800 F10800.000
G1 X114.729 Y142.922
G1 Z0.200
G1 E0.80000 F2100.00000
G1 F1200.000
G1 X114.336 Y142.580 E0.01635
G1 X110.611 Y140.107 E0.14018
G1 X106.595 Y138.134 E0.14029
G1 X102.214 Y136.657 E0.14497
G1 X97.899 Y135.807 E0.13789
G1 X93.511 Y135.511 E0.13790
G1 X88.745 Y135.824 E0.14973
G1 X84.408 Y136.697 E0.13872
G1 X81.175 Y137.792 E0.10701
G1 X81.258 Y138.161 F10800.000
G1 F1200.000
G1 X80.352 Y138.469 E0.03001
G1 X76.359 Y140.427 E0.13944
G1 X72.653 Y142.887 E0.13946
G1 X69.281 Y145.825 E0.14023
G1 X68.332 Y146.890 E0.04474
G1 X61.623 Y146.947 E0.21037
G1 X60.733 Y147.302 E0.03003
G1 X60.364 Y147.582 E0.01453
G1 X59.858 Y148.087 E0.02241
G1 X59.412 Y148.808 E0.02658
G1 X59.180 Y149.680 E0.02831
G1 X59.180 Y190.518 E1.28042
G1 X59.590 Y191.741 E0.04045
G1 X59.890 Y192.132 E0.01546
G1 X60.621 Y192.808 E0.03121
G1 X61.109 Y193.069 E0.01734
G1 X61.811 Y193.275 E0.02296
G1 X68.333 Y193.298 E0.20449
G1 X69.280 Y194.361 E0.04464
G1 X72.633 Y197.283 E0.13943
G1 X76.336 Y199.746 E0.13945
G1 X80.306 Y201.699 E0.13872
G1 X84.285 Y203.047 E0.13171
G1 F8640.000
G1 X81.167 Y201.990 E-0.76000
G1 E-0.04000 F2100.00000
G1 Z0.800 F10800.000
G1 X86.263 Y203.475
G1 Z0.200
G1 E0.80000 F2100.00000
G1 F1200.000
G1 X88.803 Y203.990 E0.08124
G1 X93.296 Y204.298 E0.14121
G1 X97.962 Y203.990 E0.14662
G1 X102.251 Y203.129 E0.13715
G1 X106.394 Y201.728 E0.13712
G1 X110.410 Y199.760 E0.14024
G1 X112.964 Y198.063 E0.09613
G1 F8640.000
G1 X110.410 Y199.760 E-0.70791
G1 X110.208 Y199.859 E-0.05209
G1 E-0.04000 F2100.00000
G1 Z0.800 F10800.000
G1 X114.526 Y196.944
G1 Z0.200
G1 E0.80000 F2100.00000
G1 F1200.000
G1 X117.489 Y194.361 E0.12324
G1 X118.438 Y193.296 E0.04471
G1 X122.688 Y193.260 E0.13328
G1 X123.623 Y193.252 F10800.000
G1 F1200.000
G1 X125.147 Y193.239 E0.04780
G1 X126.036 Y192.884 E0.03003
G1 X126.406 Y192.605 E0.01453
G1 X126.911 Y192.099 E0.02241
G1 X127.357 Y191.379 E0.02658
G1 X127.590 Y190.506 E0.02831
G1 X127.590 Y149.669 E1.28042
G1 X127.179 Y148.446 E0.04045
G1 X126.880 Y148.054 E0.01546
G1 X126.149 Y147.378 E0.03121
G1 X125.661 Y147.118 E0.01734
G1 X124.958 Y146.911 E0.02296
G1 X123.559 Y146.906 E0.04389
G1 X122.635 Y146.903 F10800.000
G1 F1200.000
G1 X118.436 Y146.888 E0.13163
G1 X117.489 Y145.825 E0.04467
G1 X114.528 Y143.245 E0.12312
