; generated by PrusaSlicer 2.2.0+win64 on 2022-01-15 at 02:08:08 UTC

; 

; external perimeters extrusion width = 0.60mm
; perimeters extrusion width = 0.50mm
; infill extrusion width = 0.50mm
; solid infill extrusion width = 0.50mm
; top infill extrusion width = 0.45mm
; first layer extrusion width = 0.42mm

M73 P0 R87
M73 Q0 S87
M201 X1000 Y1000 Z200 E5000 ; sets maximum accelerations, mm/sec^2
M203 X200 Y200 Z12 E120 ; sets maximum feedrates, mm/sec
M204 P1250 R1250 T1250 ; sets acceleration (P, T) and retract acceleration (R), mm/sec^2
M205 X8.00 Y8.00 Z0.40 E4.50 ; sets the jerk limits, mm/sec
M205 S0 T0 ; sets the minimum extruding and travel feed rate, mm/sec
M107
M862.3 P "MK3S" ; printer model check
M862.1 P0.4 ; nozzle diameter check
M115 U3.10.0 ; tell printer latest fw version
G90 ; use absolute coordinates
M83 ; extruder relative mode
M104 S215 ; set extruder temp
M140 S60 ; set bed temp
M190 S60 ; wait for bed temp
M109 S215 ; wait for extruder temp
G28 W ; home all without mesh bed level
G80 ; mesh bed leveling
G1 Y-3.0 F1000.0 ; go outside print area
G92 E0.0
G1 X60.0 E9.0 F1000.0 ; intro line
M73 Q0 S86
M73 P0 R86
G1 X100.0 E12.5 F1000.0 ; intro line
G92 E0.0
M221 S95

; Don't change E values below. Excessive value can damage the printer.

M907 E538 ; set extruder motor current
G21 ; set units to millimeters
G90 ; use absolute coordinates
M83 ; use relative distances for extrusion
M900 K0.05 ; Filament gcode LA 1.5
M900 K30 ; Filament gcode LA 1.0
;BEFORE_LAYER_CHANGE
G92 E0.0
;0.2


G1 Z0.200 F10800.000
;AFTER_LAYER_CHANGE
;0.2
G1 E-0.80000 F2100.00000
G1 Z0.600 F10800.000
G1 X150.920 Y73.896
G1 Z0.200
G1 E0.80000 F2100.00000
M204 S1000
G1 F1200.000
G1 X151.642 Y72.569 E0.04736
G1 X153.196 Y70.100 E0.09150
G1 X155.046 Y67.650 E0.09625
G1 X157.097 Y65.376 E0.09601
G1 X159.314 Y63.310 E0.09503
G1 X161.610 Y61.508 E0.09150
G1 X162.857 Y60.650 E0.04748
G1 X165.491 Y59.080 E0.09613
G1 X168.248 Y57.747 E0.09601
G1 X169.658 Y57.176 E0.04769
G1 X172.426 Y56.252 E0.09150
G1 X175.402 Y55.533 E0.09601
G1 X178.437 Y55.075 E0.09625
G1 X179.946 Y54.947 E0.04748
G1 X182.584 Y54.884 E0.08273
G1 X185.972 Y55.084 E0.10641
G1 X188.872 Y55.523 E0.09195
G1 X190.385 Y55.851 E0.04855
G1 X193.349 Y56.703 E0.09670
G1 X196.075 Y57.745 E0.09150
G1 X197.484 Y58.388 E0.04855
G1 X200.204 Y59.855 E0.09691
G1 X202.644 Y61.454 E0.09148
G1 X203.892 Y62.390 E0.04890
G1 X206.220 Y64.389 E0.09622
G1 X208.266 Y66.473 E0.09157
G1 X209.259 Y67.621 E0.04759
G1 X210.252 Y68.878 E0.05021
G1 X211.928 Y71.306 E0.09253
G1 X225.778 Y93.095 E0.80949
G1 X227.255 Y95.707 E0.09409
G1 X228.459 Y98.336 E0.09065
G1 X229.007 Y99.768 E0.04808
G1 X229.493 Y101.228 E0.04826
G1 X230.221 Y103.994 E0.08967
G1 X230.746 Y107.021 E0.09633
G1 X230.992 Y109.880 E0.08996
G1 X231.026 Y111.432 E0.04868
G1 X230.903 Y114.324 E0.09077
G1 X230.740 Y115.849 E0.04808
G1 X230.509 Y117.365 E0.04808
G1 X229.899 Y120.168 E0.08994
G1 X228.991 Y123.097 E0.09614
G1 X227.911 Y125.754 E0.08994
G1 X227.248 Y127.128 E0.04784
G1 X225.779 Y129.724 E0.09352
G1 X211.943 Y151.491 E0.80868
G1 X210.259 Y153.935 E0.09307
G1 X208.369 Y156.234 E0.09332
G1 X206.211 Y158.441 E0.09678
G1 X204.008 Y160.339 E0.09117
G1 X202.770 Y161.277 E0.04870
G1 X200.215 Y162.959 E0.09591
G1 X197.662 Y164.346 E0.09109
G1 X196.253 Y164.999 E0.04870
G1 X193.400 Y166.101 E0.09591
G1 X190.611 Y166.915 E0.09109
G1 X189.095 Y167.255 E0.04870
G1 X186.073 Y167.726 E0.09591
G1 X183.175 Y167.929 E0.09109
G1 X181.637 Y167.940 E0.04822
G1 X178.666 Y167.769 E0.09332
G1 X177.074 Y167.574 E0.05026
G1 X174.173 Y167.024 E0.09259
G1 X171.324 Y166.232 E0.09272
G1 X169.811 Y165.703 E0.05025
G1 X167.088 Y164.549 E0.09272
G1 X164.469 Y163.168 E0.09284
G1 X163.105 Y162.333 E0.05013
G1 X160.689 Y160.628 E0.09272
G1 X158.425 Y158.725 E0.09272
G1 X157.268 Y157.617 E0.05025
G1 X155.268 Y155.438 E0.09272
G1 X153.457 Y153.095 E0.09284
G1 X152.562 Y151.767 E0.05021
G1 X151.071 Y149.216 E0.09264
G1 X149.795 Y146.536 E0.09308
G1 X148.726 Y143.685 E0.09547
G1 X147.916 Y140.789 E0.09427
G1 X147.356 Y137.835 E0.09428
G1 X147.049 Y134.821 E0.09499
G1 X146.995 Y133.308 E0.04747
G1 X146.990 Y89.922 E1.36032
G1 X147.134 Y86.866 E0.09595
G1 X147.304 Y85.365 E0.04736
G1 X147.812 Y82.491 E0.09150
G1 X148.602 Y79.525 E0.09625
G1 X149.630 Y76.681 E0.09482
G1 X150.894 Y73.950 E0.09434
G1 F8640.000
G1 X151.642 Y72.569 E-0.36259
G1 X152.559 Y71.113 E-0.39741
G1 E-0.04000 F2100.00000
G1 Z0.600 F10800.000
G1 X182.955 Y53.576
G1 Z0.200
G1 E0.80000 F2100.00000
G1 F1200.000
G1 X184.569 Y53.647 E0.05067
G1 X186.080 Y53.778 E0.04754
G1 X187.576 Y53.971 E0.04730
G1 X189.136 Y54.240 E0.04963
G1 X190.684 Y54.576 E0.04969
G1 X192.271 Y54.995 E0.05146
G1 X193.712 Y55.443 E0.04730
G1 X195.140 Y55.953 E0.04754
G1 X196.614 Y56.551 E0.04990
G1 X198.055 Y57.210 E0.04969
G1 X199.504 Y57.951 E0.05100
G1 X200.823 Y58.700 E0.04755
G1 X202.109 Y59.502 E0.04755
G1 X203.416 Y60.396 E0.04962
G1 X204.683 Y61.346 E0.04967
G1 X205.907 Y62.350 E0.04963
G1 X207.086 Y63.406 E0.04962
G1 X208.214 Y64.507 E0.04944
G1 X209.326 Y65.694 E0.05099
G1 X210.526 Y67.110 E0.05820
G1 X211.299 Y68.091 E0.03916
G1 X212.192 Y69.328 E0.04783
G1 X213.071 Y70.664 E0.05014
G1 X213.866 Y71.994 E0.04858
G1 X214.605 Y73.357 E0.04862
G1 X215.306 Y74.796 E0.05019
G1 X215.927 Y76.225 E0.04887
G1 X216.487 Y77.679 E0.04883
G1 X216.807 Y78.629 E0.03145
G1 F8640.000
G1 X216.487 Y77.679 E-0.23159
G1 X215.927 Y76.225 E-0.35962
G1 X215.636 Y75.555 E-0.16879
G1 E-0.04000 F2100.00000
G1 Z0.600 F10800.000
G1 X217.227 Y79.994
G1 Z0.200
G1 E0.80000 F2100.00000
G1 F1200.000
G1 X217.979 Y82.712 E0.08844
G1 X218.705 Y83.256 E0.02845
G1 X219.966 Y84.303 E0.05136
G1 F8640.000
G1 X218.705 Y83.256 E-0.37826
G1 X217.979 Y82.712 E-0.20950
G1 X217.780 Y81.993 E-0.17224
G1 E-0.04000 F2100.00000
G1 Z0.600 F10800.000
G1 X221.014 Y85.249
G1 Z0.200
G1 E0.80000 F2100.00000
G1 F1200.000
G1 X222.139 Y86.351 E0.04940
G1 X223.202 Y87.490 E0.04883
G1 X224.183 Y88.634 E0.04726
G1 X225.144 Y89.858 E0.04879
G1 X226.076 Y91.158 E0.05016
G1 X226.922 Y92.456 E0.04857
G1 X227.703 Y93.774 E0.04803
G1 X228.431 Y95.130 E0.04825
G1 X229.079 Y96.471 E0.04671
G1 X229.671 Y97.839 E0.04674
G1 X230.250 Y99.355 E0.05088
G1 X230.722 Y100.772 E0.04682
G1 X231.138 Y102.218 E0.04718
G1 X231.502 Y103.721 E0.04849
G1 X231.807 Y105.275 E0.04967
G1 X232.044 Y106.847 E0.04985
G1 X232.203 Y108.329 E0.04673
G1 X232.300 Y109.817 E0.04673
G1 X232.335 Y111.457 E0.05143
G1 X232.300 Y112.996 E0.04828
G1 X232.204 Y114.483 E0.04672
G1 X232.045 Y115.965 E0.04673
G1 X231.809 Y117.538 E0.04987
G1 X231.500 Y119.108 E0.05016
G1 X231.138 Y120.604 E0.04828
G1 X230.722 Y122.052 E0.04724
G1 X230.247 Y123.474 E0.04700
G1 X229.677 Y124.966 E0.05007
G1 X229.083 Y126.341 E0.04700
G1 X228.431 Y127.691 E0.04701
G1 X227.674 Y129.100 E0.05012
G1 X226.882 Y130.430 E0.04853
G1 X226.057 Y131.690 E0.04722
G1 X225.180 Y132.915 E0.04725
G1 X224.211 Y134.153 E0.04931
G1 X223.203 Y135.331 E0.04859
G1 X222.140 Y136.470 E0.04885
G1 X221.014 Y137.572 E0.04941
G1 F8640.000
G1 X222.140 Y136.470 E-0.36388
G1 X223.203 Y135.331 E-0.35977
G1 X223.305 Y135.211 E-0.03635
G1 E-0.04000 F2100.00000
G1 Z0.600 F10800.000
G1 X219.965 Y138.519
G1 Z0.200
G1 E0.80000 F2100.00000
G1 F1200.000
G1 X218.715 Y139.557 E0.05093
G1 X217.981 Y140.109 E0.02881
G1 X217.228 Y142.826 E0.08839
G1 F8640.000
G1 X217.981 Y140.109 E-0.65091
G1 X218.358 Y139.825 E-0.10909
G1 E-0.04000 F2100.00000
G1 Z0.600 F10800.000
G1 X216.806 Y144.192
G1 Z0.200
G1 E0.80000 F2100.00000
G1 F1200.000
G1 X216.494 Y145.121 E0.03074
G1 X215.916 Y146.622 E0.05044
G1 X215.304 Y148.030 E0.04813
G1 X214.636 Y149.404 E0.04790
G1 X213.850 Y150.856 E0.05176
G1 X213.074 Y152.152 E0.04738
G1 X212.236 Y153.428 E0.04787
G1 X211.276 Y154.760 E0.05148
G1 X210.534 Y155.701 E0.03757
G1 X209.376 Y157.072 E0.05626
G1 X208.271 Y158.255 E0.05075
G1 X207.108 Y159.395 E0.05105
G1 X205.941 Y160.441 E0.04915
G1 X204.776 Y161.401 E0.04733
G1 X203.579 Y162.308 E0.04708
G1 X202.512 Y163.045 E0.04067
G1 X201.001 Y164.014 E0.05628
G1 X199.627 Y164.803 E0.04968
G1 X198.234 Y165.524 E0.04920
G1 X196.818 Y166.181 E0.04894
G1 X195.285 Y166.813 E0.05199
G1 X193.918 Y167.308 E0.04559
G1 X192.759 Y167.676 E0.03812
G1 X190.953 Y168.179 E0.05878
G1 X189.389 Y168.531 E0.05025
G1 X187.812 Y168.814 E0.05026
G1 X186.224 Y169.027 E0.05023
G1 X184.663 Y169.168 E0.04915
G1 X183.154 Y169.240 E0.04734
G1 X181.645 Y169.250 E0.04733
G1 X180.096 Y169.195 E0.04859
G1 X178.881 Y169.100 E0.03821
G1 X176.895 Y168.871 E0.06268
G1 X175.411 Y168.623 E0.04717
G1 X173.926 Y168.311 E0.04760
G1 X172.310 Y167.897 E0.05229
G1 X170.857 Y167.457 E0.04761
G1 X169.424 Y166.957 E0.04760
G1 X168.242 Y166.486 E0.03989
G1 X166.598 Y165.765 E0.05629
G1 X165.090 Y165.011 E0.05286
G1 X163.733 Y164.255 E0.04869
G1 X162.404 Y163.439 E0.04890
G1 X161.139 Y162.586 E0.04785
G1 X159.917 Y161.686 E0.04759
G1 X158.920 Y160.883 E0.04014
G1 X157.562 Y159.710 E0.05627
G1 X156.415 Y158.616 E0.04968
G1 X155.333 Y157.491 E0.04895
G1 X154.252 Y156.264 E0.05127
G1 X153.283 Y155.062 E0.04839
G1 X152.381 Y153.841 E0.04761
G1 X151.664 Y152.780 E0.04015
G1 X150.702 Y151.242 E0.05689
G1 X149.900 Y149.801 E0.05172
G1 X149.208 Y148.421 E0.04839
G1 X148.585 Y147.036 E0.04761
G1 X148.006 Y145.588 E0.04890
G1 X147.487 Y144.108 E0.04918
G1 X147.120 Y142.896 E0.03972
G1 X146.636 Y141.067 E0.05932
G1 X146.315 Y139.545 E0.04875
G1 X146.057 Y137.999 E0.04915
G1 X145.866 Y136.452 E0.04890
G1 X145.742 Y134.894 E0.04900
G1 X145.675 Y133.347 E0.04853
G1 X145.700 Y99.692 E1.05524
G1 X145.680 Y89.923 E0.30630
G1 X145.721 Y88.332 E0.04990
G1 X145.830 Y86.745 E0.04988
G1 X145.998 Y85.246 E0.04729
G1 X146.229 Y83.748 E0.04753
G1 X146.534 Y82.204 E0.04936
G1 X146.915 Y80.640 E0.05047
G1 X147.369 Y79.081 E0.05091
G1 X147.836 Y77.697 E0.04578
G1 X148.273 Y76.557 E0.03829
G1 X149.010 Y74.824 E0.05904
G1 X149.710 Y73.384 E0.05021
G1 X150.469 Y71.983 E0.04995
G1 X151.292 Y70.610 E0.05020
G1 X152.174 Y69.275 E0.05018
G1 X153.094 Y68.006 E0.04914
G1 X154.072 Y66.772 E0.04936
G1 X155.059 Y65.631 E0.04730
G1 X156.096 Y64.526 E0.04753
G1 X157.215 Y63.432 E0.04908
G1 X158.400 Y62.368 E0.04992
G1 X159.631 Y61.358 E0.04993
G1 X160.905 Y60.402 E0.04993
G1 X162.219 Y59.503 E0.04992
G1 X163.549 Y58.674 E0.04914
G1 X164.920 Y57.900 E0.04936
G1 X166.271 Y57.211 E0.04755
G1 X167.649 Y56.579 E0.04755
G1 X169.114 Y55.981 E0.04961
G1 X170.621 Y55.442 E0.05019
G1 X172.149 Y54.969 E0.05015
G1 X173.616 Y54.583 E0.04756
G1 X175.106 Y54.257 E0.04781
G1 X176.657 Y53.986 E0.04937
G1 X178.227 Y53.781 E0.04965
G1 X179.797 Y53.645 E0.04939
G1 X181.379 Y53.576 E0.04965
G1 X182.955 Y53.576 E0.04942
G1 X182.942 Y53.953 F10800.000
G1 F1200.000
G1 X184.541 Y54.023 E0.05016
G1 X186.035 Y54.153 E0.04705
G1 X187.524 Y54.345 E0.04705
G1 X189.068 Y54.611 E0.04912
G1 X190.600 Y54.944 E0.04917
G1 X192.163 Y55.357 E0.05069
G1 X193.589 Y55.800 E0.04680
G1 X195.009 Y56.307 E0.04729
G1 X196.469 Y56.899 E0.04939
G1 X197.895 Y57.551 E0.04917
G1 X199.321 Y58.281 E0.05023
G1 X200.633 Y59.026 E0.04730
G1 X201.906 Y59.820 E0.04705
G1 X203.199 Y60.705 E0.04912
G1 X204.453 Y61.645 E0.04915
G1 X205.664 Y62.639 E0.04912
G1 X206.825 Y63.678 E0.04885
G1 X207.942 Y64.768 E0.04892
G1 X209.042 Y65.941 E0.05041
G1 X210.232 Y67.346 E0.05774
G1 X210.996 Y68.315 E0.03868
G1 X211.879 Y69.539 E0.04732
G1 X212.749 Y70.861 E0.04963
G1 X213.537 Y72.177 E0.04807
G1 X214.268 Y73.526 E0.04811
G1 X214.962 Y74.950 E0.04968
G1 X215.577 Y76.365 E0.04836
G1 X215.899 Y77.201 E0.02812
G1 F8640.000
G1 X215.577 Y76.365 E-0.20706
G1 X214.962 Y74.950 E-0.35616
G1 X214.588 Y74.184 E-0.19678
G1 E-0.04000 F2100.00000
G1 Z0.600 F10800.000
G1 X216.464 Y78.794
G1 Z0.200
G1 E0.80000 F2100.00000
G1 F1200.000
G1 X216.622 Y79.263 E0.01553
G1 X217.039 Y80.698 E0.04686
G1 X217.650 Y82.937 E0.07274
G1 X218.469 Y83.550 E0.03208
G1 X219.666 Y84.540 E0.04872
G1 X220.723 Y85.494 E0.04464
G1 F8640.000
G1 X219.666 Y84.540 E-0.32877
G1 X218.469 Y83.550 E-0.35876
G1 X218.217 Y83.362 E-0.07247
G1 E-0.04000 F2100.00000
G1 Z0.600 F10800.000
G1 X221.910 Y86.658
G1 Z0.200
G1 E0.80000 F2100.00000
G1 F1200.000
G1 X222.924 Y87.744 E0.04660
G1 X223.894 Y88.877 E0.04676
G1 X224.840 Y90.081 E0.04803
G1 X225.763 Y91.368 E0.04964
G1 X226.600 Y92.652 E0.04806
G1 X227.373 Y93.955 E0.04752
G1 X228.093 Y95.297 E0.04775
G1 X228.734 Y96.625 E0.04622
G1 X229.323 Y97.985 E0.04649
G1 X229.894 Y99.478 E0.05011
G1 X230.363 Y100.887 E0.04656
G1 X230.775 Y102.318 E0.04668
G1 X231.135 Y103.806 E0.04799
G1 X231.436 Y105.344 E0.04915
G1 X231.670 Y106.892 E0.04908
G1 X231.828 Y108.365 E0.04648
G1 X231.923 Y109.837 E0.04624
G1 X231.958 Y111.452 E0.05066
G1 X231.924 Y112.976 E0.04778
G1 X231.828 Y114.447 E0.04623
G1 X231.671 Y115.921 E0.04648
G1 X231.436 Y117.477 E0.04936
G1 X231.133 Y119.023 E0.04938
G1 X230.774 Y120.504 E0.04778
G1 X230.363 Y121.936 E0.04674
G1 X229.891 Y123.351 E0.04674
G1 X229.330 Y124.820 E0.04930
G1 X228.738 Y126.188 E0.04674
G1 X228.093 Y127.524 E0.04651
G1 X227.344 Y128.917 E0.04961
G1 X226.564 Y130.227 E0.04777
G1 X225.748 Y131.474 E0.04673
G1 X224.876 Y132.692 E0.04699
G1 X223.921 Y133.911 E0.04854
G1 X222.924 Y135.076 E0.04808
G1 X221.909 Y136.164 E0.04664
G1 F8640.000
G1 X222.924 Y135.076 E-0.34348
G1 X223.921 Y133.911 E-0.35408
G1 X224.088 Y133.698 E-0.06244
G1 E-0.04000 F2100.00000
G1 Z0.600 F10800.000
G1 X220.723 Y137.327
G1 Z0.200
G1 E0.80000 F2100.00000
G1 F1200.000
G1 X219.673 Y138.275 E0.04435
G1 X218.478 Y139.263 E0.04861
G1 X217.651 Y139.885 E0.03244
G1 X217.038 Y142.125 E0.07280
G1 X216.632 Y143.528 E0.04580
G1 X216.464 Y144.028 E0.01654
G1 F8640.000
G1 X216.632 Y143.528 E-0.12179
G1 X217.038 Y142.125 E-0.33727
G1 X217.382 Y140.868 E-0.30095
G1 E-0.04000 F2100.00000
G1 Z0.600 F10800.000
G1 X215.898 Y145.620
G1 Z0.200
G1 E0.80000 F2100.00000
G1 F1200.000
G1 X215.569 Y146.476 E0.02873
G1 X214.963 Y147.869 E0.04763
G1 X214.298 Y149.235 E0.04765
G1 X213.524 Y150.666 E0.05099
G1 X212.752 Y151.955 E0.04712
G1 X211.923 Y153.218 E0.04737
G1 X210.977 Y154.530 E0.05071
G1 X210.244 Y155.460 E0.03715
G1 X209.091 Y156.825 E0.05601
G1 X207.999 Y157.995 E0.05018
G1 X206.853 Y159.117 E0.05027
G1 X205.699 Y160.153 E0.04865
G1 X204.546 Y161.103 E0.04684
G1 X203.355 Y162.004 E0.04683
G1 X202.306 Y162.730 E0.03998
G1 X200.802 Y163.694 E0.05603
G1 X199.443 Y164.474 E0.04912
G1 X198.064 Y165.187 E0.04869
G1 X196.663 Y165.838 E0.04843
G1 X195.152 Y166.460 E0.05122
G1 X193.793 Y166.953 E0.04534
G1 X192.648 Y167.315 E0.03765
G1 X190.857 Y167.814 E0.05832
G1 X189.311 Y168.162 E0.04968
G1 X187.757 Y168.441 E0.04949
G1 X186.186 Y168.652 E0.04972
G1 X184.641 Y168.791 E0.04864
G1 X183.140 Y168.863 E0.04709
G1 X181.647 Y168.873 E0.04684
G1 X180.113 Y168.818 E0.04810
G1 X178.914 Y168.725 E0.03772
G1 X176.953 Y168.498 E0.06191
G1 X175.485 Y168.253 E0.04665
G1 X174.007 Y167.943 E0.04735
G1 X172.416 Y167.535 E0.05151
G1 X170.970 Y167.097 E0.04736
G1 X169.552 Y166.602 E0.04710
G1 X168.390 Y166.140 E0.03920
G1 X166.753 Y165.422 E0.05604
G1 X165.269 Y164.680 E0.05202
G1 X163.927 Y163.932 E0.04818
G1 X162.605 Y163.120 E0.04864
G1 X161.353 Y162.276 E0.04735
G1 X160.144 Y161.384 E0.04710
G1 X159.164 Y160.595 E0.03946
G1 X157.812 Y159.427 E0.05602
G1 X156.678 Y158.346 E0.04911
G1 X155.608 Y157.233 E0.04844
G1 X154.538 Y156.018 E0.05076
G1 X153.584 Y154.835 E0.04763
G1 X152.686 Y153.620 E0.04736
G1 X151.982 Y152.577 E0.03946
G1 X151.030 Y151.054 E0.05634
G1 X150.231 Y149.621 E0.05144
G1 X149.550 Y148.263 E0.04763
G1 X148.934 Y146.893 E0.04711
G1 X148.358 Y145.452 E0.04865
G1 X147.844 Y143.987 E0.04867
G1 X147.483 Y142.796 E0.03902
G1 X147.002 Y140.975 E0.05906
G1 X146.685 Y139.472 E0.04818
G1 X146.431 Y137.949 E0.04839
G1 X146.242 Y136.417 E0.04839
G1 X146.119 Y134.874 E0.04855
G1 X146.052 Y133.343 E0.04803
G1 X146.078 Y99.692 E1.05512
G1 X146.057 Y89.925 E0.30623
G1 X146.097 Y88.354 E0.04927
G1 X146.205 Y86.783 E0.04937
G1 X146.372 Y85.292 E0.04704
G1 X146.601 Y83.809 E0.04704
G1 X146.903 Y82.281 E0.04885
G1 X147.281 Y80.733 E0.04995
G1 X147.727 Y79.197 E0.05014
