; generated by PrusaSlicer 2.2.0-alpha4+win64 on 2020-02-18 at 18:05:07 UTC

; 

; external perimeters extrusion width = 0.45mm
; perimeters extrusion width = 0.45mm
; infill extrusion width = 0.45mm
; solid infill extrusion width = 0.45mm
; top infill extrusion width = 0.40mm
; first layer extrusion width = 0.42mm

M73 P0 R108
M73 Q0 S110
M201 X1000 Y1000 Z1000 E5000 ; sets maximum accelerations, mm/sec^2
M203 X200 Y200 Z12 E120 ; sets maximum feedrates, mm/sec
M204 P1250 R1250 T1250 ; sets acceleration (P, T) and retract acceleration (R), mm/sec^2
M205 X8.00 Y8.00 Z0.40 E4.50 ; sets the jerk limits, mm/sec
M205 S0 T0 ; sets the minimum extruding and travel feed rate, mm/sec
M107
M862.3 P "MK3S" ; printer model check
M862.1 P0.4 ; nozzle diameter check
M115 U3.8.1 ; tell printer latest fw version
G90 ; use absolute coordinates
M83 ; extruder relative mode
M104 S215 ; set extruder temp
M140 S60 ; set bed temp
M190 S60 ; wait for bed temp
M109 S215 ; wait for extruder temp
G28 W ; home all without mesh bed level
G80 ; mesh bed leveling
G1 Y-3.0 F1000.0 ; go outside print area
G92 E0.0
G1 X60.0 E9.0 F1000.0 ; intro line
M73 Q0 S110
M73 P0 R108
G1 X100.0 E12.5 F1000.0 ; intro line
G92 E0.0
M221 S95
G21 ; set units to millimeters
G90 ; use absolute coordinates
M83 ; use relative distances for extrusion
M900 K30 ; Filament gcode
;BEFORE_LAYER_CHANGE
G92 E0.0
;0.2


G1 E-0.80000 F2100.00000
G1 Z0.600 F10800.000
;AFTER_LAYER_CHANGE
;0.2
G1 X86.517 Y44.978
G1 Z0.200
G1 E0.80000 F2100.00000
M204 S1000
G1 F1200.000
G1 X87.294 Y43.959 E0.04016
G1 X88.289 Y43.190 E0.03945
G1 X89.463 Y42.696 E0.03992
G1 X90.664 Y42.525 E0.03804
G1 X159.254 Y42.523 E2.15059
G1 X160.361 Y42.654 E0.03495
G1 X161.113 Y42.893 E0.02476
G1 X161.818 Y43.257 E0.02488
G1 X162.688 Y43.941 E0.03470
G1 X163.206 Y44.552 E0.02512
G1 X163.749 Y45.517 E0.03470
G1 X163.993 Y46.272 E0.02488
G1 X164.126 Y47.341 E0.03377
G1 X164.127 Y100.442 E1.66496
G1 X162.426 Y163.579 E1.98033
G1 X162.283 Y164.467 E0.02821
G1 X161.988 Y165.165 E0.02375
G1 X161.509 Y165.812 E0.02523
G1 X160.768 Y166.407 E0.02979
G1 X160.031 Y166.729 E0.02524
G1 X159.100 Y166.876 E0.02955
G1 X90.535 Y166.877 E2.14981
G1 X89.759 Y166.780 E0.02451
G1 X88.885 Y166.438 E0.02943
G1 X88.244 Y165.964 E0.02500
G1 X87.657 Y165.241 E0.02920
G1 X87.329 Y164.510 E0.02512
G1 X87.176 Y163.618 E0.02837
G1 X85.873 Y100.445 E1.98116
G1 X85.873 Y47.374 E1.66403
G1 X86.039 Y46.137 E0.03911
G1 X86.494 Y45.033 E0.03745
G1 F8640.000
G1 X87.294 Y43.959 E-0.30913
G1 X88.289 Y43.190 E-0.29049
G1 X88.929 Y42.920 E-0.16038
G1 E-0.04000 F2100.00000
G1 Z0.800 F10800.000
G1 X120.238 Y152.602
G1 Z0.200
G1 E0.80000 F2100.00000
G1 F1200.000
G1 X120.476 Y153.160 E0.01902
G1 X120.720 Y153.596 E0.01565
G1 X121.004 Y154.004 E0.01561
G1 X121.328 Y154.382 E0.01560
G1 X121.687 Y154.726 E0.01560
G1 X122.079 Y155.032 E0.01560
G1 X122.500 Y155.299 E0.01560
G1 X122.945 Y155.522 E0.01560
G1 X123.410 Y155.699 E0.01560
G1 X123.624 Y155.758 E0.00697
G1 X123.565 Y155.765 E0.00185
G1 X123.147 Y156.052 E0.01590
G1 X122.335 Y155.890 E0.02596
G1 X121.276 Y155.958 E0.03327
G1 X120.562 Y155.832 E0.02274
G1 X119.546 Y155.762 E0.03192
G1 X118.855 Y157.243 E0.05124
G1 X117.871 Y155.772 E0.05550
G1 X117.075 Y155.804 E0.02497
G1 X116.643 Y155.864 E0.01368
G1 X116.212 Y156.034 E0.01452
G1 X115.753 Y155.895 E0.01505
G1 X115.700 Y155.703 E0.00623
G1 X116.178 Y155.705 E0.01499
G1 X116.763 Y155.608 E0.01857
G1 X117.308 Y155.414 E0.01816
G1 X117.804 Y155.164 E0.01740
G1 X118.265 Y154.874 E0.01708
G1 X118.697 Y154.546 E0.01702
G1 X119.099 Y154.180 E0.01702
G1 X119.466 Y153.781 E0.01702
G1 X119.797 Y153.351 E0.01702
G1 X120.090 Y152.891 E0.01708
G1 X120.210 Y152.656 E0.00829
G1 F8640.000
G1 X120.476 Y153.160 E-0.13162
G1 X120.720 Y153.596 E-0.11525
G1 X121.004 Y154.004 E-0.11493
G1 X121.328 Y154.382 E-0.11490
G1 X121.687 Y154.726 E-0.11490
G1 X122.079 Y155.032 E-0.11490
G1 X122.275 Y155.156 E-0.05350
G1 E-0.04000 F2100.00000
G1 Z0.800 F10800.000
G1 X125.035 Y155.941
G1 Z0.200
G1 E0.80000 F2100.00000
G1 F1200.000
G1 X125.374 Y155.930 E0.01063
G1 X125.587 Y155.901 E0.00674
G1 X125.348 Y156.035 E0.00858
G1 X125.280 Y156.113 E0.00325
G1 X125.086 Y155.973 E0.00750
G1 F8640.000
G1 X125.374 Y155.930 E-0.06737
G1 X125.587 Y155.901 E-0.04962
G1 X125.348 Y156.035 E-0.06322
G1 X125.280 Y156.113 E-0.02394
G1 X125.086 Y155.973 E-0.05523
G1 E-0.54062 F2100.00000
G1 Z0.800 F10800.000
G1 X130.151 Y155.943
G1 Z0.200
G1 E0.80000 F2100.00000
G1 F1200.000
G1 X131.626 Y155.943 E0.04623
G1 X131.018 Y157.243 E0.04498
G1 X130.185 Y155.993 E0.04710
G1 F8640.000
G1 X131.626 Y155.943 E-0.33299
G1 X131.018 Y157.243 E-0.33126
G1 X130.788 Y156.898 E-0.09575
G1 E-0.04000 F2100.00000
G1 Z0.800 F10800.000
G1 X133.117 Y155.943
G1 Z0.200
G1 E0.80000 F2100.00000
G1 F1200.000
G1 X134.061 Y155.943 E0.02960
G1 X133.437 Y156.026 E0.01972
G1 X133.175 Y155.958 E0.00850
G1 F8640.000
G1 X134.061 Y155.943 E-0.20463
G1 X133.437 Y156.026 E-0.14524
G1 X133.175 Y155.958 E-0.06261
G1 E-0.38752 F2100.00000
G1 Z0.800 F10800.000
G1 X134.628 Y155.943
G1 Z0.200
G1 E0.80000 F2100.00000
G1 F1200.000
G1 X135.431 Y155.943 E0.02515
G1 X135.291 Y156.056 E0.00561
G1 X134.688 Y155.953 E0.01921
G1 F8640.000
G1 X135.431 Y155.943 E-0.17160
G1 X135.291 Y156.056 E-0.04130
G1 X134.688 Y155.953 E-0.14143
G1 E-0.44567 F2100.00000
G1 Z0.800 F10800.000
G1 X113.461 Y155.752
G1 Z0.200
G1 E0.80000 F2100.00000
G1 F1200.000
G1 X113.459 Y155.770 E0.00058
G1 X113.371 Y155.770 E0.00277
G1 X113.403 Y155.763 E0.00102
G1 F8640.000
G1 X113.459 Y155.770 E-0.01309
G1 X113.371 Y155.770 E-0.02038
G1 X113.403 Y155.763 E-0.00752
G1 E-0.75902 F2100.00000
G1 Z0.800 F10800.000
G1 X138.523 Y155.763
G1 Z0.200
G1 E0.80000 F2100.00000
G1 F1200.000
G1 X138.523 Y143.829 E0.37419
G1 X142.593 Y143.829 E0.12761
G1 X144.499 Y148.090 E0.14635
G1 X144.488 Y143.829 E0.13359
G1 X148.131 Y143.829 E0.11420
G1 X148.120 Y146.193 E0.07412
G1 X148.626 Y145.400 E0.02951
G1 X148.990 Y144.968 E0.01769
G1 X149.385 Y144.585 E0.01726
G1 X149.811 Y144.247 E0.01706
G1 X150.267 Y143.959 E0.01689
G1 X150.747 Y143.726 E0.01674
G1 X151.246 Y143.550 E0.01661
G1 X151.767 Y143.432 E0.01674
G1 X152.472 Y143.377 E0.02215
G1 X153.065 Y143.417 E0.01865
G1 X153.584 Y143.521 E0.01659
G1 X154.086 Y143.685 E0.01656
G1 X154.569 Y143.907 E0.01667
G1 X155.028 Y144.184 E0.01681
G1 X155.458 Y144.513 E0.01697
G1 X155.856 Y144.889 E0.01716
G1 X156.219 Y145.307 E0.01736
G1 X156.544 Y145.763 E0.01757
G1 X156.828 Y146.253 E0.01777
G1 X157.070 Y146.772 E0.01796
G1 X157.269 Y147.316 E0.01813
G1 X157.422 Y147.880 E0.01834
G1 X157.529 Y148.455 E0.01833
G1 X157.589 Y149.041 E0.01847
G1 X157.603 Y149.631 E0.01851
G1 X157.569 Y150.221 E0.01852
G1 X157.488 Y150.805 E0.01847
G1 X157.361 Y151.375 E0.01833
G1 X157.187 Y151.934 E0.01834
G1 X156.970 Y152.470 E0.01813
G1 X156.710 Y152.980 E0.01796
G1 X156.408 Y153.460 E0.01777
G1 X156.067 Y153.905 E0.01756
G1 X155.690 Y154.310 E0.01736
G1 X155.279 Y154.671 E0.01716
G1 X154.838 Y154.984 E0.01697
G1 X154.369 Y155.245 E0.01681
G1 X153.879 Y155.451 E0.01667
G1 X153.371 Y155.597 E0.01656
G1 X152.852 Y155.682 E0.01649
G1 X152.328 Y155.704 E0.01645
G1 X151.805 Y155.664 E0.01645
G1 X151.289 Y155.560 E0.01649
G1 X150.787 Y155.396 E0.01656
G1 X150.304 Y155.174 E0.01667
G1 X149.846 Y154.896 E0.01681
G1 X149.415 Y154.568 E0.01697
G1 X149.017 Y154.192 E0.01716
G1 X148.650 Y153.769 E0.01759
G1 X148.124 Y152.965 E0.03009
G1 X148.129 Y155.943 E0.09337
G1 X144.128 Y155.943 E0.12544
G1 X142.227 Y151.693 E0.14598
G1 X142.238 Y155.943 E0.13326
G1 X138.523 Y155.943 E0.11647
G1 X138.523 Y155.823 E0.00376
G1 X138.900 Y155.566 F10800.000
G1 F1200.000
G1 X138.900 Y144.206 E0.35618
G1 X142.348 Y144.206 E0.10812
G1 X144.251 Y148.460 E0.14610
G1 X144.431 Y148.933 E0.01586
G1 X144.678 Y149.884 E0.03083
G1 X145.067 Y150.752 E0.02982
G1 X145.067 Y149.853 E0.02820
G1 X144.912 Y148.911 E0.02992
G1 X144.877 Y148.420 E0.01545
G1 X144.866 Y144.206 E0.13212
G1 X147.752 Y144.206 E0.09047
G1 X147.741 Y146.539 E0.07315
G1 X147.712 Y147.029 E0.01539
G1 X147.556 Y148.461 E0.04514
G1 X147.551 Y150.362 E0.05961
G1 X147.567 Y150.829 E0.01466
G1 X147.726 Y152.266 E0.04531
G1 X147.747 Y152.756 E0.01539
G1 X147.751 Y155.566 E0.08811
G1 X144.372 Y155.566 E0.10594
G1 X142.473 Y151.319 E0.14588
G1 X142.293 Y150.847 E0.01584
G1 X142.047 Y149.896 E0.03078
G1 X141.659 Y149.031 E0.02974
G1 X141.659 Y149.928 E0.02812
G1 X141.814 Y150.868 E0.02987
G1 X141.849 Y151.358 E0.01542
G1 X141.860 Y155.566 E0.13193
G1 X138.960 Y155.566 E0.09092
G1 X138.520 Y155.692 F10800.000
G1 F8640.000
G1 X138.943 Y152.275 E-0.76000
G1 E-0.04000 F2100.00000
G1 Z0.800 F10800.000
G1 X148.170 Y152.137
G1 Z0.200
G1 E0.80000 F2100.00000
G1 F1200.000
G1 X148.045 Y151.597 E0.01737
G1 X147.971 Y151.061 E0.01698
G1 X147.860 Y150.004 E0.03333
G1 X147.848 Y149.460 E0.01707
G1 X147.879 Y148.919 E0.01698
G1 X148.000 Y147.860 E0.03342
G1 X148.091 Y147.322 E0.01711
G1 X148.161 Y147.047 E0.00888
G1 X148.256 Y146.780 E0.00890
G1 X148.493 Y146.288 E0.01711
G1 X148.929 Y145.626 E0.02486
G1 X149.266 Y145.226 E0.01641
G1 X149.634 Y144.868 E0.01607
G1 X150.030 Y144.555 E0.01583
G1 X150.451 Y144.289 E0.01561
G1 X150.892 Y144.074 E0.01541
G1 X151.351 Y143.913 E0.01524
G1 X151.824 Y143.806 E0.01520
G1 X152.474 Y143.755 E0.02044
G1 X153.015 Y143.791 E0.01701
G1 X153.488 Y143.886 E0.01511
G1 X153.948 Y144.036 E0.01518
G1 X154.392 Y144.241 E0.01532
G1 X154.815 Y144.497 E0.01550
G1 X155.214 Y144.801 E0.01572
G1 X155.584 Y145.150 E0.01595
G1 X155.922 Y145.540 E0.01620
G1 X156.226 Y145.968 E0.01645
G1 X156.493 Y146.428 E0.01669
G1 X156.722 Y146.917 E0.01692
G1 X156.909 Y147.430 E0.01712
G1 X157.054 Y147.964 E0.01736
G1 X157.155 Y148.509 E0.01736
G1 X157.213 Y149.065 E0.01752
G1 X157.225 Y149.625 E0.01757
G1 X157.193 Y150.184 E0.01757
G1 X157.116 Y150.738 E0.01752
G1 X156.996 Y151.278 E0.01736
G1 X156.832 Y151.807 E0.01736
G1 X156.627 Y152.313 E0.01712
G1 X156.381 Y152.794 E0.01692
G1 X156.098 Y153.244 E0.01669
G1 X155.779 Y153.661 E0.01645
G1 X155.427 Y154.039 E0.01620
G1 X155.045 Y154.375 E0.01595
G1 X154.636 Y154.665 E0.01572
G1 X154.204 Y154.906 E0.01550
G1 X153.753 Y155.094 E0.01532
G1 X153.288 Y155.228 E0.01518
G1 X152.814 Y155.306 E0.01508
G1 X152.335 Y155.327 E0.01503
G1 X151.857 Y155.289 E0.01503
G1 X151.385 Y155.195 E0.01508
G1 X150.925 Y155.044 E0.01518
G1 X150.481 Y154.840 E0.01532
G1 X150.058 Y154.584 E0.01550
G1 X149.660 Y154.280 E0.01572
G1 X149.290 Y153.931 E0.01595
G1 X148.950 Y153.539 E0.01628
G1 X148.512 Y152.889 E0.02456
G1 X148.380 Y152.644 E0.00874
G1 X148.193 Y152.193 E0.01531
G1 X147.780 Y152.046 F10800.000
G1 F8640.000
G1 X148.045 Y151.597 E-0.14161
G1 X147.971 Y151.061 E-0.12501
G1 X147.860 Y150.004 E-0.24544
G1 X147.848 Y149.460 E-0.12571
G1 X147.879 Y148.931 E-0.12223
G1 E-0.04000 F2100.00000
G1 Z0.800 F10800.000
G1 X152.632 Y114.530
G1 Z0.200
G1 E0.80000 F2100.00000
G1 F1200.000
G1 X152.503 Y113.236 E0.04079
G1 X152.011 Y113.236 E0.01542
G1 X152.013 Y111.335 E0.05960
G1 X153.280 Y111.355 E0.03972
G1 X153.800 Y111.421 E0.01646
G1 X154.204 Y111.544 E0.01322
G1 X155.048 Y111.544 E0.02647
G1 X155.054 Y111.563 E0.00065
G1 X156.327 Y111.282 E0.04088
G1 X156.453 Y112.485 E0.03793
G1 X156.463 Y112.916 E0.01350
G1 X156.452 Y113.345 E0.01348
G1 X156.322 Y114.603 E0.03964
G1 X155.287 Y114.287 E0.03393
G1 X154.325 Y114.287 E0.03017
G1 X154.314 Y114.250 E0.00121
G1 X153.752 Y114.250 E0.01761
G1 X152.690 Y114.516 E0.03433
G1 X152.962 Y114.059 F10800.000
G1 F1200.000
G1 X152.881 Y113.271 E0.02485
G1 X152.874 Y112.859 E0.01292
G1 X152.389 Y112.859 E0.01521
G1 X152.390 Y111.718 E0.03577
G1 X153.253 Y111.732 E0.02707
G1 X153.721 Y111.791 E0.01480
G1 X154.148 Y111.921 E0.01397
G1 X154.774 Y111.921 E0.01963
G1 X154.916 Y112.361 E0.01451
G1 X155.043 Y111.952 E0.01343
G1 X155.996 Y111.741 E0.03060
G1 X156.076 Y112.509 E0.02421
G1 X156.086 Y112.915 E0.01273
G1 X156.075 Y113.321 E0.01272
G1 X155.994 Y114.108 E0.02482
G1 X155.243 Y113.879 E0.02463
G1 X155.233 Y113.910 E0.00101
G1 X154.606 Y113.910 E0.01966
G1 X154.595 Y113.873 E0.00121
G1 X153.958 Y113.873 E0.01997
G1 X153.958 Y112.659 E0.03806
G1 X153.890 Y112.659 E0.00215
G1 X153.890 Y113.827 E0.03661
G1 X153.021 Y114.044 E0.02809
G1 X152.593 Y114.214 F10800.000
G1 F8640.000
G1 X152.881 Y113.271 E-0.18152
G1 X152.874 Y112.859 E-0.09512
G1 X152.389 Y112.859 E-0.11200
G1 X152.390 Y111.718 E-0.26341
G1 X152.857 Y111.725 E-0.10795
G1 E-0.04000 F2100.00000
G1 Z0.800 F10800.000
G1 X138.452 Y143.829
G1 Z0.200
G1 E0.80000 F2100.00000
G1 F1200.000
G1 X138.452 Y147.284 E0.10832
G1 X136.085 Y147.284 E0.07419
G1 X136.085 Y152.556 E0.16532
G1 X138.452 Y152.556 E0.07419
G1 X138.452 Y155.943 E0.10620
G1 X137.272 Y155.943 E0.03699
G1 X137.380 Y156.004 E0.00388
G1 X137.698 Y156.250 E0.01261
G1 X137.975 Y156.560 E0.01305
G1 X138.177 Y156.905 E0.01253
G1 X138.314 Y157.332 E0.01404
G1 X138.351 Y157.697 E0.01150
G1 X138.351 Y161.553 E0.12091
G1 X135.893 Y161.553 E0.07707
G1 X135.880 Y158.004 E0.11127
G1 X135.782 Y158.044 E0.00332
G1 X135.683 Y158.161 E0.00483
G1 X135.624 Y158.305 E0.00486
G1 X135.599 Y158.522 E0.00687
G1 X135.599 Y161.553 E0.09501
G1 X133.147 Y161.553 E0.07687
G1 X133.161 Y158.332 E0.10098
G1 X130.781 Y163.519 E0.17893
G1 X128.122 Y163.519 E0.08335
G1 X129.831 Y159.806 E0.12816
G1 X128.556 Y157.888 E0.07220
G1 X128.561 Y161.553 E0.11489
G1 X126.101 Y161.553 E0.07711
G1 X126.091 Y158.209 E0.10483
G1 X126.057 Y158.342 E0.00429
G1 X126.046 Y158.505 E0.00514
G1 X126.046 Y161.553 E0.09555
G1 X123.587 Y161.553 E0.07708
G1 X123.577 Y158.140 E0.10701
G1 X123.530 Y158.295 E0.00509
G1 X123.520 Y158.430 E0.00422
G1 X123.520 Y161.553 E0.09792
G1 X121.070 Y161.553 E0.07682
G1 X121.076 Y158.169 E0.10610
G1 X118.619 Y163.519 E0.18458
G1 X115.961 Y163.519 E0.08334
G1 X117.670 Y159.805 E0.12818
G1 X116.854 Y158.572 E0.04636
G1 X116.589 Y158.127 E0.01623
G1 X116.482 Y157.903 E0.00779
G1 X115.856 Y158.046 E0.02014
G1 X115.862 Y161.553 E0.10995
G1 X113.401 Y161.553 E0.07717
G1 X113.401 Y158.164 E0.10627
G1 X112.703 Y158.164 E0.02188
G1 X112.703 Y155.853 E0.07244
G1 X112.129 Y155.819 E0.01804
G1 X111.344 Y155.612 E0.02545
G1 X110.662 Y155.818 E0.02235
G1 X110.134 Y155.884 E0.01666
G1 X107.813 Y155.897 E0.07277
G1 X106.330 Y152.591 E0.11362
G1 X106.245 Y152.361 E0.00769
G1 X106.168 Y152.219 E0.00506
G1 X106.004 Y152.021 E0.00805
G1 X106.004 Y155.899 E0.12159
G1 X103.801 Y155.884 E0.06908
G1 X103.261 Y155.818 E0.01706
G1 X102.552 Y155.612 E0.02316
G1 X101.779 Y155.820 E0.02508
G1 X101.207 Y155.884 E0.01805
G1 X99.095 Y155.898 E0.06623
G1 X98.501 Y153.901 E0.06531
G1 X96.156 Y153.901 E0.07354
G1 X95.550 Y155.895 E0.06532
G1 X91.598 Y155.895 E0.12392
G1 X95.355 Y143.829 E0.39623
G1 X99.476 Y143.829 E0.12920
G1 X102.140 Y152.389 E0.28110
G1 X102.132 Y143.829 E0.26841
G1 X107.450 Y143.832 E0.16675
G1 X107.890 Y143.888 E0.01391
G1 X108.401 Y144.030 E0.01664
G1 X108.710 Y144.147 E0.01034
G1 X109.094 Y144.350 E0.01362
G1 X109.452 Y144.596 E0.01362
G1 X109.777 Y144.883 E0.01362
G1 X110.066 Y145.207 E0.01362
G1 X110.315 Y145.564 E0.01362
G1 X110.519 Y145.947 E0.01362
G1 X110.677 Y146.352 E0.01362
G1 X110.785 Y146.772 E0.01362
G1 X110.842 Y147.203 E0.01362
G1 X110.847 Y147.637 E0.01362
G1 X110.801 Y148.069 E0.01362
G1 X110.704 Y148.492 E0.01362
G1 X110.557 Y148.901 E0.01362
G1 X110.362 Y149.289 E0.01362
G1 X110.123 Y149.651 E0.01362
G1 X109.842 Y149.983 E0.01362
G1 X109.524 Y150.278 E0.01362
G1 X109.231 Y150.491 E0.01135
G1 X110.958 Y153.498 E0.10872
G1 X110.947 Y143.829 E0.30316
G1 X116.145 Y143.829 E0.16297
G1 X116.740 Y144.002 E0.01944
G1 X117.246 Y144.199 E0.01702
G1 X117.732 Y144.440 E0.01702
G1 X118.196 Y144.723 E0.01702
G1 X118.632 Y145.045 E0.01702
G1 X119.039 Y145.405 E0.01702
G1 X119.412 Y145.799 E0.01702
G1 X119.749 Y146.225 E0.01702
G1 X120.047 Y146.680 E0.01707
G1 X120.238 Y147.040 E0.01277
G1 X120.227 Y143.829 E0.10067
G1 X124.002 Y143.829 E0.11836
G1 X124.002 Y151.974 E0.25539
G1 X124.072 Y152.250 E0.00891
G1 X124.170 Y152.426 E0.00631
G1 X124.339 Y152.615 E0.00796
G1 X124.594 Y152.770 E0.00934
