; generated by PrusaSlicer 2.2.0+win64 on 2022-01-15 at 14:08:10 UTC

; 

; external perimeters extrusion width = 0.60mm
; perimeters extrusion width = 0.50mm
; infill extrusion width = 0.50mm
; solid infill extrusion width = 0.50mm
; top infill extrusion width = 0.45mm
; first layer extrusion width = 0.42mm

M73 P0 R568
M73 Q0 S593
M201 X2000 Y2000 Z1000 E5000 ; sets maximum accelerations, mm/sec^2
M203 X200 Y200 Z200 E120 ; sets maximum feedrates, mm/sec
M204 P2000 R2000 T2000 ; sets acceleration (P, T) and retract acceleration (R), mm/sec^2
M205 X8.00 Y8.00 Z0.40 E4.50 ; sets the jerk limits, mm/sec
M205 S0 T0 ; sets the minimum extruding and travel feed rate, mm/sec
M107
M862.3 P "MK3S" ; printer model check
M862.1 P0.4 ; nozzle diameter check
M115 U3.10.0 ; tell printer latest fw version
G90 ; use absolute coordinates
M83 ; extruder relative mode
M104 S225 ; set extruder temp
M140 S80 ; set bed temp
M190 S80 ; wait for bed temp
M109 S225 ; wait for extruder temp
G28 W ; home all without mesh bed level
G80 ; mesh bed leveling
G1 Y-3.0 F1000.0 ; go outside print area
G92 E0.0
G1 X60.0 E9.0 F1000.0 ; intro line
M73 Q0 S593
M73 P0 R568
G1 X100.0 E12.5 F1000.0 ; intro line
G92 E0.0
M221 S95

; Don't change E values below. Excessive value can damage the printer.

M907 E538 ; set extruder motor current
G21 ; set units to millimeters
G90 ; use absolute coordinates
M83 ; use relative distances for extrusion
M900 K0.05 ; Filament gcode LA 1.5
M900 K30 ; Filament gcode LA 1.0
;BEFORE_LAYER_CHANGE
G92 E0.0
;0.2


G1 E-0.60000 F3600.00000
G1 Z0.200 F10800.000
;AFTER_LAYER_CHANGE
;0.2
G1 X174.188 Y4.706
G1 E0.60000 F3600.00000
M204 S1000
G1 X174.953 Y5.209 E0.02872
G1 X224.426 Y54.329 E2.18589
G1 X224.760 Y54.748 E0.01680
G1 X224.991 Y55.231 E0.01680
G1 X225.122 Y55.997 E0.02437
G1 X225.470 Y153.285 E3.05040
G1 X225.410 Y153.821 E0.01692
G1 X225.231 Y154.330 E0.01692
G1 X224.783 Y154.961 E0.02426
G1 X175.674 Y204.423 E2.18541
G1 X175.246 Y204.764 E0.01716
G1 X174.754 Y204.996 E0.01704
G1 X174.003 Y205.122 E0.02390
G1 X76.715 Y205.470 E3.05040
G1 X76.179 Y205.410 E0.01692
G1 X75.670 Y205.231 E0.01692
G1 X75.039 Y204.783 E0.02426
G1 X25.577 Y155.674 E2.18541
G1 X25.238 Y155.249 E0.01704
G1 X25.004 Y154.754 E0.01716
G1 X24.878 Y154.003 E0.02390
G1 X24.530 Y56.715 E3.05040
G1 X24.590 Y56.179 E0.01692
G1 X24.769 Y55.670 E0.01692
G1 X25.217 Y55.039 E0.02426
G1 X74.326 Y5.577 E2.18541
G1 X74.748 Y5.240 E0.01692
G1 X75.235 Y5.008 E0.01692
G1 X75.997 Y4.878 E0.02426
G1 X173.292 Y4.530 E3.05064
G1 X174.129 Y4.694 E0.02672
M204 S2000
; printing object Pot_a_semi_12_pots.stl id:0 copy 0
G1 F8640.000
G1 X174.953 Y5.209 E-0.38469
G1 X175.285 Y5.539 E-0.18531
G1 E-0.03000 F3600.00000
G1 X172.881 Y7.318 F10800.000
G1 E0.60000 F3600.00000
M204 S1000
G1 X172.967 Y31.275 E0.75116
G1 X176.629 Y31.262 E0.11484
G1 X178.868 Y31.355 E0.07026
G1 X181.041 Y31.647 E0.06874
G1 X183.152 Y32.137 E0.06794
G1 X185.179 Y32.820 E0.06707
G1 X187.109 Y33.691 E0.06640
G1 X188.924 Y34.742 E0.06576
G1 X190.613 Y35.966 E0.06540
G1 X192.164 Y37.354 E0.06526
G1 X193.563 Y38.894 E0.06526
G1 X194.799 Y40.574 E0.06538
G1 X195.863 Y42.382 E0.06579
G1 X196.748 Y44.306 E0.06640
G1 X197.445 Y46.329 E0.06707
G1 X197.950 Y48.436 E0.06794
G1 X198.258 Y50.608 E0.06880
G1 X198.367 Y52.843 E0.07015
G1 X198.380 Y56.507 E0.11489
G1 X222.337 Y56.422 E0.75116
G1 X222.682 Y152.881 E3.02444
G1 X198.725 Y152.967 E0.75116
G1 X198.738 Y156.629 E0.11484
G1 X198.645 Y158.868 E0.07026
G1 X198.353 Y161.041 E0.06874
G1 X197.863 Y163.152 E0.06794
G1 X197.180 Y165.179 E0.06707
G1 X196.309 Y167.109 E0.06640
G1 X195.258 Y168.924 E0.06576
G1 X194.034 Y170.613 E0.06540
G1 X192.646 Y172.164 E0.06526
G1 X191.106 Y173.563 E0.06526
G1 X189.426 Y174.799 E0.06538
G1 X187.618 Y175.863 E0.06579
G1 X185.694 Y176.748 E0.06640
G1 X183.671 Y177.445 E0.06707
G1 X181.564 Y177.950 E0.06794
G1 X179.392 Y178.258 E0.06880
G1 X177.157 Y178.367 E0.07016
G1 X173.493 Y178.380 E0.11489
G1 X173.578 Y202.337 E0.75116
G1 X77.119 Y202.682 E3.02444
G1 X77.033 Y178.725 E0.75116
G1 X73.371 Y178.738 E0.11484
G1 X71.132 Y178.645 E0.07026
G1 X68.959 Y178.353 E0.06874
G1 X66.848 Y177.863 E0.06794
G1 X64.821 Y177.180 E0.06707
G1 X62.891 Y176.309 E0.06640
G1 X61.076 Y175.258 E0.06576
G1 X59.387 Y174.034 E0.06540
G1 X57.836 Y172.646 E0.06526
G1 X56.437 Y171.106 E0.06526
G1 X55.201 Y169.426 E0.06538
G1 X54.137 Y167.618 E0.06579
G1 X53.252 Y165.694 E0.06640
G1 X52.555 Y163.671 E0.06707
G1 X52.050 Y161.564 E0.06794
G1 X51.742 Y159.392 E0.06880
G1 X51.633 Y157.157 E0.07016
G1 X51.620 Y153.493 E0.11489
G1 X27.663 Y153.578 E0.75116
G1 X27.318 Y57.119 E3.02444
G1 X51.275 Y57.033 E0.75116
G1 X51.262 Y53.371 E0.11484
G1 X51.355 Y51.132 E0.07026
G1 X51.647 Y48.959 E0.06874
G1 X52.137 Y46.848 E0.06794
G1 X52.820 Y44.821 E0.06707
G1 X53.691 Y42.891 E0.06640
G1 X54.742 Y41.076 E0.06576
G1 X55.966 Y39.387 E0.06540
G1 X57.354 Y37.836 E0.06526
G1 X58.894 Y36.437 E0.06526
G1 X60.574 Y35.201 E0.06538
G1 X62.382 Y34.137 E0.06579
G1 X64.306 Y33.252 E0.06640
G1 X66.329 Y32.555 E0.06707
G1 X68.436 Y32.050 E0.06794
G1 X70.608 Y31.742 E0.06880
G1 X72.843 Y31.633 E0.07015
G1 X76.507 Y31.620 E0.11489
G1 X76.422 Y7.663 E0.75116
G1 X172.821 Y7.318 E3.02255
M204 S2000
G1 F8640.000
G1 X172.830 Y8.758 E-0.57000
G1 E-0.03000 F3600.00000
G1 X77.230 Y202.021 F10800.000
G1 E0.60000 F3600.00000
M204 S1000
G1 X173.294 Y202.021 E3.01550
G1 X173.293 Y201.643 E0.01185
G1 X77.398 Y201.643 E3.01018
G1 X77.397 Y201.266 E0.01185
G1 X173.292 Y201.266 E3.01018
G1 X173.290 Y200.888 E0.01185
G1 X77.395 Y200.888 E3.01018
G1 X77.394 Y200.511 E0.01185
G1 X173.289 Y200.511 E3.01018
G1 X173.288 Y200.133 E0.01185
G1 X77.393 Y200.133 E3.01018
G1 X77.391 Y199.756 E0.01185
G1 X173.286 Y199.756 E3.01018
G1 X173.285 Y199.378 E0.01185
G1 X77.390 Y199.378 E3.01018
G1 X77.389 Y199.001 E0.01185
G1 X173.284 Y199.001 E3.01018
G1 X173.282 Y198.623 E0.01185
G1 X77.387 Y198.623 E3.01018
G1 X77.386 Y198.246 E0.01185
G1 X173.281 Y198.246 E3.01018
G1 X173.280 Y197.868 E0.01185
G1 X77.385 Y197.868 E3.01018
G1 X77.383 Y197.491 E0.01185
G1 X173.278 Y197.491 E3.01018
G1 X173.277 Y197.113 E0.01185
G1 X77.382 Y197.113 E3.01018
G1 X77.381 Y196.736 E0.01185
G1 X173.276 Y196.736 E3.01018
G1 X173.274 Y196.358 E0.01185
G1 X77.379 Y196.358 E3.01018
G1 X77.378 Y195.981 E0.01185
G1 X173.273 Y195.981 E3.01018
G1 X173.272 Y195.603 E0.01185
G1 X77.376 Y195.603 E3.01018
M73 Q0 S592
G1 X77.375 Y195.226 E0.01185
G1 X173.270 Y195.226 E3.01018
M73 P0 R567
G1 X173.269 Y194.848 E0.01185
G1 X77.374 Y194.848 E3.01018
G1 X77.372 Y194.470 E0.01185
G1 X173.267 Y194.470 E3.01018
G1 X173.266 Y194.093 E0.01185
G1 X77.371 Y194.093 E3.01018
G1 X77.370 Y193.715 E0.01185
G1 X173.265 Y193.715 E3.01018
G1 X173.263 Y193.338 E0.01185
G1 X77.368 Y193.338 E3.01018
G1 X77.367 Y192.960 E0.01185
G1 X173.262 Y192.960 E3.01018
G1 X173.261 Y192.583 E0.01185
G1 X77.366 Y192.583 E3.01018
G1 X77.364 Y192.205 E0.01185
G1 X173.259 Y192.205 E3.01018
G1 X173.258 Y191.828 E0.01185
G1 X77.363 Y191.828 E3.01018
G1 X77.362 Y191.450 E0.01185
G1 X173.257 Y191.450 E3.01018
G1 X173.255 Y191.073 E0.01185
G1 X77.360 Y191.073 E3.01018
G1 X77.359 Y190.695 E0.01185
G1 X173.254 Y190.695 E3.01018
G1 X173.253 Y190.318 E0.01185
G1 X77.358 Y190.318 E3.01018
G1 X77.356 Y189.940 E0.01185
G1 X173.251 Y189.940 E3.01018
G1 X173.250 Y189.563 E0.01185
G1 X77.355 Y189.563 E3.01018
G1 X77.354 Y189.185 E0.01185
G1 X173.249 Y189.185 E3.01018
G1 X173.247 Y188.808 E0.01185
G1 X77.352 Y188.808 E3.01018
G1 X77.351 Y188.430 E0.01185
G1 X173.246 Y188.430 E3.01018
G1 X173.245 Y188.053 E0.01185
G1 X77.349 Y188.053 E3.01018
G1 X77.348 Y187.675 E0.01185
G1 X173.243 Y187.675 E3.01018
G1 X173.242 Y187.298 E0.01185
G1 X77.347 Y187.298 E3.01018
G1 X77.345 Y186.920 E0.01185
G1 X173.240 Y186.920 E3.01018
G1 X173.239 Y186.543 E0.01185
G1 X77.344 Y186.543 E3.01018
G1 X77.343 Y186.165 E0.01185
G1 X173.238 Y186.165 E3.01018
G1 X173.236 Y185.788 E0.01185
G1 X77.341 Y185.788 E3.01018
G1 X77.340 Y185.410 E0.01185
G1 X173.235 Y185.410 E3.01018
G1 X173.234 Y185.033 E0.01185
G1 X77.339 Y185.033 E3.01018
G1 X77.337 Y184.655 E0.01185
G1 X173.232 Y184.655 E3.01018
G1 X173.231 Y184.278 E0.01185
G1 X77.336 Y184.278 E3.01018
G1 X77.335 Y183.900 E0.01185
G1 X173.230 Y183.900 E3.01018
G1 X173.228 Y183.523 E0.01185
G1 X77.333 Y183.523 E3.01018
G1 X77.332 Y183.145 E0.01185
G1 X173.227 Y183.145 E3.01018
G1 X173.226 Y182.768 E0.01185
G1 X77.331 Y182.768 E3.01018
G1 X77.329 Y182.390 E0.01185
G1 X173.224 Y182.390 E3.01018
G1 X173.223 Y182.013 E0.01185
G1 X77.328 Y182.013 E3.01018
M73 Q0 S591
G1 X77.327 Y181.635 E0.01185
G1 X173.222 Y181.635 E3.01018
M73 P0 R566
G1 X173.220 Y181.258 E0.01185
G1 X77.325 Y181.258 E3.01018
G1 X77.324 Y180.880 E0.01185
G1 X173.219 Y180.880 E3.01018
G1 X173.218 Y180.502 E0.01185
G1 X77.322 Y180.502 E3.01018
G1 X77.321 Y180.125 E0.01185
G1 X173.216 Y180.125 E3.01018
G1 X173.215 Y179.747 E0.01185
G1 X77.320 Y179.747 E3.01018
G1 X77.318 Y179.370 E0.01185
G1 X173.213 Y179.370 E3.01018
G1 X173.212 Y178.992 E0.01185
G1 X77.317 Y178.992 E3.01018
G1 X77.316 Y178.615 E0.01185
G1 X173.211 Y178.615 E3.01018
G1 X173.209 Y178.237 E0.01185
G1 X70.222 Y178.237 E3.23280
G1 X69.010 Y178.075 E0.03841
G1 X68.085 Y177.860 E0.02980
G1 X180.186 Y177.860 E3.51888
G1 X181.511 Y177.672 E0.04202
G1 X182.303 Y177.482 E0.02557
G1 X66.604 Y177.482 E3.63185
G1 X65.483 Y177.105 E0.03712
G1 X183.791 Y177.105 E3.71373
G1 X184.886 Y176.727 E0.03635
G1 X64.505 Y176.727 E3.77880
G1 X63.669 Y176.350 E0.02881
G1 X185.883 Y176.350 E3.83634
G1 X186.703 Y175.972 E0.02836
G1 X62.874 Y175.972 E3.88705
G1 X62.222 Y175.595 E0.02365
G1 X187.516 Y175.595 E3.93303
G1 X188.157 Y175.217 E0.02336
G1 X61.569 Y175.217 E3.97363
G1 X61.230 Y175.021 E0.01232
G1 X60.980 Y174.840 E0.00968
G1 X188.799 Y174.840 E4.01226
G1 X189.270 Y174.562 E0.01717
G1 X189.406 Y174.462 E0.00530
G1 X60.459 Y174.462 E4.04769
G1 X59.938 Y174.085 E0.02020
G1 X189.919 Y174.085 E4.08015
G1 X190.433 Y173.707 E0.02000
G1 X59.445 Y173.707 E4.11174
G1 X59.023 Y173.330 E0.01777
G1 X190.942 Y173.330 E4.14097
G1 X191.358 Y172.952 E0.01763
G1 X58.602 Y172.952 E4.16726
G1 X58.180 Y172.575 E0.01777
G1 X191.773 Y172.575 E4.19354
G1 X192.189 Y172.197 E0.01763
G1 X57.810 Y172.197 E4.21820
G1 X57.467 Y171.820 E0.01601
G1 X192.575 Y171.820 E4.24108
G1 X192.913 Y171.442 E0.01590
G1 X57.124 Y171.442 E4.26245
G1 X56.782 Y171.065 E0.01601
G1 X193.251 Y171.065 E4.28382
G1 X193.589 Y170.687 E0.01590
G1 X56.480 Y170.687 E4.30389
M73 Q0 S590
G1 X56.202 Y170.310 E0.01471
G1 X193.905 Y170.310 E4.32254
M73 P0 R565
G1 X194.179 Y169.932 E0.01463
G1 X55.925 Y169.932 E4.33984
G1 X55.647 Y169.555 E0.01471
G1 X194.452 Y169.555 E4.35714
G1 X194.726 Y169.177 E0.01463
G1 X55.383 Y169.177 E4.37402
G1 X55.161 Y168.800 E0.01375
G1 X194.999 Y168.800 E4.38958
G1 X195.222 Y168.422 E0.01376
G1 X54.939 Y168.422 E4.40355
G1 X54.716 Y168.045 E0.01375
G1 X195.441 Y168.045 E4.41739
G1 X195.659 Y167.667 E0.01369
G1 X54.494 Y167.667 E4.43122
G1 X54.297 Y167.290 E0.01336
G1 X195.878 Y167.290 E4.44426
G1 X196.088 Y166.912 E0.01356
G1 X54.124 Y166.912 E4.45630
G1 X53.950 Y166.535 E0.01304
G1 X196.258 Y166.535 E4.46710
G1 X196.429 Y166.157 E0.01300
G1 X53.776 Y166.157 E4.47790
G1 X53.603 Y165.779 E0.01304
G1 X196.599 Y165.779 E4.48870
G1 X196.769 Y165.402 E0.01300
G1 X53.451 Y165.402 E4.49882
G1 X53.320 Y165.024 E0.01254
G1 X196.934 Y165.024 E4.50808
G1 X197.061 Y164.647 E0.01250
G1 X53.190 Y164.647 E4.51615
G1 X53.060 Y164.269 E0.01254
G1 X197.188 Y164.269 E4.52423
G1 X197.315 Y163.892 E0.01250
G1 X52.930 Y163.892 E4.53231
G1 X52.808 Y163.514 E0.01245
G1 X197.443 Y163.514 E4.54013
G1 X197.570 Y163.137 E0.01250
G1 X52.717 Y163.137 E4.54697
G1 X52.627 Y162.759 E0.01219
G1 X197.664 Y162.759 E4.55276
G1 X197.752 Y162.382 E0.01217
G1 X52.536 Y162.382 E4.55835
G1 X52.446 Y162.004 E0.01219
G1 X197.839 Y162.004 E4.56394
G1 X197.927 Y161.627 E0.01217
G1 X52.355 Y161.627 E4.56953
G1 X52.291 Y161.249 E0.01202
G1 X198.014 Y161.249 E4.57432
M73 Q0 S589
G1 X198.090 Y160.872 E0.01209
G1 X52.237 Y160.872 E4.57838
M73 P0 R564
G1 X52.184 Y160.494 E0.01197
G1 X198.141 Y160.494 E4.58165
G1 X198.192 Y160.117 E0.01196
G1 X52.130 Y160.117 E4.58492
G1 X52.077 Y159.739 E0.01197
G1 X198.243 Y159.739 E4.58819
G1 X198.293 Y159.362 E0.01196
G1 X52.024 Y159.362 E4.59145
G1 X52.005 Y158.984 E0.01186
G1 X198.344 Y158.984 E4.59362
G1 X198.373 Y158.607 E0.01188
G1 X51.987 Y158.607 E4.59510
G1 X51.969 Y158.229 E0.01186
G1 X198.388 Y158.229 E4.59617
G1 X198.404 Y157.852 E0.01186
G1 X51.950 Y157.852 E4.59724
G1 X51.932 Y157.474 E0.01186
G1 X198.420 Y157.474 E4.59831
G1 X198.435 Y157.097 E0.01186
G1 X51.916 Y157.097 E4.59930
G1 X51.914 Y156.719 E0.01185
G1 X198.451 Y156.719 E4.59984
G1 X198.454 Y156.342 E0.01185
G1 X51.913 Y156.342 E4.59997
G1 X51.912 Y155.964 E0.01185
G1 X198.453 Y155.964 E4.59997
G1 X198.451 Y155.587 E0.01185
G1 X51.910 Y155.587 E4.59997
G1 X51.909 Y155.209 E0.01185
G1 X198.450 Y155.209 E4.59997
G1 X198.449 Y154.832 E0.01185
G1 X51.908 Y154.832 E4.59997
G1 X51.906 Y154.454 E0.01185
G1 X198.447 Y154.454 E4.59997
G1 X198.446 Y154.077 E0.01185
G1 X51.905 Y154.077 E4.59997
G1 X51.904 Y153.699 E0.01185
G1 X198.445 Y153.699 E4.59997
G1 X198.443 Y153.322 E0.01185
G1 X51.902 Y153.322 E4.59997
G1 X51.902 Y153.209 E0.00354
G1 X27.945 Y153.295 E0.75202
G1 X27.944 Y152.944 E0.01100
G1 X198.442 Y152.944 E5.35200
G1 X198.441 Y152.685 E0.00814
G1 X222.398 Y152.599 E0.75202
G1 X222.398 Y152.567 E0.00103
G1 X27.942 Y152.567 E6.10403
G1 X27.941 Y152.189 E0.01185
G1 X222.397 Y152.189 E6.10403
M73 Q0 S588
M73 P0 R563
G1 X222.395 Y151.812 E0.01185
G1 X27.940 Y151.812 E6.10403
G1 X27.938 Y151.434 E0.01185
G1 X222.394 Y151.434 E6.10403
G1 X222.393 Y151.056 E0.01185
G1 X27.937 Y151.056 E6.10403
G1 X27.936 Y150.679 E0.01185
G1 X222.391 Y150.679 E6.10403
G1 X222.390 Y150.301 E0.01185
G1 X27.934 Y150.301 E6.10403
G1 X27.933 Y149.924 E0.01185
G1 X222.388 Y149.924 E6.10403
G1 X222.387 Y149.546 E0.01185
G1 X27.931 Y149.546 E6.10403
G1 X27.930 Y149.169 E0.01185
G1 X222.386 Y149.169 E6.10403
G1 X222.384 Y148.791 E0.01185
G1 X27.929 Y148.791 E6.10403
G1 X27.927 Y148.414 E0.01185
G1 X222.383 Y148.414 E6.10403
G1 X222.382 Y148.036 E0.01185
G1 X27.926 Y148.036 E6.10403
G1 X27.925 Y147.659 E0.01185
G1 X222.380 Y147.659 E6.10403
G1 X222.379 Y147.281 E0.01185
G1 X27.923 Y147.281 E6.10403
G1 X27.922 Y146.904 E0.01185
G1 X222.378 Y146.904 E6.10403
G1 X222.376 Y146.526 E0.01185
G1 X27.921 Y146.526 E6.10403
G1 X27.919 Y146.149 E0.01185
G1 X222.375 Y146.149 E6.10403
G1 X222.374 Y145.771 E0.01185
G1 X27.918 Y145.771 E6.10403
G1 X27.917 Y145.394 E0.01185
G1 X222.372 Y145.394 E6.10403
G1 X222.371 Y145.016 E0.01185
G1 X27.915 Y145.016 E6.10403
M73 Q1 S587
M73 P1 R562
G1 X27.914 Y144.639 E0.01185
G1 X222.370 Y144.639 E6.10403
G1 X222.368 Y144.261 E0.01185
G1 X27.913 Y144.261 E6.10403
G1 X27.911 Y143.884 E0.01185
G1 X222.367 Y143.884 E6.10403
G1 X222.366 Y143.506 E0.01185
G1 X27.910 Y143.506 E6.10403
G1 X27.909 Y143.129 E0.01185
G1 X222.364 Y143.129 E6.10403
G1 X222.363 Y142.751 E0.01185
G1 X27.907 Y142.751 E6.10403
G1 X27.906 Y142.374 E0.01185
G1 X222.361 Y142.374 E6.10403
G1 X222.360 Y141.996 E0.01185
G1 X27.904 Y141.996 E6.10403
G1 X27.903 Y141.619 E0.01185
G1 X222.359 Y141.619 E6.10403
G1 X222.357 Y141.241 E0.01185
G1 X27.902 Y141.241 E6.10403
G1 X27.900 Y140.864 E0.01185
G1 X222.356 Y140.864 E6.10403
G1 X222.355 Y140.486 E0.01185
G1 X27.899 Y140.486 E6.10403
G1 X27.898 Y140.109 E0.01185
G1 X222.353 Y140.109 E6.10403
G1 X222.352 Y139.731 E0.01185
G1 X27.896 Y139.731 E6.10403
G1 X27.895 Y139.354 E0.01185
G1 X222.351 Y139.354 E6.10403
G1 X222.349 Y138.976 E0.01185
G1 X27.894 Y138.976 E6.10403
G1 X27.892 Y138.599 E0.01185
G1 X222.348 Y138.599 E6.10403
G1 X222.347 Y138.221 E0.01185
G1 X27.891 Y138.221 E6.10403
G1 X27.890 Y137.844 E0.01185
G1 X222.345 Y137.844 E6.10403
M73 Q1 S586
M73 P1 R561
G1 X222.344 Y137.466 E0.01185
G1 X27.888 Y137.466 E6.10403
G1 X27.887 Y137.088 E0.01185
G1 X222.343 Y137.089 E6.10403
G1 X222.341 Y136.711 E0.01185
G1 X27.886 Y136.711 E6.10403
