; generated by PrusaSlicer 2.2.0+win64 on 2020-10-16 at 11:37:34 UTC

; 

; external perimeters extrusion width = 0.45mm
; perimeters extrusion width = 0.45mm
; infill extrusion width = 0.45mm
; solid infill extrusion width = 0.45mm
; top infill extrusion width = 0.40mm
; first layer extrusion width = 0.42mm

M73 P0 R174
M73 Q0 S177
M201 X1000 Y1000 Z200 E5000 ; sets maximum accelerations, mm/sec^2
M203 X200 Y200 Z12 E120 ; sets maximum feedrates, mm/sec
M204 P1250 R1250 T1250 ; sets acceleration (P, T) and retract acceleration (R), mm/sec^2
M205 X8.00 Y8.00 Z0.40 E4.50 ; sets the jerk limits, mm/sec
M205 S0 T0 ; sets the minimum extruding and travel feed rate, mm/sec
M107
M862.3 P "MK3S" ; printer model check
M862.1 P0.4 ; nozzle diameter check
M115 U3.9.1 ; tell printer latest fw version
G90 ; use absolute coordinates
M83 ; extruder relative mode
M104 S215 ; set extruder temp
M140 S60 ; set bed temp
M190 S60 ; wait for bed temp
M109 S215 ; wait for extruder temp
G28 W ; home all without mesh bed level
G80 ; mesh bed leveling
G1 Y-3.0 F1000.0 ; go outside print area
G92 E0.0
G1 X60.0 E9.0 F1000.0 ; intro line
M73 Q0 S177
M73 P0 R174
G1 X100.0 E12.5 F1000.0 ; intro line
G92 E0.0
M221 S95

; Don't change E values below. Excessive value can damage the printer.

M907 E538 ; set extruder motor current
G21 ; set units to millimeters
G90 ; use absolute coordinates
M83 ; use relative distances for extrusion
M900 K0.05 ; Filament gcode LA 1.5
M900 K30 ; Filament gcode LA 1.0
;BEFORE_LAYER_CHANGE
G92 E0.0
;0.2


G1 E-0.80000 F2100.00000
G1 Z0.600 F10800.000
;AFTER_LAYER_CHANGE
;0.2
G1 X67.362 Y15.165
G1 Z0.200
G1 E0.80000 F2100.00000
M204 S1000
G1 F1200.000
G1 X67.875 Y14.133 E0.03614
G1 X68.478 Y13.470 E0.02809
G1 X69.144 Y13.013 E0.02533
G1 X69.894 Y12.712 E0.02533
G1 X70.771 Y12.580 E0.02781
G1 X171.432 Y12.579 E3.15617
G1 X172.536 Y12.745 E0.03499
G1 X173.574 Y13.263 E0.03637
G1 X174.049 Y13.664 E0.01951
G1 X174.453 Y14.147 E0.01975
G1 X174.963 Y15.189 E0.03637
G1 X177.662 Y32.755 E0.55722
G1 X177.683 Y133.277 E3.15178
G1 X175.087 Y150.407 E0.54326
G1 X174.859 Y151.176 E0.02514
G1 X174.464 Y151.885 E0.02545
G1 X173.852 Y152.556 E0.02845
G1 X173.168 Y153.020 E0.02593
G1 X172.278 Y153.348 E0.02975
G1 X171.470 Y153.440 E0.02549
G1 X70.895 Y153.440 E3.15346
G1 X69.803 Y153.273 E0.03463
G1 X68.771 Y152.760 E0.03614
G1 X68.101 Y152.149 E0.02845
G1 X67.637 Y151.464 E0.02593
G1 X67.308 Y150.574 E0.02975
G1 X67.217 Y149.762 E0.02560
G1 X67.195 Y16.260 E4.18587
G1 X67.353 Y15.224 E0.03286
G1 F8640.000
G1 X67.875 Y14.133 E-0.27935
G1 X68.478 Y13.470 E-0.20687
G1 X69.144 Y13.013 E-0.18655
G1 X69.495 Y12.872 E-0.08723
G1 E-0.04000 F2100.00000
G1 Z0.800 F10800.000
G1 X67.395 Y88.440
G1 Z0.200
G1 E0.80000 F2100.00000
G1 F1200.000
G1 X68.075 Y87.890 E0.02742
G1 X69.300 Y87.323 E0.04231
G1 X70.686 Y87.075 E0.04416
G1 X171.709 Y87.078 E3.16749
G1 X172.940 Y87.286 E0.03917
G1 X174.102 Y87.781 E0.03959
G1 X175.133 Y88.550 E0.04034
G1 X175.940 Y89.531 E0.03982
G1 X176.463 Y90.590 E0.03704
G1 X176.747 Y91.794 E0.03879
G1 X176.772 Y94.334 E0.07963
G1 X177.486 Y95.074 E0.03223
G1 X177.863 Y95.465 F10800.000
G1 F1200.000
G1 X178.407 Y96.029 E0.02458
G1 X178.991 Y97.096 E0.03812
G1 X179.315 Y98.442 E0.04341
G1 X179.315 Y133.297 E1.09284
G1 X178.991 Y134.643 E0.04341
G1 X178.407 Y135.710 E0.03812
G1 X177.336 Y136.820 E0.04837
G1 X176.884 Y137.289 F10800.000
G1 F1200.000
G1 X176.775 Y137.402 E0.00492
G1 X176.774 Y138.013 E0.01916
G1 F8640.000
G1 X176.775 Y137.402 E-0.14108
G1 X176.884 Y137.289 E-0.03625
G1 E-0.62268 F2100.00000
G1 Z0.800 F10800.000
G1 X176.771 Y140.550
G1 Z0.200
G1 E0.80000 F2100.00000
G1 F1200.000
G1 X176.760 Y150.245 E0.30399
G1 X176.499 Y151.455 E0.03880
G1 X175.962 Y152.588 E0.03931
G1 X175.223 Y153.514 E0.03714
G1 X174.278 Y154.267 E0.03789
G1 X173.096 Y154.816 E0.04086
G1 X171.753 Y155.075 E0.04289
G1 X70.689 Y155.077 E3.16880
G1 X69.437 Y154.871 E0.03977
G1 X68.226 Y154.354 E0.04130
G1 X67.197 Y153.574 E0.04046
G1 X66.394 Y152.581 E0.04006
G1 X65.827 Y151.357 E0.04231
G1 X65.579 Y149.970 E0.04416
G1 X65.579 Y92.185 E1.81182
G1 X65.785 Y90.934 E0.03977
G1 X66.303 Y89.722 E0.04130
G1 X67.018 Y88.778 E0.03716
G1 X67.395 Y88.919 F10800.000
G1 F1200.000
G1 X68.292 Y88.200 E0.03605
G1 X69.434 Y87.676 E0.03938
G1 X70.702 Y87.452 E0.04037
G1 X171.692 Y87.455 E3.16647
G1 X172.854 Y87.654 E0.03696
G1 X173.932 Y88.118 E0.03679
G1 X174.888 Y88.837 E0.03751
G1 X175.634 Y89.752 E0.03700
G1 X176.115 Y90.736 E0.03434
G1 X176.375 Y91.859 E0.03614
G1 X176.396 Y94.488 E0.08245
G1 X177.486 Y95.612 E0.04907
G1 X177.863 Y96.001 F10800.000
G1 F1200.000
G1 X178.090 Y96.234 E0.01021
G1 X178.631 Y97.211 E0.03500
G1 X178.938 Y98.465 E0.04049
G1 X178.938 Y133.274 E1.09139
G1 X178.631 Y134.528 E0.04049
G1 X178.090 Y135.505 E0.03500
G1 X177.433 Y136.182 E0.02958
G1 X176.981 Y136.648 F10800.000
G1 F1200.000
G1 X176.398 Y137.249 E0.02626
G1 X176.394 Y140.521 E0.10261
G1 F8640.000
G1 X176.398 Y137.249 E-0.75563
G1 X176.411 Y137.235 E-0.00437
G1 E-0.04000 F2100.00000
G1 Z0.800 F10800.000
G1 X176.391 Y143.058
G1 Z0.200
G1 E0.80000 F2100.00000
G1 F1200.000
G1 X176.383 Y150.224 E0.22469
G1 X176.136 Y151.353 E0.03624
G1 X175.654 Y152.370 E0.03528
G1 X174.942 Y153.262 E0.03577
G1 X174.063 Y153.957 E0.03516
G1 X172.960 Y154.464 E0.03805
G1 X171.735 Y154.698 E0.03910
G1 X70.705 Y154.700 E3.16775
M73 Q0 S176
M73 P0 R173
G1 X69.522 Y154.503 E0.03758
G1 X68.398 Y154.017 E0.03842
G1 X67.445 Y153.289 E0.03759
G1 X66.703 Y152.364 E0.03718
G1 X66.180 Y151.222 E0.03938
G1 X65.956 Y149.954 E0.04037
G1 X65.956 Y92.201 E1.81082
G1 X66.153 Y91.019 E0.03757
G1 X66.639 Y89.894 E0.03842
G1 X67.018 Y89.398 E0.01958
G1 X67.395 Y89.522 F10800.000
G1 F1200.000
G1 X67.651 Y89.190 E0.01313
G1 X68.508 Y88.510 E0.03431
G1 X69.567 Y88.030 E0.03647
G1 X70.718 Y87.830 E0.03663
G1 X171.676 Y87.832 E3.16546
G1 X172.767 Y88.021 E0.03471
G1 X173.760 Y88.454 E0.03397
G1 X174.641 Y89.123 E0.03469
G1 X175.327 Y89.971 E0.03419
G1 X175.766 Y90.880 E0.03164
G1 X176.002 Y91.922 E0.03351
G1 X176.020 Y94.643 E0.08532
G1 X177.486 Y96.146 E0.06584
G1 X177.863 Y96.601 F10800.000
G1 F1200.000
G1 X178.271 Y97.327 E0.02613
G1 X178.561 Y98.489 E0.03752
G1 X178.561 Y133.250 E1.08992
G1 X178.271 Y134.411 E0.03752
G1 X177.774 Y135.298 E0.03187
G1 X177.529 Y135.549 E0.01099
G1 X177.077 Y136.012 F10800.000
G1 F1200.000
G1 X176.021 Y137.095 E0.04744
G1 X176.016 Y143.017 E0.18569
G1 F8640.000
G1 X176.019 Y139.726 E-0.76000
G1 E-0.04000 F2100.00000
G1 Z0.800 F10800.000
G1 X176.014 Y145.549
G1 Z0.200
G1 E0.80000 F2100.00000
G1 F1200.000
G1 X176.010 Y150.165 E0.14474
G1 X175.785 Y151.212 E0.03357
G1 X175.323 Y152.188 E0.03387
G1 X174.663 Y153.008 E0.03300
G1 X173.849 Y153.646 E0.03244
G1 X172.825 Y154.111 E0.03524
G1 X171.718 Y154.321 E0.03534
G1 X70.721 Y154.323 E3.16670
G1 X69.609 Y154.136 E0.03536
G1 X68.571 Y153.681 E0.03553
G1 X67.694 Y153.005 E0.03471
G1 X67.013 Y152.148 E0.03431
G1 X66.533 Y151.089 E0.03647
G1 X66.333 Y149.938 E0.03662
G1 X66.333 Y92.217 E1.80981
G1 X66.521 Y91.105 E0.03536
G1 X66.975 Y90.067 E0.03553
G1 X67.018 Y90.011 E0.00223
G1 X67.396 Y90.137 F10800.000
G1 F1200.000
G1 X67.904 Y89.471 E0.02629
G1 X68.724 Y88.819 E0.03284
G1 X69.656 Y88.397 E0.03209
G1 X70.735 Y88.207 E0.03434
G1 X171.660 Y88.209 E3.16444
G1 X172.637 Y88.376 E0.03108
G1 X173.588 Y88.791 E0.03251
G1 X174.393 Y89.408 E0.03181
G1 X175.018 Y90.189 E0.03138
G1 X175.416 Y91.022 E0.02894
G1 X175.630 Y91.983 E0.03089
G1 X175.644 Y94.798 E0.08825
G1 X177.459 Y96.649 E0.08129
G1 X177.486 Y96.698 E0.00176
G1 X177.864 Y97.360 F10800.000
G1 F1200.000
G1 X177.912 Y97.446 E0.00309
G1 X178.184 Y98.513 E0.03451
G1 X178.184 Y133.226 E1.08842
G1 X177.912 Y134.293 E0.03451
G1 X177.649 Y134.755 E0.01667
G1 X177.173 Y135.381 F10800.000
G1 F1200.000
G1 X175.644 Y136.941 E0.06848
G1 X175.639 Y145.503 E0.26847
G1 F8640.000
G1 X175.641 Y142.212 E-0.76000
G1 E-0.04000 F2100.00000
G1 Z0.800 F10800.000
G1 X175.638 Y148.029
G1 Z0.200
G1 E0.80000 F2100.00000
G1 F1200.000
G1 X175.637 Y150.107 E0.06515
G1 X175.434 Y151.072 E0.03093
G1 X175.014 Y151.971 E0.03110
G1 X174.412 Y152.725 E0.03024
G1 X173.634 Y153.335 E0.03103
G1 X172.732 Y153.745 E0.03106
G1 X171.700 Y153.944 E0.03296
G1 X70.736 Y153.946 E3.16565
G1 X69.736 Y153.780 E0.03176
G1 X68.780 Y153.367 E0.03266
G1 X67.974 Y152.752 E0.03179
G1 X67.323 Y151.932 E0.03284
G1 X66.900 Y151.000 E0.03209
G1 X66.710 Y149.922 E0.03433
G1 X66.710 Y92.232 E1.80881
G1 X66.876 Y91.233 E0.03176
G1 X67.019 Y90.903 E0.01126
G1 X67.396 Y90.973 F10800.000
G1 F1200.000
G1 X67.625 Y90.450 E0.01790
G1 X68.188 Y89.720 E0.02890
G1 X68.938 Y89.131 E0.02992
G1 X69.788 Y88.751 E0.02919
G1 X70.751 Y88.584 E0.03064
G1 X171.644 Y88.586 E3.16342
G1 X172.549 Y88.744 E0.02882
G1 X173.414 Y89.126 E0.02963
G1 X174.143 Y89.691 E0.02894
G1 X174.709 Y90.405 E0.02856
G1 X175.065 Y91.162 E0.02624
G1 X175.257 Y92.044 E0.02828
G1 X175.267 Y94.953 E0.09122
G1 X177.145 Y96.860 E0.08390
G1 X177.487 Y97.450 E0.02138
G1 F8640.000
G1 X177.145 Y96.860 E-0.15745
G1 X175.314 Y95.000 E-0.60255
G1 E-0.04000 F2100.00000
G1 Z0.800 F10800.000
G1 X177.286 Y134.635
G1 Z0.200
G1 E0.80000 F2100.00000
G1 F1200.000
G1 X177.145 Y134.879 E0.00883
G1 X175.267 Y136.786 E0.08391
G1 X175.264 Y147.980 E0.35097
G1 F8640.000
G1 X175.265 Y144.688 E-0.76000
G1 E-0.04000 F2100.00000
G1 Z0.800 F10800.000
G1 X174.890 Y136.630
G1 Z0.200
G1 E0.80000 F2100.00000
G1 F1200.000
G1 X174.890 Y149.996 E0.41905
G1 X174.730 Y150.800 E0.02571
G1 X174.394 Y151.539 E0.02547
G1 X173.882 Y152.188 E0.02591
G1 X173.208 Y152.711 E0.02676
G1 X172.505 Y153.026 E0.02416
G1 X171.663 Y153.190 E0.02687
G1 X70.767 Y153.192 E3.16354
G1 X69.950 Y153.057 E0.02596
G1 X69.163 Y152.717 E0.02689
G1 X68.504 Y152.215 E0.02599
G1 X67.967 Y151.540 E0.02702
G1 X67.621 Y150.778 E0.02623
G1 X67.464 Y149.889 E0.02833
G1 X67.464 Y92.263 E1.80681
G1 X67.600 Y91.447 E0.02596
G1 X67.939 Y90.659 E0.02689
G1 X68.442 Y90.000 E0.02599
G1 X69.116 Y89.464 E0.02702
G1 X69.878 Y89.118 E0.02623
G1 X70.768 Y88.961 E0.02833
G1 X171.628 Y88.963 E3.16240
M73 Q1 S175
M73 P1 R172
G1 X172.421 Y89.099 E0.02521
G1 X173.202 Y89.438 E0.02670
G1 X173.893 Y89.975 E0.02744
G1 X174.398 Y90.620 E0.02568
G1 X174.714 Y91.301 E0.02355
G1 X174.884 Y92.102 E0.02569
G1 X174.890 Y95.109 E0.09426
G1 X176.833 Y97.072 E0.08660
G1 X177.197 Y97.690 E0.02249
G1 X177.430 Y98.562 E0.02831
G1 X177.430 Y133.176 E1.08530
G1 X177.197 Y134.049 E0.02831
G1 X176.833 Y134.667 E0.02249
G1 X174.932 Y136.588 E0.08473
G1 F8640.000
G1 X174.922 Y139.879 E-0.76000
G1 E-0.04000 F2100.00000
G1 Z0.800 F10800.000
G1 X174.513 Y95.264
G1 Z0.200
G1 E0.80000 F2100.00000
G1 F1200.000
G1 X176.522 Y97.287 E0.08938
G1 X176.841 Y97.816 E0.01938
G1 X177.053 Y98.588 E0.02510
G1 X177.053 Y133.150 E1.08368
G1 X176.841 Y133.923 E0.02510
G1 X176.522 Y134.452 E0.01938
G1 X174.513 Y136.475 E0.08939
G1 X174.517 Y149.940 E0.42220
G1 X174.364 Y150.705 E0.02445
G1 X174.082 Y151.326 E0.02138
G1 X173.630 Y151.907 E0.02308
G1 X173.030 Y152.378 E0.02392
G1 X172.409 Y152.661 E0.02141
G1 X171.644 Y152.813 E0.02443
G1 X70.783 Y152.815 E3.16244
G1 X70.037 Y152.689 E0.02373
G1 X69.337 Y152.382 E0.02397
G1 X68.754 Y151.931 E0.02310
G1 X68.279 Y151.327 E0.02411
G1 X67.976 Y150.647 E0.02333
G1 X67.842 Y149.873 E0.02463
G1 X67.842 Y92.279 E1.80581
G1 X67.967 Y91.533 E0.02373
G1 X68.275 Y90.833 E0.02397
G1 X68.725 Y90.250 E0.02310
G1 X69.330 Y89.775 E0.02411
G1 X70.009 Y89.472 E0.02333
G1 X70.784 Y89.338 E0.02463
G1 X171.611 Y89.340 E3.16139
G1 X172.332 Y89.466 E0.02294
G1 X173.027 Y89.773 E0.02380
G1 X173.641 Y90.256 E0.02450
G1 X174.086 Y90.832 E0.02282
G1 X174.362 Y91.437 E0.02086
G1 X174.511 Y92.159 E0.02312
G1 X174.513 Y95.204 E0.09547
G1 X174.136 Y95.420 F10800.000
G1 F1200.000
G1 X176.213 Y97.504 E0.09227
G1 X176.486 Y97.946 E0.01627
G1 X176.675 Y98.615 E0.02182
G1 X176.675 Y133.124 E1.08199
G1 X176.486 Y133.793 E0.02182
G1 X176.213 Y134.235 E0.01627
G1 X174.136 Y136.319 E0.09227
G1 X174.139 Y149.921 E0.42648
G1 X174.000 Y150.607 E0.02195
G1 X173.750 Y151.146 E0.01863
G1 X173.349 Y151.655 E0.02032
G1 X172.851 Y152.045 E0.01981
G1 X172.311 Y152.296 E0.01868
G1 X171.625 Y152.436 E0.02194
G1 X70.799 Y152.438 E3.16132
G1 X70.125 Y152.322 E0.02146
G1 X69.513 Y152.048 E0.02103
G1 X69.006 Y151.650 E0.02021
G1 X68.592 Y151.115 E0.02119
G1 X68.331 Y150.518 E0.02045
G1 X68.219 Y149.857 E0.02100
G1 X68.219 Y92.296 E1.80481
G1 X68.335 Y91.621 E0.02146
G1 X68.609 Y91.009 E0.02103
G1 X69.006 Y90.502 E0.02021
G1 X69.541 Y90.089 E0.02119
G1 X70.138 Y89.827 E0.02045
G1 X70.799 Y89.715 E0.02101
G1 X171.594 Y89.717 E3.16037
G1 X172.242 Y89.833 E0.02063
G1 X172.849 Y90.107 E0.02087
G1 X173.387 Y90.535 E0.02156
G1 X173.772 Y91.042 E0.01995
G1 X174.009 Y91.571 E0.01818
G1 X174.138 Y92.214 E0.02058
G1 X174.136 Y95.360 E0.09863
G1 X173.759 Y95.576 F10800.000
G1 F1200.000
G1 X175.907 Y97.725 E0.09527
G1 X176.132 Y98.080 E0.01318
G1 X176.298 Y98.643 E0.01842
G1 X176.298 Y133.096 E1.08023
G1 X176.132 Y133.659 E0.01842
G1 X175.907 Y134.014 E0.01318
G1 X173.759 Y136.163 E0.09527
G1 X173.762 Y149.901 E0.43076
G1 X173.635 Y150.507 E0.01940
G1 X173.419 Y150.965 E0.01590
G1 X173.096 Y151.375 E0.01634
G1 X172.669 Y151.715 E0.01711
G1 X172.210 Y151.932 E0.01591
G1 X171.605 Y152.059 E0.01940
G1 X70.815 Y152.061 E3.16021
G1 X70.254 Y151.967 E0.01782
G1 X69.724 Y151.734 E0.01816
G1 X69.287 Y151.397 E0.01730
G1 X68.926 Y150.939 E0.01829
G1 X68.698 Y150.429 E0.01751
G1 X68.596 Y149.841 E0.01872
G1 X68.596 Y92.311 E1.80381
G1 X68.690 Y91.750 E0.01782
G1 X68.922 Y91.220 E0.01816
G1 X69.259 Y90.783 E0.01730
G1 X69.718 Y90.422 E0.01829
G1 X70.227 Y90.194 E0.01751
G1 X70.816 Y90.092 E0.01872
G1 X171.577 Y90.095 E3.15930
G1 X172.151 Y90.200 E0.01831
G1 X172.635 Y90.418 E0.01663
G1 X173.103 Y90.785 E0.01867
G1 X173.438 Y91.219 E0.01719
G1 X173.644 Y91.669 E0.01551
G1 X173.761 Y92.234 E0.01808
G1 X173.759 Y95.516 E0.10292
G1 X173.382 Y95.732 F10800.000
G1 F1200.000
G1 X175.627 Y97.978 E0.09955
G1 X175.781 Y98.217 E0.00892
G1 X175.921 Y98.673 E0.01496
G1 X175.921 Y133.066 E1.07838
G1 X175.781 Y133.522 E0.01496
G1 X175.627 Y133.761 E0.00892
G1 X173.381 Y136.006 E0.09956
G1 X173.385 Y149.880 E0.43501
G1 X173.272 Y150.403 E0.01678
G1 X173.089 Y150.780 E0.01313
G1 X172.816 Y151.122 E0.01373
G1 X172.485 Y151.385 E0.01325
G1 X172.107 Y151.568 E0.01317
G1 X171.584 Y151.682 E0.01678
G1 X70.831 Y151.684 E3.15904
M73 Q1 S174
M73 P1 R171
G1 X70.341 Y151.599 E0.01560
G1 X69.936 Y151.421 E0.01388
G1 X69.537 Y151.114 E0.01578
G1 X69.240 Y150.729 E0.01526
G1 X69.053 Y150.301 E0.01464
G1 X68.973 Y149.826 E0.01511
G1 X68.973 Y92.327 E1.80281
G1 X69.057 Y91.837 E0.01560
G1 X69.235 Y91.432 E0.01388
G1 X69.542 Y91.033 E0.01578
G1 X69.928 Y90.736 E0.01526
G1 X70.356 Y90.549 E0.01464
G1 X70.831 Y90.469 E0.01511
G1 X171.560 Y90.472 E3.15831
G1 X172.021 Y90.554 E0.01468
G1 X172.425 Y90.731 E0.01381
G1 X172.822 Y91.037 E0.01574
G1 X173.107 Y91.400 E0.01445
G1 X173.280 Y91.770 E0.01282
G1 X173.384 Y92.254 E0.01551
G1 X173.382 Y95.672 E0.10717
G1 X173.004 Y95.889 F10800.000
G1 F1200.000
G1 X175.347 Y98.231 E0.10386
G1 X175.431 Y98.360 E0.00484
G1 X175.544 Y98.704 E0.01136
G1 X175.544 Y133.034 E1.07639
G1 X175.431 Y133.379 E0.01136
G1 X175.347 Y133.508 E0.00484
G1 X173.004 Y135.850 E0.10387
G1 X173.008 Y149.859 E0.43923
G1 X172.910 Y150.297 E0.01407
G1 X172.762 Y150.593 E0.01038
G1 X172.562 Y150.843 E0.01003
G1 X172.296 Y151.058 E0.01072
G1 X172.000 Y151.206 E0.01038
G1 X171.563 Y151.305 E0.01407
G1 X70.848 Y151.307 E3.15783
G1 X70.432 Y151.233 E0.01326
G1 X70.114 Y151.088 E0.01095
G1 X69.789 Y150.833 E0.01295
G1 X69.574 Y150.553 E0.01107
G1 X69.420 Y150.211 E0.01176
G1 X69.350 Y149.809 E0.01280
G1 X69.350 Y92.345 E1.80175
G1 X69.424 Y91.928 E0.01326
G1 X69.568 Y91.610 E0.01095
G1 X69.823 Y91.285 E0.01294
G1 X70.103 Y91.070 E0.01107
G1 X70.445 Y90.916 E0.01176
G1 X70.848 Y90.846 E0.01280
G1 X171.543 Y90.849 E3.15722
G1 X171.928 Y90.920 E0.01231
G1 X172.247 Y91.064 E0.01095
G1 X172.571 Y91.319 E0.01292
G1 X172.776 Y91.582 E0.01048
G1 X172.917 Y91.875 E0.01019
