; generated by PrusaSlicer 2.2.0+win64 on 2020-10-16 at 17:02:52 UTC

; 

; external perimeters extrusion width = 0.45mm
; perimeters extrusion width = 0.45mm
; infill extrusion width = 0.45mm
; solid infill extrusion width = 0.45mm
; top infill extrusion width = 0.40mm
; first layer extrusion width = 0.42mm

M73 P0 R73
M73 Q0 S73
M201 X1000 Y1000 Z200 E5000 ; sets maximum accelerations, mm/sec^2
M203 X200 Y200 Z12 E120 ; sets maximum feedrates, mm/sec
M204 P1250 R1250 T1250 ; sets acceleration (P, T) and retract acceleration (R), mm/sec^2
M205 X8.00 Y8.00 Z0.40 E4.50 ; sets the jerk limits, mm/sec
M205 S0 T0 ; sets the minimum extruding and travel feed rate, mm/sec
M107
M862.3 P "MK3S" ; printer model check
M862.1 P0.4 ; nozzle diameter check
M115 U3.9.1 ; tell printer latest fw version
G90 ; use absolute coordinates
M83 ; extruder relative mode
M104 S215 ; set extruder temp
M140 S60 ; set bed temp
M190 S60 ; wait for bed temp
M109 S215 ; wait for extruder temp
G28 W ; home all without mesh bed level
G80 ; mesh bed leveling
G1 Y-3.0 F1000.0 ; go outside print area
G92 E0.0
G1 X60.0 E9.0 F1000.0 ; intro line
M73 Q0 S73
M73 P0 R73
G1 X100.0 E12.5 F1000.0 ; intro line
G92 E0.0
M221 S95

; Don't change E values below. Excessive value can damage the printer.

M907 E538 ; set extruder motor current
G21 ; set units to millimeters
G90 ; use absolute coordinates
M83 ; use relative distances for extrusion
M900 K0.05 ; Filament gcode LA 1.5
M900 K30 ; Filament gcode LA 1.0
;BEFORE_LAYER_CHANGE
G92 E0.0
;0.2


G1 E-0.80000 F2100.00000
G1 Z0.600 F10800.000
;AFTER_LAYER_CHANGE
;0.2
G1 X75.936 Y132.834
G1 Z0.200
G1 E0.80000 F2100.00000
M204 S1000
G1 F1200.000
G1 X76.967 Y132.687 E0.03263
G1 X177.523 Y132.687 E3.15287
G1 X178.626 Y132.854 E0.03499
G1 X179.664 Y133.371 E0.03637
G1 X180.139 Y133.773 E0.01951
G1 X180.543 Y134.256 E0.01975
G1 X181.052 Y135.294 E0.03626
G1 X183.751 Y152.841 E0.55663
G1 X183.741 Y187.828 E1.09701
G1 X183.594 Y188.453 E0.02012
G1 X180.889 Y195.237 E0.22901
G1 X180.334 Y196.116 E0.03259
G1 X179.488 Y196.848 E0.03507
G1 X178.561 Y197.267 E0.03188
G1 X177.531 Y197.414 E0.03263
G1 X76.870 Y197.413 E3.15615
G1 X75.967 Y197.276 E0.02866
G1 X75.179 Y196.949 E0.02676
G1 X74.410 Y196.379 E0.02999
G1 X73.851 Y195.690 E0.02782
G1 X73.434 Y194.767 E0.03176
G1 X73.286 Y193.744 E0.03239
G1 X73.287 Y136.257 E1.80248
G1 X73.426 Y135.361 E0.02842
G1 X73.753 Y134.577 E0.02664
G1 X74.321 Y133.812 E0.02987
G1 X75.010 Y133.253 E0.02782
G1 X75.882 Y132.859 E0.03000
G1 F8640.000
G1 X76.967 Y132.687 E-0.25363
G1 X79.160 Y132.687 E-0.50637
G1 E-0.04000 F2100.00000
G1 Z0.800 F10800.000
G1 X73.098 Y150.259
G1 Z0.200
G1 E0.80000 F2100.00000
G1 F1200.000
G1 X72.573 Y149.728 E0.02341
G1 X71.951 Y148.652 E0.03898
G1 X71.642 Y147.387 E0.04084
G1 X71.675 Y135.834 E0.36221
G1 X71.931 Y134.666 E0.03752
G1 X72.446 Y133.573 E0.03788
G1 X73.193 Y132.626 E0.03781
G1 X74.150 Y131.860 E0.03844
G1 X75.332 Y131.311 E0.04085
G1 X76.676 Y131.052 E0.04291
G1 X177.755 Y131.052 E3.16927
G1 X178.775 Y131.198 E0.03230
G1 X179.753 Y131.533 E0.03242
G1 X181.005 Y132.348 E0.04683
G1 X181.957 Y133.427 E0.04513
G1 X182.574 Y134.683 E0.04386
G1 X182.843 Y136.066 E0.04418
G1 X182.844 Y145.701 E0.30211
G1 F8640.000
G1 X182.844 Y142.409 E-0.76000
G1 E-0.04000 F2100.00000
G1 Z0.800 F10800.000
G1 X182.844 Y148.182
G1 Z0.200
G1 E0.80000 F2100.00000
G1 F1200.000
G1 X182.844 Y148.725 E0.01702
G1 X182.943 Y148.828 E0.00448
G1 X183.397 Y149.299 F10800.000
G1 F1200.000
G1 X184.476 Y150.417 E0.04874
G1 X185.060 Y151.484 E0.03812
G1 X185.384 Y152.830 E0.04341
G1 X185.384 Y187.685 E1.09284
G1 X185.060 Y189.031 E0.04341
G1 X184.476 Y190.098 E0.03812
G1 X182.844 Y191.790 E0.07374
G1 X182.832 Y194.149 E0.07396
G1 X182.630 Y195.244 E0.03490
G1 X182.192 Y196.290 E0.03556
G1 X181.409 Y197.369 E0.04180
G1 X180.320 Y198.257 E0.04407
G1 X179.076 Y198.820 E0.04279
G1 X177.742 Y199.052 E0.04245
G1 X76.757 Y199.052 E3.16632
G1 X75.502 Y198.844 E0.03989
G1 X74.290 Y198.325 E0.04135
G1 X73.262 Y197.545 E0.04044
G1 X72.464 Y196.557 E0.03982
G1 X71.921 Y195.411 E0.03976
G1 X71.660 Y194.113 E0.04151
G1 X71.642 Y188.842 E0.16526
G1 X71.940 Y187.615 E0.03959
G1 X72.350 Y186.796 E0.02873
G1 X73.097 Y185.973 E0.03487
G1 X73.474 Y185.606 F10800.000
G1 F1200.000
G1 X74.229 Y185.102 E0.02847
G1 X75.822 Y184.632 E0.05207
G1 X86.260 Y184.632 E0.32729
G1 X86.260 Y183.455 E0.03690
G1 X75.605 Y183.424 E0.33410
G1 X74.568 Y183.143 E0.03370
G1 X73.474 Y182.487 E0.03997
G1 X73.097 Y182.122 F10800.000
G1 F1200.000
G1 X72.371 Y181.317 E0.03402
G1 X71.735 Y179.864 E0.04971
G1 X71.642 Y179.144 E0.02278
G1 X71.642 Y159.975 E0.60102
G1 X72.167 Y158.285 E0.05549
G1 X72.792 Y157.415 E0.03359
G1 X73.098 Y157.139 E0.01292
G1 X73.475 Y156.797 F10800.000
G1 F1200.000
G1 X73.725 Y156.570 E0.01060
G1 X74.609 Y156.110 E0.03124
G1 X75.592 Y155.841 E0.03197
G1 X83.715 Y155.809 E0.25469
G1 X83.715 Y151.591 E0.13227
G1 X75.522 Y151.549 E0.25691
G1 X74.448 Y151.226 E0.03516
G1 X73.475 Y150.641 E0.03560
G1 X73.475 Y150.107 F10800.000
G1 F1200.000
G1 X73.734 Y150.367 E0.01152
G1 X74.579 Y150.872 E0.03084
G1 X75.604 Y151.180 E0.03358
G1 X84.093 Y151.215 E0.26615
G1 X84.093 Y156.185 E0.15584
G1 X75.668 Y156.211 E0.26415
G1 X74.728 Y156.468 E0.03057
G1 X73.960 Y156.866 E0.02710
G1 X73.475 Y157.306 E0.02054
G1 X73.098 Y157.647 F10800.000
G1 F1200.000
G1 X72.517 Y158.429 E0.03052
G1 X72.019 Y160.005 E0.05182
G1 X72.019 Y179.131 E0.59971
G1 X72.105 Y179.789 E0.02080
G1 X72.672 Y181.089 E0.04446
G1 X73.097 Y181.565 E0.02002
G1 X73.474 Y181.988 F10800.000
G1 F1200.000
G1 X73.590 Y182.117 E0.00543
G1 X74.695 Y182.787 E0.04052
G1 X75.632 Y183.047 E0.03050
G1 X86.638 Y183.079 E0.34508
G1 X86.638 Y185.009 E0.06052
G1 X75.850 Y185.009 E0.33824
G1 X74.365 Y185.454 E0.04860
G1 X73.624 Y185.953 E0.02802
G1 X73.474 Y186.116 E0.00694
G1 X73.097 Y186.528 F10800.000
G1 F1200.000
G1 X72.674 Y186.990 E0.01965
G1 X72.300 Y187.728 E0.02592
G1 X72.019 Y188.865 E0.03674
G1 X72.034 Y194.058 E0.16284
G1 X72.273 Y195.273 E0.03880
G1 X72.773 Y196.339 E0.03694
G1 X73.510 Y197.260 E0.03698
G1 X74.462 Y197.988 E0.03757
G1 X75.587 Y198.476 E0.03847
G1 X76.773 Y198.675 E0.03769
G1 X177.726 Y198.675 E3.16531
G1 X178.988 Y198.453 E0.04017
G1 X180.102 Y197.949 E0.03834
G1 X181.119 Y197.126 E0.04104
G1 X181.854 Y196.123 E0.03898
G1 X182.263 Y195.155 E0.03295
G1 X182.459 Y194.097 E0.03371
G1 X182.467 Y191.790 E0.07234
G1 X182.570 Y191.531 F10800.000
G1 F1200.000
G1 X184.159 Y189.893 E0.07156
G1 X184.700 Y188.916 E0.03500
G1 X185.007 Y187.662 E0.04049
G1 X185.007 Y152.853 E1.09139
G1 X184.700 Y151.599 E0.04049
G1 X184.159 Y150.622 E0.03500
G1 X183.496 Y149.939 E0.02987
G1 X183.042 Y149.471 F10800.000
G1 F1200.000
G1 X182.467 Y148.878 E0.02591
G1 X182.467 Y145.730 E0.09872
G1 F8640.000
G1 X182.467 Y148.878 E-0.72700
G1 X182.566 Y148.981 E-0.03300
G1 E-0.04000 F2100.00000
G1 Z0.800 F10800.000
G1 X182.467 Y143.248
G1 Z0.200
G1 E0.80000 F2100.00000
G1 F1200.000
G1 X182.466 Y136.083 E0.22465
G1 X182.223 Y134.824 E0.04020
G1 X181.656 Y133.655 E0.04073
G1 X180.776 Y132.649 E0.04194
G1 X179.607 Y131.882 E0.04384
G1 X178.703 Y131.569 E0.03000
G1 X177.741 Y131.429 E0.03046
G1 X76.694 Y131.429 E3.16828
M73 Q1 S72
M73 P1 R72
G1 X75.468 Y131.663 E0.03912
G1 X74.366 Y132.170 E0.03802
G1 X73.474 Y132.878 E0.03572
G1 X72.777 Y133.755 E0.03512
G1 X72.295 Y134.768 E0.03518
G1 X72.047 Y135.896 E0.03620
G1 X72.019 Y147.364 E0.35958
G1 X72.310 Y148.534 E0.03780
G1 X72.886 Y149.516 E0.03570
G1 X73.098 Y149.729 E0.00942
G1 X73.475 Y149.578 F10800.000
G1 F1200.000
G1 X73.983 Y150.083 E0.02243
G1 X74.749 Y150.535 E0.02791
G1 X75.685 Y150.811 E0.03058
G1 X84.470 Y150.839 E0.27544
G1 X84.470 Y156.562 E0.17944
G1 X75.743 Y156.581 E0.27361
G1 X74.846 Y156.827 E0.02917
G1 X74.195 Y157.162 E0.02296
G1 X73.475 Y157.815 E0.03046
G1 X73.098 Y158.260 F10800.000
G1 F1200.000
G1 X72.866 Y158.574 E0.01224
G1 X72.396 Y160.034 E0.04810
G1 X72.396 Y179.119 E0.59837
G1 X72.475 Y179.713 E0.01881
G1 X72.974 Y180.860 E0.03921
G1 X73.097 Y180.998 E0.00582
G1 X73.474 Y181.421 F10800.000
G1 F1200.000
G1 X73.852 Y181.845 E0.01779
G1 X74.823 Y182.431 E0.03556
G1 X75.660 Y182.670 E0.02729
G1 X87.015 Y182.703 E0.35603
G1 X87.015 Y185.386 E0.08413
G1 X75.878 Y185.386 E0.34917
G1 X74.504 Y185.806 E0.04506
G1 X73.855 Y186.251 E0.02467
G1 X73.474 Y186.666 E0.01766
G1 X73.097 Y187.077 F10800.000
G1 F1200.000
G1 X72.997 Y187.185 E0.00463
G1 X72.660 Y187.842 E0.02313
G1 X72.396 Y188.888 E0.03384
G1 X72.408 Y194.005 E0.16044
G1 X72.625 Y195.136 E0.03610
G1 X73.083 Y196.123 E0.03412
G1 X73.760 Y196.976 E0.03414
G1 X74.635 Y197.653 E0.03469
G1 X75.674 Y198.109 E0.03557
G1 X76.789 Y198.297 E0.03546
G1 X177.710 Y198.297 E3.16430
G1 X178.856 Y198.099 E0.03647
G1 X179.885 Y197.639 E0.03536
G1 X180.831 Y196.881 E0.03799
G1 X181.515 Y195.955 E0.03611
G1 X181.907 Y195.027 E0.03157
G1 X182.084 Y194.047 E0.03123
G1 X182.087 Y192.741 E0.04095
G1 F8640.000
G1 X182.084 Y194.047 E-0.30158
G1 X181.907 Y195.027 E-0.23002
G1 X181.522 Y195.939 E-0.22840
G1 E-0.04000 F2100.00000
G1 Z0.800 F10800.000
G1 X182.090 Y191.717
G1 Z0.200
G1 E0.80000 F2100.00000
G1 F1200.000
G1 X182.090 Y191.483 E0.00734
G1 X182.247 Y191.322 E0.00705
G1 X182.934 Y190.618 F10800.000
G1 F1200.000
G1 X183.843 Y189.686 E0.04081
G1 X184.340 Y188.800 E0.03187
G1 X184.630 Y187.638 E0.03752
G1 X184.630 Y152.877 E1.08992
G1 X184.340 Y151.716 E0.03752
G1 X183.843 Y150.829 E0.03187
G1 X183.593 Y150.573 E0.01120
G1 X183.140 Y150.109 F10800.000
G1 F1200.000
G1 X182.090 Y149.032 E0.04717
G1 X182.089 Y143.277 E0.18044
G1 F8640.000
G1 X182.090 Y146.569 E-0.76000
G1 E-0.04000 F2100.00000
G1 Z0.800 F10800.000
G1 X182.089 Y140.796
G1 Z0.200
G1 E0.80000 F2100.00000
G1 F1200.000
G1 X182.089 Y136.101 E0.14720
G1 X181.873 Y134.965 E0.03627
G1 X181.354 Y133.882 E0.03762
G1 X180.546 Y132.948 E0.03873
G1 X179.461 Y132.230 E0.04080
G1 X178.596 Y131.931 E0.02868
G1 X177.728 Y131.806 E0.02751
G1 X76.711 Y131.806 E3.16731
G1 X75.603 Y132.016 E0.03536
G1 X74.581 Y132.481 E0.03521
G1 X73.755 Y133.130 E0.03294
G1 X73.086 Y133.972 E0.03372
G1 X72.646 Y134.908 E0.03244
G1 X72.420 Y135.955 E0.03358
G1 X72.396 Y147.341 E0.35698
G1 X72.669 Y148.414 E0.03472
G1 X73.098 Y149.136 E0.02634
G1 X73.475 Y149.034 F10800.000
G1 F1200.000
G1 X73.507 Y149.086 E0.00192
G1 X74.229 Y149.796 E0.03177
G1 X74.918 Y150.197 E0.02498
G1 X75.764 Y150.441 E0.02760
G1 X84.847 Y150.462 E0.28479
G1 X84.847 Y156.938 E0.20305
G1 X75.818 Y156.952 E0.28307
G1 X74.965 Y157.185 E0.02773
G1 X74.392 Y157.485 E0.02028
G1 X73.593 Y158.216 E0.03395
G1 X73.475 Y158.374 E0.00621
G1 X73.098 Y159.078 F10800.000
G1 F1200.000
G1 X72.773 Y160.065 E0.03259
G1 X72.773 Y179.106 E0.59701
G1 X72.845 Y179.635 E0.01676
G1 X73.097 Y180.206 E0.01957
G1 X73.474 Y180.865 F10800.000
G1 F1200.000
G1 X74.112 Y181.570 E0.02979
G1 X74.993 Y182.094 E0.03214
G1 X75.735 Y182.300 E0.02417
G1 X87.392 Y182.327 E0.36548
G1 X87.392 Y185.763 E0.10775
G1 X75.907 Y185.763 E0.36008
G1 X74.646 Y186.157 E0.04144
G1 X74.089 Y186.548 E0.02133
G1 X73.474 Y187.215 E0.02845
G1 X73.097 Y187.809 F10800.000
G1 F1200.000
G1 X73.020 Y187.958 E0.00526
G1 X72.773 Y188.912 E0.03091
G1 X72.781 Y193.953 E0.15806
G1 X72.978 Y195.001 E0.03342
G1 X73.392 Y195.907 E0.03125
G1 X74.040 Y196.723 E0.03267
G1 X74.845 Y197.339 E0.03177
G1 X75.802 Y197.753 E0.03269
G1 X76.804 Y197.920 E0.03186
G1 X177.694 Y197.920 E3.16333
G1 X178.726 Y197.745 E0.03282
G1 X179.669 Y197.329 E0.03232
G1 X180.576 Y196.603 E0.03643
G1 X181.177 Y195.786 E0.03179
G1 X181.540 Y194.939 E0.02890
G1 X181.710 Y193.997 E0.03002
G1 X181.711 Y193.686 E0.00975
G1 F8640.000
G1 X181.710 Y193.997 E-0.07179
G1 X181.540 Y194.939 E-0.22111
G1 X181.177 Y195.786 E-0.21284
G1 X180.576 Y196.603 E-0.23409
G1 X180.508 Y196.657 E-0.02017
G1 E-0.04000 F2100.00000
G1 Z0.800 F10800.000
G1 X181.712 Y192.665
G1 Z0.200
G1 E0.80000 F2100.00000
G1 F1200.000
G1 X181.713 Y191.329 E0.04190
G1 X182.609 Y190.415 E0.04012
G1 X183.293 Y189.717 F10800.000
G1 F1200.000
G1 X183.528 Y189.478 E0.01050
G1 X183.981 Y188.681 E0.02875
G1 X184.253 Y187.614 E0.03451
G1 X184.253 Y152.901 E1.08842
G1 X183.981 Y151.834 E0.03451
G1 X183.715 Y151.367 E0.01685
G1 X183.238 Y150.742 F10800.000
G1 F1200.000
G1 X181.713 Y149.186 E0.06830
G1 X181.712 Y140.825 E0.26217
G1 F8640.000
G1 X181.712 Y144.116 E-0.76000
G1 E-0.04000 F2100.00000
G1 Z0.800 F10800.000
G1 X181.712 Y138.343
G1 Z0.200
G1 E0.80000 F2100.00000
G1 F1200.000
G1 X181.712 Y136.118 E0.06976
G1 X181.521 Y135.103 E0.03239
G1 X181.051 Y134.108 E0.03452
G1 X180.314 Y133.247 E0.03553
G1 X179.313 Y132.578 E0.03775
G1 X178.524 Y132.301 E0.02623
G1 X177.714 Y132.183 E0.02565
G1 X76.729 Y132.183 E3.16631
G1 X75.697 Y132.382 E0.03297
G1 X74.795 Y132.792 E0.03106
G1 X74.035 Y133.384 E0.03020
G1 X73.416 Y134.154 E0.03098
G1 X73.010 Y135.009 E0.02969
G1 X72.793 Y136.015 E0.03226
G1 X72.773 Y147.317 E0.35435
G1 X73.026 Y148.291 E0.03158
G1 X73.098 Y148.410 E0.00434
G1 X73.475 Y148.316 F10800.000
G1 F1200.000
G1 X73.815 Y148.868 E0.02032
G1 X74.474 Y149.509 E0.02883
G1 X75.084 Y149.858 E0.02203
G1 X75.841 Y150.072 E0.02465
G1 X85.224 Y150.086 E0.29420
G1 X85.224 Y157.315 E0.22668
G1 X75.894 Y157.322 E0.29254
G1 X75.086 Y157.543 E0.02626
G1 X74.592 Y157.806 E0.01754
G1 X73.861 Y158.482 E0.03121
G1 X73.561 Y158.873 E0.01546
G1 X73.475 Y159.131 E0.00852
G1 F8640.000
G1 X73.561 Y158.873 E-0.06271
G1 X73.861 Y158.482 E-0.11386
G1 X74.592 Y157.806 E-0.22985
G1 X75.086 Y157.543 E-0.12917
G1 X75.894 Y157.322 E-0.19342
G1 X76.028 Y157.322 E-0.03099
G1 E-0.04000 F2100.00000
G1 Z0.800 F10800.000
G1 X73.474 Y180.134
G1 Z0.200
G1 E0.80000 F2100.00000
G1 F1200.000
G1 X73.637 Y180.496 E0.01243
G1 X74.369 Y181.293 E0.03394
G1 X75.160 Y181.755 E0.02872
G1 X75.809 Y181.930 E0.02107
G1 X87.769 Y181.950 E0.37500
G1 X87.769 Y186.140 E0.13138
G1 X75.937 Y186.140 E0.37097
G1 X74.790 Y186.506 E0.03774
G1 X74.326 Y186.842 E0.01797
G1 X73.641 Y187.581 E0.03162
G1 X73.474 Y187.895 E0.01113
G1 F8640.000
G1 X73.641 Y187.581 E-0.08198
G1 X74.326 Y186.842 E-0.23284
G1 X74.790 Y186.506 E-0.13234
G1 X75.937 Y186.140 E-0.27793
G1 X76.088 Y186.140 E-0.03491
G1 E-0.04000 F2100.00000
G1 Z0.800 F10800.000
G1 X181.336 Y193.607
G1 Z0.200
G1 E0.80000 F2100.00000
G1 F1200.000
G1 X181.336 Y191.174 E0.07629
G1 X182.966 Y189.519 E0.07284
G1 F8640.000
G1 X181.336 Y191.174 E-0.53640
G1 X181.336 Y192.142 E-0.22360
G1 E-0.04000 F2100.00000
G1 Z0.800 F10800.000
G1 X183.352 Y151.487
G1 Z0.200
G1 E0.80000 F2100.00000
G1 F1200.000
G1 X183.214 Y151.248 E0.00866
G1 X181.336 Y149.341 E0.08392
G1 X181.335 Y138.372 E0.34393
G1 F8640.000
G1 X181.335 Y141.663 E-0.76000
G1 E-0.04000 F2100.00000
G1 Z0.800 F10800.000
G1 X180.959 Y149.496
G1 Z0.200
G1 E0.80000 F2100.00000
G1 F1200.000
G1 X182.902 Y151.460 E0.08662
G1 X183.266 Y152.078 E0.02249
G1 X183.499 Y152.951 E0.02831
G1 X183.499 Y187.565 E1.08530
G1 X183.266 Y188.437 E0.02831
G1 X182.902 Y189.055 E0.02249
G1 X180.959 Y191.019 E0.08660
G1 X180.959 Y193.932 E0.09135
G1 X180.828 Y194.685 E0.02396
G1 X180.522 Y195.413 E0.02478
G1 X180.031 Y196.082 E0.02600
G1 X179.277 Y196.685 E0.03028
G1 X178.508 Y197.022 E0.02632
G1 X177.662 Y197.166 E0.02691
G1 X76.836 Y197.166 E3.16131
G1 X75.976 Y197.018 E0.02737
G1 X75.194 Y196.669 E0.02685
G1 X74.542 Y196.158 E0.02600
G1 X74.016 Y195.481 E0.02688
G1 X73.685 Y194.735 E0.02558
G1 X73.536 Y193.918 E0.02604
G1 X73.527 Y188.962 E0.15540
G1 X73.736 Y188.198 E0.02484
G1 X73.960 Y187.783 E0.01478
G1 X74.587 Y187.114 E0.02877
G1 X74.985 Y186.830 E0.01531
G1 X75.966 Y186.518 E0.03230
G1 X88.146 Y186.518 E0.38188
G1 X88.146 Y181.574 E0.15502
G1 X75.880 Y181.559 E0.38460
G1 X75.324 Y181.415 E0.01799
G1 X74.624 Y181.014 E0.02529
G1 X73.966 Y180.310 E0.03021
G1 X73.584 Y179.475 E0.02879
G1 X73.528 Y179.079 E0.01255
G1 X73.528 Y160.127 E0.59422
M73 Q2 S71
M73 P2 R71
G1 X73.881 Y159.076 E0.03476
G1 X74.131 Y158.745 E0.01301
G1 X74.793 Y158.125 E0.02845
G1 X75.207 Y157.901 E0.01474
G1 X75.969 Y157.693 E0.02477
G1 X85.601 Y157.693 E0.30201
G1 X85.601 Y149.709 E0.25032
G1 X75.918 Y149.702 E0.30359
