; generated by PrusaSlicer 2.2.0+win64 on 2020-10-16 at 12:49:40 UTC

; 

; external perimeters extrusion width = 0.45mm
; perimeters extrusion width = 0.45mm
; infill extrusion width = 0.45mm
; solid infill extrusion width = 0.45mm
; top infill extrusion width = 0.40mm
; first layer extrusion width = 0.42mm

M73 P0 R103
M73 Q0 S105
M201 X1000 Y1000 Z200 E5000 ; sets maximum accelerations, mm/sec^2
M203 X200 Y200 Z12 E120 ; sets maximum feedrates, mm/sec
M204 P1250 R1250 T1250 ; sets acceleration (P, T) and retract acceleration (R), mm/sec^2
M205 X8.00 Y8.00 Z0.40 E4.50 ; sets the jerk limits, mm/sec
M205 S0 T0 ; sets the minimum extruding and travel feed rate, mm/sec
M107
M862.3 P "MK3S" ; printer model check
M862.1 P0.4 ; nozzle diameter check
M115 U3.9.1 ; tell printer latest fw version
G90 ; use absolute coordinates
M83 ; extruder relative mode
M104 S215 ; set extruder temp
M140 S60 ; set bed temp
M190 S60 ; wait for bed temp
M109 S215 ; wait for extruder temp
G28 W ; home all without mesh bed level
G80 ; mesh bed leveling
G1 Y-3.0 F1000.0 ; go outside print area
G92 E0.0
G1 X60.0 E9.0 F1000.0 ; intro line
M73 Q0 S105
M73 P0 R103
G1 X100.0 E12.5 F1000.0 ; intro line
G92 E0.0
M221 S95

; Don't change E values below. Excessive value can damage the printer.

M907 E538 ; set extruder motor current
G21 ; set units to millimeters
G90 ; use absolute coordinates
M83 ; use relative distances for extrusion
M900 K0.05 ; Filament gcode LA 1.5
M900 K30 ; Filament gcode LA 1.0
;BEFORE_LAYER_CHANGE
G92 E0.0
;0.2


G1 E-0.80000 F2100.00000
G1 Z0.600 F10800.000
;AFTER_LAYER_CHANGE
;0.2
G1 X72.417 Y72.783
G1 Z0.200
G1 E0.80000 F2100.00000
M204 S1000
G1 F1200.000
G1 X73.448 Y72.637 E0.03263
G1 X174.004 Y72.637 E3.15287
G1 X174.964 Y72.762 E0.03037
G1 X175.757 Y73.078 E0.02675
G1 X176.543 Y73.648 E0.03046
G1 X177.099 Y74.316 E0.02723
G1 X177.420 Y74.927 E0.02165
G1 X180.072 Y81.589 E0.22482
G1 X180.232 Y82.377 E0.02520
G1 X180.226 Y117.322 E1.09569
G1 X177.616 Y134.436 E0.54280
G1 X177.404 Y135.110 E0.02217
G1 X177.047 Y135.763 E0.02332
G1 X176.580 Y136.317 E0.02272
G1 X175.969 Y136.798 E0.02438
G1 X175.042 Y137.217 E0.03188
G1 X174.012 Y137.363 E0.03263
G1 X73.352 Y137.363 E3.15615
G1 X72.448 Y137.225 E0.02866
G1 X71.659 Y136.898 E0.02676
G1 X70.891 Y136.328 E0.02999
G1 X70.332 Y135.639 E0.02782
G1 X69.915 Y134.716 E0.03176
G1 X69.767 Y133.694 E0.03239
G1 X69.768 Y76.206 E1.80248
G1 X69.907 Y75.310 E0.02842
G1 X70.234 Y74.526 E0.02664
G1 X70.805 Y73.759 E0.02999
G1 X71.491 Y73.202 E0.02770
G1 X72.363 Y72.808 E0.03000
G1 F8640.000
G1 X73.448 Y72.637 E-0.25363
G1 X75.641 Y72.637 E-0.50637
G1 E-0.04000 F2100.00000
G1 Z0.800 F10800.000
G1 X174.259 Y71.002
G1 Z0.200
G1 E0.80000 F2100.00000
G1 F1200.000
G1 X73.236 Y70.999 E3.16749
G1 X71.849 Y71.247 E0.04416
G1 X70.625 Y71.814 E0.04231
G1 X69.632 Y72.617 E0.04005
G1 X68.853 Y73.646 E0.04046
G1 X68.335 Y74.857 E0.04130
G1 X68.129 Y76.109 E0.03977
G1 X68.129 Y133.894 E1.81182
G1 X68.377 Y135.280 E0.04416
G1 X68.944 Y136.505 E0.04231
G1 X69.747 Y137.498 E0.04006
G1 X70.776 Y138.277 E0.04046
G1 X71.987 Y138.795 E0.04130
G1 X73.239 Y139.001 E0.03977
G1 X174.303 Y138.999 E3.16880
G1 X175.646 Y138.740 E0.04289
G1 X176.828 Y138.191 E0.04086
G1 X177.773 Y137.438 E0.03789
G1 X178.512 Y136.512 E0.03714
G1 X179.049 Y135.379 E0.03931
G1 X179.310 Y134.169 E0.03880
G1 X179.321 Y124.507 E0.30293
G1 F8640.000
G1 X179.317 Y127.799 E-0.76000
G1 E-0.04000 F2100.00000
G1 Z0.800 F10800.000
G1 X179.324 Y121.986
G1 Z0.200
G1 E0.80000 F2100.00000
G1 F1200.000
G1 X179.325 Y121.326 E0.02071
G1 X179.444 Y121.203 E0.00536
G1 X179.897 Y120.733 F10800.000
G1 F1200.000
G1 X180.957 Y119.633 E0.04790
G1 X181.541 Y118.566 E0.03812
G1 X181.865 Y117.220 E0.04341
G1 X181.865 Y82.366 E1.09284
G1 X181.541 Y81.020 E0.04341
G1 X180.957 Y79.953 E0.03812
G1 X179.322 Y78.258 E0.07384
G1 X179.297 Y75.718 E0.07963
G1 X179.013 Y74.514 E0.03879
G1 X178.490 Y73.454 E0.03704
G1 X177.683 Y72.474 E0.03982
G1 X176.652 Y71.704 E0.04034
G1 X175.490 Y71.210 E0.03959
G1 X174.259 Y71.002 E0.03917
G1 F8640.000
G1 X175.490 Y71.210 E-0.28847
G1 X176.652 Y71.704 E-0.29159
G1 X177.277 Y72.171 E-0.17994
G1 E-0.04000 F2100.00000
G1 Z0.800 F10800.000
G1 X178.945 Y78.248
G1 Z0.200
G1 E0.80000 F2100.00000
G1 F1200.000
G1 X178.925 Y75.782 E0.07732
G1 X178.665 Y74.659 E0.03614
G1 X178.184 Y73.675 E0.03434
G1 X177.438 Y72.761 E0.03700
G1 X176.482 Y72.042 E0.03751
G1 X175.404 Y71.578 E0.03679
G1 X174.242 Y71.379 E0.03696
G1 X73.252 Y71.376 E3.16647
G1 X71.984 Y71.600 E0.04037
G1 X70.842 Y72.123 E0.03938
G1 X69.917 Y72.865 E0.03718
G1 X69.189 Y73.818 E0.03759
G1 X68.703 Y74.942 E0.03842
G1 X68.506 Y76.125 E0.03757
G1 X68.506 Y133.878 E1.81082
G1 X68.730 Y135.146 E0.04037
G1 X69.253 Y136.288 E0.03938
G1 X69.995 Y137.213 E0.03718
G1 X70.948 Y137.941 E0.03759
G1 X72.072 Y138.427 E0.03842
G1 X73.255 Y138.624 E0.03758
G1 X174.285 Y138.622 E3.16775
G1 X175.510 Y138.387 E0.03910
G1 X176.613 Y137.881 E0.03805
G1 X177.492 Y137.185 E0.03516
G1 X178.204 Y136.293 E0.03577
G1 X178.686 Y135.277 E0.03528
G1 X178.933 Y134.148 E0.03624
G1 X178.941 Y126.999 E0.22414
G1 F8640.000
G1 X178.937 Y130.291 E-0.76000
G1 E-0.04000 F2100.00000
G1 Z0.800 F10800.000
G1 X178.944 Y124.478
G1 Z0.200
G1 E0.80000 F2100.00000
G1 F1200.000
G1 X178.948 Y121.172 E0.10366
G1 X179.542 Y120.560 E0.02673
G1 X179.994 Y120.094 F10800.000
G1 F1200.000
G1 X180.640 Y119.428 E0.02908
G1 X181.181 Y118.452 E0.03500
G1 X181.488 Y117.197 E0.04049
G1 X181.488 Y82.389 E1.09139
G1 X181.181 Y81.134 E0.04049
G1 X180.640 Y80.158 E0.03500
G1 X179.055 Y78.524 E0.07139
G1 X178.732 Y78.732 F10800.000
G1 F1200.000
G1 X178.570 Y78.567 E0.00726
G1 X178.569 Y78.322 E0.00766
G1 F8640.000
G1 X178.570 Y78.567 E-0.05645
G1 X178.732 Y78.732 E-0.05347
G1 E-0.69008 F2100.00000
G1 Z0.800 F10800.000
G1 X178.562 Y77.286
G1 Z0.200
G1 E0.80000 F2100.00000
G1 F1200.000
G1 X178.552 Y75.845 E0.04515
G1 X178.315 Y74.803 E0.03351
G1 X177.877 Y73.895 E0.03164
G1 X177.191 Y73.047 E0.03419
G1 X176.310 Y72.378 E0.03469
G1 X175.317 Y71.945 E0.03397
G1 X174.226 Y71.756 E0.03471
G1 X73.268 Y71.753 E3.16546
M73 Q1 S104
M73 P1 R102
G1 X72.117 Y71.953 E0.03663
G1 X71.058 Y72.433 E0.03647
G1 X70.201 Y73.114 E0.03431
G1 X69.525 Y73.991 E0.03471
G1 X69.071 Y75.029 E0.03553
G1 X68.883 Y76.140 E0.03536
G1 X68.883 Y133.862 E1.80981
G1 X69.083 Y135.013 E0.03662
G1 X69.563 Y136.072 E0.03647
G1 X70.244 Y136.929 E0.03431
G1 X71.121 Y137.605 E0.03471
G1 X72.159 Y138.059 E0.03553
G1 X73.271 Y138.247 E0.03536
G1 X174.268 Y138.245 E3.16670
G1 X175.375 Y138.035 E0.03534
G1 X176.398 Y137.570 E0.03524
G1 X177.213 Y136.931 E0.03244
G1 X177.873 Y136.112 E0.03300
G1 X178.335 Y135.135 E0.03387
G1 X178.560 Y134.089 E0.03357
G1 X178.564 Y129.474 E0.14469
G1 F8640.000
G1 X178.561 Y132.765 E-0.76000
G1 E-0.04000 F2100.00000
G1 Z0.800 F10800.000
G1 X178.566 Y126.958
G1 Z0.200
G1 E0.80000 F2100.00000
G1 F1200.000
G1 X178.571 Y121.018 E0.18624
G1 X179.639 Y119.924 E0.04794
G1 X180.091 Y119.460 F10800.000
G1 F1200.000
G1 X180.324 Y119.221 E0.01046
G1 X180.821 Y118.335 E0.03187
G1 X181.111 Y117.174 E0.03752
G1 X181.111 Y82.412 E1.08992
G1 X180.821 Y81.251 E0.03752
G1 X180.324 Y80.365 E0.03187
G1 X179.418 Y79.435 E0.04069
G1 X179.092 Y79.638 F10800.000
G1 F1200.000
G1 X178.194 Y78.722 E0.04025
G1 X178.187 Y77.364 E0.04257
G1 F8640.000
G1 X178.194 Y78.722 E-0.31353
G1 X179.092 Y79.638 E-0.29644
G1 E-0.19002 F2100.00000
G1 Z0.800 F10800.000
G1 X178.182 Y76.331
G1 Z0.200
G1 E0.80000 F2100.00000
G1 F1200.000
G1 X178.180 Y75.907 E0.01330
G1 X177.966 Y74.946 E0.03089
G1 X177.568 Y74.113 E0.02894
G1 X176.943 Y73.332 E0.03138
G1 X176.138 Y72.714 E0.03181
G1 X175.187 Y72.300 E0.03251
G1 X174.210 Y72.133 E0.03108
G1 X73.285 Y72.130 E3.16444
G1 X72.206 Y72.320 E0.03434
G1 X71.274 Y72.743 E0.03209
G1 X70.454 Y73.394 E0.03284
G1 X69.839 Y74.200 E0.03179
G1 X69.426 Y75.156 E0.03266
G1 X69.260 Y76.156 E0.03176
G1 X69.260 Y133.845 E1.80881
G1 X69.450 Y134.924 E0.03433
G1 X69.873 Y135.856 E0.03209
G1 X70.524 Y136.676 E0.03284
G1 X71.330 Y137.291 E0.03179
G1 X72.286 Y137.704 E0.03266
G1 X73.286 Y137.870 E0.03176
G1 X174.250 Y137.868 E3.16565
G1 X175.282 Y137.669 E0.03296
G1 X176.184 Y137.259 E0.03106
G1 X176.962 Y136.648 E0.03103
G1 X177.564 Y135.895 E0.03024
G1 X177.984 Y134.996 E0.03110
G1 X178.187 Y134.031 E0.03093
G1 X178.188 Y131.939 E0.06559
G1 F8640.000
G1 X178.187 Y134.031 E-0.48305
G1 X177.984 Y134.996 E-0.22777
G1 X177.894 Y135.189 E-0.04918
G1 E-0.04000 F2100.00000
G1 Z0.800 F10800.000
G1 X178.189 Y129.428
G1 Z0.200
G1 E0.80000 F2100.00000
G1 F1200.000
G1 X178.194 Y120.864 E0.26852
G1 X179.735 Y119.292 E0.06902
G1 X180.214 Y118.653 F10800.000
G1 F1200.000
G1 X180.462 Y118.216 E0.01574
G1 X180.734 Y117.150 E0.03451
G1 X180.734 Y82.436 E1.08842
G1 X180.462 Y81.370 E0.03451
G1 X180.009 Y80.573 E0.02875
G1 X179.776 Y80.335 E0.01043
G1 X179.449 Y80.533 F10800.000
G1 F1200.000
G1 X177.817 Y78.877 E0.07290
G1 X177.809 Y76.413 E0.07724
G1 F8640.000
G1 X177.817 Y78.877 E-0.56884
G1 X178.398 Y79.467 E-0.19116
G1 E-0.04000 F2100.00000
G1 Z0.800 F10800.000
G1 X179.851 Y118.534
G1 Z0.200
G1 E0.80000 F2100.00000
G1 F1200.000
G1 X179.695 Y118.803 E0.00975
G1 X177.817 Y120.709 E0.08391
G1 X177.814 Y131.889 E0.35053
G1 F8640.000
G1 X177.815 Y128.597 E-0.76000
G1 E-0.04000 F2100.00000
G1 Z0.800 F10800.000
G1 X177.440 Y120.554
G1 Z0.200
G1 E0.80000 F2100.00000
G1 F1200.000
G1 X177.440 Y133.919 E0.41905
G1 X177.280 Y134.723 E0.02571
G1 X176.944 Y135.463 E0.02547
G1 X176.432 Y136.112 E0.02591
G1 X175.758 Y136.635 E0.02676
G1 X175.055 Y136.950 E0.02416
G1 X174.213 Y137.114 E0.02687
G1 X73.317 Y137.116 E3.16354
G1 X72.500 Y136.981 E0.02596
G1 X71.713 Y136.641 E0.02689
G1 X71.054 Y136.138 E0.02599
G1 X70.517 Y135.464 E0.02702
G1 X70.171 Y134.702 E0.02623
G1 X70.014 Y133.812 E0.02833
G1 X70.014 Y76.187 E1.80681
G1 X70.149 Y75.370 E0.02596
G1 X70.489 Y74.583 E0.02689
G1 X70.992 Y73.924 E0.02599
G1 X71.666 Y73.387 E0.02702
G1 X72.428 Y73.041 E0.02623
G1 X73.318 Y72.884 E0.02833
G1 X174.178 Y72.887 E3.16240
G1 X174.971 Y73.022 E0.02521
G1 X175.752 Y73.362 E0.02670
G1 X176.443 Y73.898 E0.02744
G1 X176.948 Y74.543 E0.02568
G1 X177.264 Y75.225 E0.02355
G1 X177.434 Y76.026 E0.02569
G1 X177.440 Y79.032 E0.09426
G1 X179.383 Y80.996 E0.08660
G1 X179.747 Y81.614 E0.02249
G1 X179.980 Y82.486 E0.02831
G1 X179.980 Y117.100 E1.08530
G1 X179.747 Y117.972 E0.02831
G1 X179.383 Y118.590 E0.02249
G1 X177.482 Y120.511 E0.08473
G1 F8640.000
G1 X177.472 Y123.803 E-0.76000
G1 E-0.04000 F2100.00000
G1 Z0.800 F10800.000
G1 X177.063 Y79.188
G1 Z0.200
G1 E0.80000 F2100.00000
G1 F1200.000
G1 X179.072 Y81.210 E0.08938
G1 X179.391 Y81.740 E0.01938
G1 X179.602 Y82.512 E0.02510
G1 X179.602 Y117.074 E1.08368
G1 X179.391 Y117.846 E0.02510
G1 X179.072 Y118.376 E0.01938
G1 X177.063 Y120.399 E0.08939
G1 X177.067 Y133.864 E0.42220
G1 X176.914 Y134.629 E0.02445
G1 X176.632 Y135.249 E0.02138
G1 X176.180 Y135.830 E0.02308
G1 X175.580 Y136.302 E0.02392
G1 X174.959 Y136.584 E0.02141
G1 X174.194 Y136.736 E0.02443
G1 X73.333 Y136.739 E3.16244
G1 X72.587 Y136.613 E0.02373
G1 X71.887 Y136.305 E0.02397
G1 X71.304 Y135.855 E0.02310
G1 X70.829 Y135.250 E0.02411
G1 X70.526 Y134.571 E0.02333
G1 X70.391 Y133.797 E0.02463
G1 X70.391 Y76.203 E1.80581
M73 Q2 S103
M73 P2 R101
G1 X70.517 Y75.457 E0.02373
G1 X70.825 Y74.757 E0.02397
G1 X71.275 Y74.174 E0.02310
G1 X71.880 Y73.699 E0.02411
G1 X72.559 Y73.396 E0.02333
G1 X73.333 Y73.261 E0.02463
G1 X174.161 Y73.264 E3.16139
G1 X174.882 Y73.390 E0.02294
G1 X175.576 Y73.697 E0.02380
G1 X176.191 Y74.179 E0.02450
G1 X176.635 Y74.756 E0.02282
G1 X176.912 Y75.361 E0.02086
G1 X177.061 Y76.083 E0.02312
G1 X177.063 Y79.128 E0.09547
G1 X176.686 Y79.344 F10800.000
G1 F1200.000
G1 X178.763 Y81.428 E0.09227
G1 X179.036 Y81.869 E0.01627
G1 X179.225 Y82.539 E0.02182
G1 X179.225 Y117.047 E1.08199
G1 X179.036 Y117.717 E0.02182
G1 X178.763 Y118.158 E0.01627
G1 X176.686 Y120.243 E0.09227
G1 X176.689 Y133.845 E0.42648
G1 X176.550 Y134.531 E0.02195
G1 X176.300 Y135.070 E0.01863
G1 X175.898 Y135.579 E0.02032
G1 X175.401 Y135.969 E0.01981
G1 X174.861 Y136.219 E0.01868
G1 X174.175 Y136.359 E0.02194
G1 X73.349 Y136.361 E3.16132
G1 X72.675 Y136.245 E0.02146
G1 X72.063 Y135.971 E0.02103
G1 X71.556 Y135.574 E0.02021
G1 X71.142 Y135.039 E0.02119
G1 X70.880 Y134.442 E0.02045
G1 X70.769 Y133.781 E0.02100
G1 X70.769 Y76.219 E1.80481
G1 X70.885 Y75.545 E0.02146
G1 X71.159 Y74.933 E0.02103
G1 X71.556 Y74.426 E0.02021
G1 X72.091 Y74.012 E0.02119
G1 X72.688 Y73.750 E0.02045
G1 X73.349 Y73.639 E0.02101
G1 X174.144 Y73.641 E3.16037
G1 X174.792 Y73.757 E0.02063
G1 X175.399 Y74.030 E0.02087
G1 X175.937 Y74.459 E0.02156
G1 X176.321 Y74.965 E0.01995
G1 X176.559 Y75.495 E0.01818
G1 X176.688 Y76.138 E0.02058
G1 X176.686 Y79.284 E0.09863
G1 X176.309 Y79.500 F10800.000
G1 F1200.000
G1 X178.457 Y81.648 E0.09527
G1 X178.682 Y82.003 E0.01318
G1 X178.848 Y82.567 E0.01842
G1 X178.848 Y117.019 E1.08023
G1 X178.682 Y117.583 E0.01842
G1 X178.457 Y117.938 E0.01318
G1 X176.308 Y120.086 E0.09527
G1 X176.312 Y133.825 E0.43076
G1 X176.185 Y134.430 E0.01940
G1 X175.969 Y134.889 E0.01590
G1 X175.646 Y135.298 E0.01634
G1 X175.219 Y135.638 E0.01711
G1 X174.760 Y135.855 E0.01591
G1 X174.155 Y135.982 E0.01940
G1 X73.365 Y135.984 E3.16021
G1 X72.804 Y135.890 E0.01782
G1 X72.274 Y135.658 E0.01816
G1 X71.836 Y135.321 E0.01730
G1 X71.476 Y134.862 E0.01829
G1 X71.248 Y134.353 E0.01751
G1 X71.146 Y133.765 E0.01872
G1 X71.146 Y76.235 E1.80381
G1 X71.240 Y75.674 E0.01782
G1 X71.472 Y75.144 E0.01816
G1 X71.809 Y74.707 E0.01730
G1 X72.268 Y74.346 E0.01829
G1 X72.777 Y74.118 E0.01751
G1 X73.366 Y74.016 E0.01872
G1 X174.127 Y74.018 E3.15930
G1 X174.701 Y74.123 E0.01831
G1 X175.185 Y74.341 E0.01663
G1 X175.653 Y74.709 E0.01867
G1 X175.988 Y75.143 E0.01719
G1 X176.194 Y75.593 E0.01551
G1 X176.311 Y76.158 E0.01808
G1 X176.309 Y79.440 E0.10292
G1 X175.931 Y79.656 F10800.000
G1 F1200.000
G1 X178.177 Y81.901 E0.09955
G1 X178.331 Y82.141 E0.00892
G1 X178.471 Y82.596 E0.01496
G1 X178.471 Y116.990 E1.07838
G1 X178.331 Y117.445 E0.01496
G1 X178.177 Y117.685 E0.00892
G1 X175.931 Y119.930 E0.09956
G1 X175.935 Y133.804 E0.43501
G1 X175.822 Y134.327 E0.01678
G1 X175.639 Y134.704 E0.01313
G1 X175.366 Y135.045 E0.01373
G1 X175.035 Y135.309 E0.01325
G1 X174.657 Y135.492 E0.01317
G1 X174.134 Y135.605 E0.01678
G1 X73.381 Y135.607 E3.15904
G1 X72.891 Y135.523 E0.01560
G1 X72.485 Y135.345 E0.01388
G1 X72.087 Y135.038 E0.01578
G1 X71.790 Y134.652 E0.01526
G1 X71.603 Y134.224 E0.01464
G1 X71.523 Y133.749 E0.01511
G1 X71.523 Y76.251 E1.80281
G1 X71.607 Y75.761 E0.01560
G1 X71.785 Y75.355 E0.01388
G1 X72.092 Y74.957 E0.01578
G1 X72.478 Y74.660 E0.01526
G1 X72.906 Y74.473 E0.01464
G1 X73.381 Y74.393 E0.01511
G1 X174.110 Y74.395 E3.15831
G1 X174.571 Y74.478 E0.01468
G1 X174.974 Y74.655 E0.01381
G1 X175.372 Y74.961 E0.01574
G1 X175.657 Y75.324 E0.01445
G1 X175.830 Y75.694 E0.01282
G1 X175.933 Y76.178 E0.01551
G1 X175.932 Y79.596 E0.10717
G1 X175.554 Y79.812 F10800.000
G1 F1200.000
G1 X177.897 Y82.154 E0.10386
G1 X177.981 Y82.284 E0.00484
G1 X178.094 Y82.628 E0.01136
G1 X178.094 Y116.958 E1.07639
G1 X177.981 Y117.302 E0.01136
G1 X177.897 Y117.431 E0.00484
G1 X175.554 Y119.774 E0.10387
G1 X175.558 Y133.782 E0.43923
G1 X175.460 Y134.220 E0.01407
G1 X175.312 Y134.517 E0.01038
G1 X175.112 Y134.766 E0.01003
G1 X174.846 Y134.982 E0.01072
G1 X174.550 Y135.130 E0.01038
G1 X174.113 Y135.228 E0.01407
G1 X73.398 Y135.230 E3.15783
M73 Q3 S102
M73 P3 R100
G1 X72.982 Y135.156 E0.01326
G1 X72.664 Y135.012 E0.01095
G1 X72.339 Y134.757 E0.01295
G1 X72.124 Y134.477 E0.01107
G1 X71.970 Y134.135 E0.01176
G1 X71.900 Y133.732 E0.01280
G1 X71.900 Y76.268 E1.80175
G1 X71.974 Y75.852 E0.01326
G1 X72.118 Y75.534 E0.01095
G1 X72.373 Y75.209 E0.01294
G1 X72.653 Y74.994 E0.01107
G1 X72.995 Y74.840 E0.01176
G1 X73.398 Y74.770 E0.01280
G1 X174.093 Y74.772 E3.15722
G1 X174.478 Y74.844 E0.01231
G1 X174.797 Y74.988 E0.01095
G1 X175.121 Y75.243 E0.01292
G1 X175.326 Y75.506 E0.01048
G1 X175.467 Y75.799 E0.01019
