; generated by PrusaSlicer 2.2.0+win64 on 2020-09-21 at 11:57:54 UTC

; 

; external perimeters extrusion width = 0.45mm
; perimeters extrusion width = 0.45mm
; infill extrusion width = 0.45mm
; solid infill extrusion width = 0.45mm
; top infill extrusion width = 0.40mm
; first layer extrusion width = 0.42mm

M73 P0 R155
M73 Q0 S156
M201 X1000 Y1000 Z200 E5000 ; sets maximum accelerations, mm/sec^2
M203 X200 Y200 Z12 E120 ; sets maximum feedrates, mm/sec
M204 P1250 R1250 T1250 ; sets acceleration (P, T) and retract acceleration (R), mm/sec^2
M205 X8.00 Y8.00 Z0.40 E4.50 ; sets the jerk limits, mm/sec
M205 S0 T0 ; sets the minimum extruding and travel feed rate, mm/sec
M107
M862.3 P "MK3S" ; printer model check
M862.1 P0.4 ; nozzle diameter check
M115 U3.9.0 ; tell printer latest fw version
G90 ; use absolute coordinates
M83 ; extruder relative mode
M104 S240 ; set extruder temp
M140 S85 ; set bed temp
M190 S85 ; wait for bed temp
M109 S240 ; wait for extruder temp
G28 W ; home all without mesh bed level
G80 ; mesh bed leveling
G1 Y-3.0 F1000.0 ; go outside print area
G92 E0.0
G1 X60.0 E9.0 F1000.0 ; intro line
M73 Q0 S156
M73 P0 R155
G1 X100.0 E12.5 F1000.0 ; intro line
G92 E0.0
M221 S95

; Don't change E values below. Excessive value can damage the printer.

M907 E538 ; set extruder motor current
G21 ; set units to millimeters
G90 ; use absolute coordinates
M83 ; use relative distances for extrusion
M900 K0.08 ; Filament gcode LA 1.5
M900 K45 ; Filament gcode LA 1.0
;BEFORE_LAYER_CHANGE
G92 E0.0
;0.2


G1 E-1.40000 F2100.00000
G1 Z0.200 F10800.000
;AFTER_LAYER_CHANGE
;0.2
G1 Z0.400
G1 X90.188 Y70.477
G1 Z0.200
G1 E1.40000 F2100.00000
M204 S1000
G1 F1200.000
G1 X92.412 Y68.700 E0.08926
G1 X92.907 Y68.410 E0.01799
G1 X95.393 Y67.404 E0.08409
G1 X98.168 Y67.027 E0.08779
G1 X151.704 Y67.023 E1.67858
G1 X154.359 Y67.353 E0.08389
G1 X154.913 Y67.507 E0.01803
G1 X157.359 Y68.546 E0.08333
G1 X159.656 Y70.308 E0.09076
G1 X161.316 Y72.433 E0.08457
G1 X161.593 Y72.914 E0.01740
G1 X162.593 Y75.382 E0.08350
G1 X162.962 Y78.035 E0.08398
G1 X162.974 Y131.822 E1.68644
G1 X162.646 Y134.367 E0.08045
G1 X162.496 Y134.905 E0.01752
G1 X161.464 Y137.343 E0.08302
G1 X159.812 Y139.523 E0.08576
G1 X157.588 Y141.300 E0.08926
G1 X157.082 Y141.594 E0.01835
G1 X154.595 Y142.599 E0.08409
G1 X151.710 Y142.977 E0.09124
G1 X98.178 Y142.974 E1.67846
G1 X95.633 Y142.646 E0.08045
G1 X95.095 Y142.496 E0.01752
G1 X92.657 Y141.464 E0.08302
G1 X90.477 Y139.812 E0.08577
G1 X88.700 Y137.588 E0.08926
G1 X88.406 Y137.082 E0.01835
G1 X87.401 Y134.595 E0.08409
G1 X87.023 Y131.710 E0.09124
G1 X87.026 Y78.178 E1.67846
G1 X87.354 Y75.633 E0.08045
G1 X87.504 Y75.095 E0.01752
G1 X88.536 Y72.657 E0.08302
G1 X90.151 Y70.524 E0.08388
G1 F8640.000
G1 X92.412 Y68.700 E-0.67080
G1 X92.907 Y68.410 E-0.13248
G1 X95.022 Y67.554 E-0.52672
G1 E-0.07000 F2100.00000
G1 Z0.400 F10800.000
G1 X91.801 Y66.337
G1 Z0.200
G1 E1.40000 F2100.00000
G1 F1200.000
G1 X94.864 Y65.128 E0.10326
G1 X98.126 Y64.688 E0.10320
G1 X151.875 Y64.688 E1.68527
G1 X155.142 Y65.130 E0.10334
G1 X158.191 Y66.334 E0.10279
G1 X161.105 Y68.458 E0.11306
G1 X163.658 Y71.790 E0.13162
G1 X164.828 Y74.701 E0.09837
G1 X165.290 Y77.801 E0.09828
G1 X165.314 Y131.858 E1.69490
G1 X164.753 Y135.567 E0.11761
G1 X163.476 Y138.527 E0.10110
G1 X161.567 Y141.081 E0.09997
G1 X158.199 Y143.663 E0.13307
G1 X155.136 Y144.872 E0.10326
G1 X151.849 Y145.313 E0.10398
G1 X98.142 Y145.313 E1.68396
G1 X94.433 Y144.753 E0.11759
G1 X91.473 Y143.476 E0.10110
G1 X88.919 Y141.567 E0.09997
G1 X86.337 Y138.199 E0.13307
G1 X85.128 Y135.136 E0.10326
G1 X84.687 Y131.849 E0.10398
G1 X84.687 Y78.142 E1.68396
G1 X85.247 Y74.433 E0.11759
G1 X86.524 Y71.473 E0.10109
G1 X88.433 Y68.919 E0.09997
G1 X91.753 Y66.373 E0.13119
G1 X91.964 Y66.678 F10800.000
G1 F1200.000
G1 X94.981 Y65.488 E0.10171
G1 X98.163 Y65.064 E0.10066
G1 X151.863 Y65.065 E1.68371
G1 X155.025 Y65.489 E0.10002
G1 X158.030 Y66.676 E0.10130
G1 X160.860 Y68.746 E0.10995
G1 X163.318 Y71.955 E0.12673
G1 X164.458 Y74.779 E0.09549
G1 X164.915 Y77.843 E0.09714
G1 X164.936 Y131.844 E1.69316
G1 X164.397 Y135.440 E0.11403
G1 X163.161 Y138.320 E0.09824
G1 X161.281 Y140.834 E0.09845
G1 X158.036 Y143.322 E0.12819
G1 X155.019 Y144.512 E0.10171
G1 X151.837 Y144.936 E0.10066
G1 X98.156 Y144.936 E1.68314
G1 X94.560 Y144.397 E0.11401
G1 X91.680 Y143.161 E0.09824
G1 X89.166 Y141.281 E0.09845
G1 X86.678 Y138.036 E0.12819
G1 X85.488 Y135.019 E0.10171
G1 X85.064 Y131.837 E0.10066
G1 X85.064 Y78.156 E1.68314
G1 X85.603 Y74.560 E0.11401
G1 X86.839 Y71.680 E0.09824
G1 X88.719 Y69.166 E0.09845
G1 X91.916 Y66.714 E0.12630
G1 X92.127 Y67.019 F10800.000
G1 F1200.000
G1 X95.054 Y65.858 E0.09873
G1 X98.176 Y65.441 E0.09875
G1 X151.850 Y65.442 E1.68292
G1 X154.951 Y65.860 E0.09811
G1 X157.868 Y67.017 E0.09839
G1 X160.615 Y69.034 E0.10686
G1 X162.978 Y72.120 E0.12185
G1 X164.100 Y74.899 E0.09398
G1 X164.539 Y77.884 E0.09461
G1 X164.559 Y131.830 E1.69144
G1 X164.041 Y135.314 E0.11044
G1 X162.823 Y138.150 E0.09677
G1 X160.995 Y140.587 E0.09554
G1 X157.873 Y142.981 E0.12335
G1 X154.946 Y144.142 E0.09873
G1 X151.824 Y144.559 E0.09875
G1 X98.169 Y144.559 E1.68231
G1 X94.686 Y144.041 E0.11042
G1 X91.850 Y142.823 E0.09677
G1 X89.413 Y140.995 E0.09554
G1 X87.019 Y137.873 E0.12334
G1 X85.858 Y134.946 E0.09873
G1 X85.441 Y131.824 E0.09875
G1 X85.441 Y78.169 E1.68231
M73 Q0 S155
M73 P0 R154
G1 X85.959 Y74.686 E0.11042
G1 X87.177 Y71.850 E0.09677
G1 X89.005 Y69.413 E0.09554
G1 X92.079 Y67.055 E0.12146
G1 X92.291 Y67.359 F10800.000
G1 F1200.000
G1 X95.128 Y66.229 E0.09575
G1 X98.189 Y65.818 E0.09684
G1 X151.837 Y65.819 E1.68212
G1 X154.878 Y66.230 E0.09619
G1 X157.706 Y67.358 E0.09546
G1 X160.370 Y69.321 E0.10377
G1 X162.637 Y72.285 E0.11699
G1 X163.742 Y75.019 E0.09247
G1 X164.164 Y77.925 E0.09206
G1 X164.182 Y131.817 E1.68974
G1 X163.684 Y135.188 E0.10687
G1 X162.508 Y137.942 E0.09388
G1 X160.709 Y140.341 E0.09401
G1 X157.709 Y142.641 E0.11851
G1 X154.872 Y143.771 E0.09575
G1 X151.812 Y144.182 E0.09683
G1 X98.183 Y144.182 E1.68148
G1 X94.812 Y143.684 E0.10686
G1 X92.058 Y142.508 E0.09388
G1 X89.659 Y140.709 E0.09402
G1 X87.359 Y137.709 E0.11851
G1 X86.229 Y134.872 E0.09575
G1 X85.818 Y131.812 E0.09683
G1 X85.818 Y78.183 E1.68148
G1 X86.316 Y74.812 E0.10686
G1 X87.492 Y72.058 E0.09388
G1 X89.291 Y69.659 E0.09402
G1 X92.243 Y67.396 E0.11663
G1 X92.454 Y67.700 F10800.000
G1 F1200.000
G1 X95.245 Y66.588 E0.09420
G1 X98.201 Y66.195 E0.09348
G1 X151.825 Y66.196 E1.68135
G1 X154.760 Y66.589 E0.09283
G1 X157.543 Y67.699 E0.09396
G1 X160.124 Y69.609 E0.10066
G1 X162.298 Y72.450 E0.11216
G1 X163.372 Y75.096 E0.08955
G1 X163.789 Y77.966 E0.09092
G1 X163.805 Y131.803 E1.68803
G1 X163.328 Y135.063 E0.10330
G1 X162.170 Y137.773 E0.09239
G1 X160.423 Y140.093 E0.09108
G1 X157.546 Y142.300 E0.11370
G1 X154.755 Y143.412 E0.09420
G1 X151.799 Y143.805 E0.09348
G1 X98.197 Y143.805 E1.68067
G1 X94.937 Y143.328 E0.10329
G1 X92.227 Y142.170 E0.09239
G1 X89.907 Y140.423 E0.09108
G1 X87.700 Y137.546 E0.11370
G1 X86.588 Y134.755 E0.09420
G1 X86.195 Y131.799 E0.09348
G1 X86.195 Y78.197 E1.68067
G1 X86.672 Y74.937 E0.10329
G1 X87.830 Y72.227 E0.09239
G1 X89.577 Y69.907 E0.09108
G1 X92.407 Y67.737 E0.11182
G1 X92.619 Y68.040 F10800.000
G1 F1200.000
G1 X95.319 Y66.959 E0.09120
G1 X98.213 Y66.572 E0.09157
G1 X151.812 Y66.574 E1.68056
G1 X154.686 Y66.960 E0.09091
G1 X157.380 Y68.040 E0.09101
G1 X159.878 Y69.895 E0.09757
G1 X161.958 Y72.615 E0.10735
G1 X163.014 Y75.217 E0.08803
G1 X163.414 Y78.006 E0.08835
G1 X163.428 Y131.790 E1.68636
G1 X162.971 Y134.938 E0.09975
G1 X161.855 Y137.564 E0.08948
G1 X160.137 Y139.846 E0.08955
G1 X157.381 Y141.960 E0.10890
G1 X154.681 Y143.041 E0.09120
G1 X151.787 Y143.428 E0.09156
G1 X98.210 Y143.428 E1.67985
G1 X95.062 Y142.971 E0.09974
G1 X92.436 Y141.855 E0.08947
G1 X90.154 Y140.137 E0.08955
G1 X88.040 Y137.381 E0.10890
G1 X86.959 Y134.681 E0.09120
G1 X86.572 Y131.787 E0.09157
G1 X86.572 Y78.210 E1.67985
G1 X87.029 Y75.062 E0.09974
G1 X88.145 Y72.436 E0.08947
G1 X89.863 Y70.154 E0.08955
G1 X92.571 Y68.077 E0.10702
G1 X92.948 Y68.721 F10800.000
G1 F1200.000
G1 X95.510 Y67.688 E0.08662
G1 X98.238 Y67.326 E0.08628
G1 X151.787 Y67.328 E1.67899
G1 X154.493 Y67.689 E0.08559
G1 X157.052 Y68.721 E0.08652
G1 X159.385 Y70.468 E0.09137
G1 X161.278 Y72.946 E0.09779
G1 X162.286 Y75.413 E0.08354
G1 X162.664 Y78.085 E0.08461
G1 X162.674 Y131.763 E1.68305
G1 X162.258 Y134.689 E0.09267
G1 X161.202 Y137.187 E0.08502
G1 X159.566 Y139.350 E0.08505
G1 X157.052 Y141.279 E0.09936
G1 X154.490 Y142.312 E0.08662
G1 X151.762 Y142.674 E0.08628
G1 X98.237 Y142.674 E1.67824
G1 X95.311 Y142.258 E0.09266
G1 X92.813 Y141.202 E0.08501
G1 X90.650 Y139.566 E0.08505
G1 X88.721 Y137.052 E0.09936
G1 X87.688 Y134.490 E0.08662
G1 X87.326 Y131.762 E0.08628
G1 X87.326 Y78.237 E1.67824
G1 X87.742 Y75.311 E0.09266
G1 X88.798 Y72.813 E0.08501
G1 X90.434 Y70.650 E0.08505
G1 X92.900 Y68.757 E0.09748
G1 X93.113 Y69.061 F10800.000
G1 F1200.000
G1 X95.584 Y68.059 E0.08360
G1 X98.251 Y67.703 E0.08435
G1 X151.775 Y67.705 E1.67821
M73 Q1 S154
M73 P1 R153
G1 X154.419 Y68.059 E0.08366
G1 X156.887 Y69.061 E0.08352
G1 X159.137 Y70.754 E0.08828
G1 X160.939 Y73.112 E0.09305
G1 X161.928 Y75.533 E0.08201
G1 X162.288 Y78.124 E0.08200
G1 X162.297 Y131.750 E1.68142
G1 X161.901 Y134.565 E0.08913
G1 X160.864 Y137.018 E0.08350
G1 X159.281 Y139.102 E0.08205
G1 X156.887 Y140.939 E0.09464
G1 X154.416 Y141.941 E0.08360
G1 X151.749 Y142.297 E0.08435
G1 X98.250 Y142.297 E1.67744
G1 X95.435 Y141.901 E0.08913
G1 X92.982 Y140.864 E0.08349
G1 X90.898 Y139.281 E0.08205
G1 X89.061 Y136.887 E0.09464
G1 X88.059 Y134.416 E0.08360
G1 X87.703 Y131.749 E0.08435
G1 X87.703 Y78.250 E1.67744
G1 X88.099 Y75.435 E0.08913
G1 X89.136 Y72.982 E0.08349
G1 X90.719 Y70.898 E0.08205
G1 X93.066 Y69.097 E0.09276
G1 X93.279 Y69.400 F10800.000
G1 F1200.000
G1 X95.703 Y68.417 E0.08204
G1 X98.263 Y68.080 E0.08094
G1 X151.762 Y68.082 E1.67743
G1 X154.345 Y68.430 E0.08171
G1 X156.722 Y69.401 E0.08051
G1 X158.889 Y71.039 E0.08519
G1 X160.599 Y73.278 E0.08833
G1 X161.570 Y75.654 E0.08048
G1 X161.913 Y78.162 E0.07937
G1 X161.920 Y131.737 E1.67982
G1 X161.544 Y134.442 E0.08562
G1 X160.549 Y136.809 E0.08050
G1 X158.996 Y138.854 E0.08051
G1 X156.721 Y140.600 E0.08991
G1 X154.297 Y141.583 E0.08204
G1 X151.737 Y141.920 E0.08094
G1 X98.263 Y141.920 E1.67666
G1 X95.558 Y141.544 E0.08562
G1 X93.191 Y140.549 E0.08050
G1 X91.146 Y138.996 E0.08051
G1 X89.400 Y136.721 E0.08991
G1 X88.417 Y134.297 E0.08204
G1 X88.080 Y131.737 E0.08094
G1 X88.080 Y78.263 E1.67666
G1 X88.456 Y75.558 E0.08562
G1 X89.451 Y73.191 E0.08050
G1 X91.004 Y71.146 E0.08051
G1 X93.231 Y69.437 E0.08803
G1 X93.445 Y69.740 F10800.000
G1 F1200.000
G1 X95.777 Y68.788 E0.07899
G1 X98.275 Y68.457 E0.07901
G1 X151.750 Y68.459 E1.67665
G1 X154.225 Y68.788 E0.07828
G1 X156.556 Y69.740 E0.07896
G1 X158.641 Y71.324 E0.08208
G1 X160.260 Y73.444 E0.08365
G1 X161.199 Y75.729 E0.07746
G1 X161.538 Y78.200 E0.07821
G1 X161.543 Y131.725 E1.67822
G1 X161.186 Y134.319 E0.08210
G1 X160.211 Y136.641 E0.07896
G1 X158.712 Y138.605 E0.07748
G1 X156.555 Y140.260 E0.08523
G1 X154.223 Y141.212 E0.07899
G1 X151.725 Y141.543 E0.07901
G1 X98.275 Y141.543 E1.67587
G1 X95.681 Y141.186 E0.08210
G1 X93.359 Y140.211 E0.07896
G1 X91.395 Y138.712 E0.07749
G1 X89.740 Y136.555 E0.08523
G1 X88.788 Y134.223 E0.07899
G1 X88.457 Y131.725 E0.07901
G1 X88.457 Y78.275 E1.67587
G1 X88.814 Y75.681 E0.08210
G1 X89.789 Y73.359 E0.07896
G1 X91.288 Y71.395 E0.07749
G1 X93.397 Y69.776 E0.08335
G1 X93.611 Y70.079 F10800.000
G1 F1200.000
G1 X95.851 Y69.158 E0.07593
G1 X98.288 Y68.834 E0.07707
G1 X151.737 Y68.836 E1.67586
G1 X154.150 Y69.159 E0.07634
G1 X156.389 Y70.079 E0.07591
G1 X158.392 Y71.608 E0.07899
G1 X159.921 Y73.610 E0.07899
G1 X160.841 Y75.850 E0.07592
G1 X161.162 Y78.238 E0.07555
G1 X161.166 Y131.712 E1.67665
G1 X160.829 Y134.197 E0.07862
G1 X159.897 Y136.431 E0.07592
G1 X158.427 Y138.357 E0.07593
G1 X156.389 Y139.921 E0.08057
G1 X154.149 Y140.842 E0.07593
G1 X151.712 Y141.166 E0.07707
G1 X98.288 Y141.166 E1.67508
G1 X95.803 Y140.829 E0.07862
G1 X93.569 Y139.897 E0.07592
G1 X91.643 Y138.427 E0.07594
G1 X90.079 Y136.389 E0.08057
G1 X89.158 Y134.149 E0.07593
G1 X88.834 Y131.712 E0.07707
G1 X88.834 Y78.288 E1.67508
G1 X89.171 Y75.803 E0.07862
G1 X90.103 Y73.569 E0.07592
G1 X91.573 Y71.643 E0.07594
G1 X93.564 Y70.116 E0.07869
G1 X93.778 Y70.418 F10800.000
G1 F1200.000
G1 X95.972 Y69.516 E0.07438
G1 X98.300 Y69.211 E0.07362
G1 X151.724 Y69.213 E1.67508
G1 X154.076 Y69.529 E0.07438
G1 X156.222 Y70.418 E0.07286
G1 X158.108 Y71.857 E0.07438
G1 X159.582 Y73.778 E0.07591
G1 X160.471 Y75.924 E0.07285
G1 X160.787 Y78.276 E0.07438
G1 X160.789 Y131.700 E1.67508
G1 X160.471 Y134.076 E0.07515
G1 X159.582 Y136.222 E0.07286
G1 X158.143 Y138.108 E0.07438
G1 X156.222 Y139.582 E0.07590
G1 X154.028 Y140.484 E0.07438
G1 X151.700 Y140.789 E0.07362
G1 X98.300 Y140.789 E1.67431
M73 Q2 S153
M73 P2 R152
G1 X95.924 Y140.471 E0.07515
G1 X93.778 Y139.582 E0.07285
G1 X91.892 Y138.143 E0.07438
G1 X90.418 Y136.222 E0.07590
G1 X89.516 Y134.028 E0.07438
G1 X89.211 Y131.700 E0.07362
G1 X89.211 Y78.300 E1.67431
G1 X89.529 Y75.924 E0.07515
G1 X90.418 Y73.778 E0.07285
G1 X91.857 Y71.892 E0.07438
G1 X93.730 Y70.455 E0.07402
G1 X94.057 Y70.951 F10800.000
G1 F1200.000
G1 X96.104 Y70.103 E0.06946
G1 X98.327 Y69.810 E0.07031
G1 X151.677 Y69.810 E1.67274
G1 X153.896 Y70.103 E0.07020
G1 X155.943 Y70.951 E0.06946
G1 X157.701 Y72.299 E0.06946
G1 X159.049 Y74.057 E0.06946
G1 X159.897 Y76.104 E0.06946
G1 X160.190 Y78.327 E0.07031
G1 X160.190 Y131.673 E1.67263
G1 X159.897 Y133.896 E0.07031
G1 X159.049 Y135.943 E0.06946
G1 X157.701 Y137.701 E0.06946
G1 X155.943 Y139.050 E0.06946
G1 X153.896 Y139.897 E0.06946
G1 X151.673 Y140.190 E0.07031
G1 X98.327 Y140.190 E1.67263
G1 X96.104 Y139.897 E0.07031
G1 X94.057 Y139.050 E0.06946
G1 X92.299 Y137.701 E0.06946
G1 X90.951 Y135.943 E0.06946
G1 X90.103 Y133.896 E0.06946
G1 X89.810 Y131.673 E0.07031
G1 X89.810 Y78.327 E1.67263
G1 X90.103 Y76.104 E0.07031
G1 X90.951 Y74.057 E0.06946
G1 X92.299 Y72.299 E0.06946
G1 X94.009 Y70.987 E0.06758
G1 X94.403 Y71.151 F10800.000
G1 X94.239 Y71.286
G1 F1200.000
G1 X96.202 Y70.470 E0.06666
G1 X98.352 Y70.187 E0.06798
G1 X151.652 Y70.188 E1.67119
G1 X153.798 Y70.470 E0.06787
G1 X155.753 Y71.280 E0.06635
G1 X157.432 Y72.568 E0.06635
G1 X158.720 Y74.247 E0.06635
G1 X159.530 Y76.202 E0.06635
G1 X159.813 Y78.352 E0.06798
G1 X159.813 Y131.648 E1.67108
G1 X159.530 Y133.798 E0.06798
G1 X158.720 Y135.753 E0.06635
G1 X157.432 Y137.432 E0.06635
G1 X155.753 Y138.720 E0.06635
G1 X153.798 Y139.530 E0.06635
G1 X151.648 Y139.813 E0.06798
G1 X98.352 Y139.813 E1.67108
G1 X96.202 Y139.530 E0.06798
G1 X94.247 Y138.720 E0.06635
G1 X92.568 Y137.432 E0.06635
G1 X91.280 Y135.753 E0.06635
G1 X90.470 Y133.798 E0.06635
G1 X90.187 Y131.648 E0.06798
G1 X90.187 Y78.352 E1.67108
G1 X90.470 Y76.202 E0.06798
G1 X91.280 Y74.247 E0.06635
G1 X92.568 Y72.568 E0.06635
G1 X94.191 Y71.323 E0.06414
G1 F8640.000
G1 X96.202 Y70.470 E-0.50433
G1 X98.352 Y70.187 E-0.50064
G1 X99.759 Y70.187 E-0.32504
G1 E-0.07000 F2100.00000
G1 Z0.400 F10800.000
G1 X94.970 Y138.897
G1 Z0.200
G1 E1.40000 F2100.00000
G1 F1200.000
G1 X91.416 Y135.343 E0.15810
G1 X91.038 Y134.430 E0.03109
G1 X95.570 Y138.962 E0.20160
G1 X96.276 Y139.254 E0.02403
G1 X96.416 Y139.273 E0.00444
G1 X90.727 Y133.584 E0.25304
G1 X90.646 Y132.968 E0.01954
G1 X97.032 Y139.354 E0.28405
G1 X97.648 Y139.435 E0.01954
G1 X90.565 Y132.352 E0.31506
G1 X90.484 Y131.736 E0.01954
G1 X98.264 Y139.516 E0.34607
G1 X98.813 Y139.530 E0.01727
G1 X90.470 Y131.187 E0.37111
G1 X90.470 Y130.652 E0.01683
G1 X99.348 Y139.530 E0.39490
G1 X99.883 Y139.530 E0.01683
G1 X90.470 Y130.117 E0.41870
G1 X90.470 Y129.582 E0.01683
G1 X100.418 Y139.530 E0.44250
G1 X100.953 Y139.530 E0.01683
G1 X90.470 Y129.047 E0.46629
G1 X90.470 Y128.512 E0.01683
G1 X101.488 Y139.530 E0.49009
G1 X102.023 Y139.530 E0.01683
G1 X90.470 Y127.977 E0.51388
G1 X90.470 Y127.442 E0.01683
G1 X102.558 Y139.530 E0.53768
