; generated by PrusaSlicer 2.2.0+win64 on 2020-09-21 at 22:16:31 UTC

; 

; external perimeters extrusion width = 0.45mm
; perimeters extrusion width = 0.45mm
; infill extrusion width = 0.45mm
; solid infill extrusion width = 0.45mm
; top infill extrusion width = 0.40mm
; first layer extrusion width = 0.42mm

M73 P0 R180
M73 Q0 S187
M201 X1000 Y1000 Z200 E5000 ; sets maximum accelerations, mm/sec^2
M203 X200 Y200 Z12 E120 ; sets maximum feedrates, mm/sec
M204 P1250 R1250 T1250 ; sets acceleration (P, T) and retract acceleration (R), mm/sec^2
M205 X8.00 Y8.00 Z0.40 E4.50 ; sets the jerk limits, mm/sec
M205 S0 T0 ; sets the minimum extruding and travel feed rate, mm/sec
M107
M862.3 P "MK3S" ; printer model check
M862.1 P0.4 ; nozzle diameter check
M115 U3.9.0 ; tell printer latest fw version
G90 ; use absolute coordinates
M83 ; extruder relative mode
M104 S215 ; set extruder temp
M140 S60 ; set bed temp
M190 S60 ; wait for bed temp
M109 S215 ; wait for extruder temp
G28 W ; home all without mesh bed level
G80 ; mesh bed leveling
G1 Y-3.0 F1000.0 ; go outside print area
G92 E0.0
G1 X60.0 E9.0 F1000.0 ; intro line
M73 Q0 S187
M73 P0 R180
G1 X100.0 E12.5 F1000.0 ; intro line
G92 E0.0
M221 S95

; Don't change E values below. Excessive value can damage the printer.

M907 E538 ; set extruder motor current
G21 ; set units to millimeters
G90 ; use absolute coordinates
M83 ; use relative distances for extrusion
M900 K0.05 ; Filament gcode LA 1.5
M900 K30 ; Filament gcode LA 1.0
;BEFORE_LAYER_CHANGE
G92 E0.0
;0.2


G1 E-0.80000 F2100.00000
G1 Z0.600 F10800.000
;AFTER_LAYER_CHANGE
;0.2
G1 X77.633 Y63.781
G1 Z0.200
G1 E0.80000 F2100.00000
M204 S1000
G1 F1200.000
G1 X83.832 Y57.582 E0.27491
G1 X86.681 Y55.251 E0.11539
G1 X89.596 Y53.137 E0.11290
G1 X92.888 Y51.037 E0.12244
G1 X95.987 Y49.307 E0.11127
G1 X99.299 Y47.703 E0.11541
G1 X102.700 Y46.295 E0.11542
G1 X106.131 Y45.104 E0.11385
G1 X109.868 Y44.054 E0.12172
G1 X113.319 Y43.297 E0.11077
G1 X116.977 Y42.715 E0.11613
G1 X120.716 Y42.348 E0.11780
G1 X129.259 Y42.349 E0.26785
G1 X133.209 Y42.739 E0.12446
G1 X136.724 Y43.302 E0.11160
G1 X140.438 Y44.126 E0.11928
G1 X143.864 Y45.097 E0.11167
G1 X147.341 Y46.305 E0.11542
G1 X150.742 Y47.714 E0.11542
G1 X154.000 Y49.292 E0.11350
G1 X157.389 Y51.194 E0.12184
G1 X160.378 Y53.107 E0.11126
G1 X163.378 Y55.284 E0.11625
G1 X166.281 Y57.669 E0.11780
G1 X172.426 Y63.824 E0.27271
G1 X174.765 Y66.683 E0.11579
G1 X176.859 Y69.570 E0.11183
G1 X178.960 Y72.862 E0.12244
G1 X180.698 Y75.973 E0.11172
G1 X182.303 Y79.285 E0.11542
G1 X183.712 Y82.690 E0.11554
G1 X184.897 Y86.103 E0.11327
G1 X185.949 Y89.839 E0.12173
G1 X186.712 Y93.316 E0.11160
G1 X187.296 Y96.991 E0.11667
G1 X187.661 Y100.719 E0.11744
G1 X187.653 Y109.414 E0.27263
G1 X187.286 Y113.085 E0.11565
G1 X186.726 Y116.601 E0.11164
G1 X185.886 Y120.415 E0.12244
G1 X184.907 Y123.868 E0.11253
G1 X183.699 Y127.346 E0.11547
G1 X182.288 Y130.748 E0.11546
G1 X180.723 Y133.976 E0.11248
G1 X178.826 Y137.363 E0.12173
G1 X176.893 Y140.382 E0.11241
G1 X174.716 Y143.380 E0.11618
G1 X172.343 Y146.268 E0.11718
G1 X166.181 Y152.421 E0.27303
G1 X163.329 Y154.753 E0.11551
G1 X160.455 Y156.838 E0.11133
G1 X157.165 Y158.942 E0.12244
G1 X154.023 Y160.696 E0.11284
G1 X150.708 Y162.301 E0.11546
G1 X147.305 Y163.709 E0.11546
G1 X143.883 Y164.896 E0.11358
G1 X140.189 Y165.937 E0.12032
G1 X136.682 Y166.706 E0.11259
G1 X133.017 Y167.288 E0.11633
G1 X129.288 Y167.653 E0.11750
G1 X120.594 Y167.645 E0.27259
G1 X116.925 Y167.278 E0.11560
G1 X113.432 Y166.722 E0.11091
G1 X109.623 Y165.886 E0.12227
G1 X106.146 Y164.901 E0.11332
G1 X102.667 Y163.693 E0.11546
G1 X99.265 Y162.282 E0.11546
G1 X96.001 Y160.700 E0.11373
G1 X92.663 Y158.829 E0.11998
G1 X89.630 Y156.888 E0.11290
G1 X86.616 Y154.698 E0.11683
G1 X83.733 Y152.329 E0.11699
G1 X77.587 Y146.173 E0.27275
G1 X75.258 Y143.326 E0.11533
G1 X73.135 Y140.398 E0.11339
G1 X71.077 Y137.176 E0.11988
G1 X69.314 Y134.019 E0.11335
G1 X67.709 Y130.705 E0.11546
G1 X66.301 Y127.303 E0.11546
G1 X65.108 Y123.863 E0.11415
G1 X64.078 Y120.209 E0.11903
G1 X63.303 Y116.679 E0.11332
G1 X62.721 Y113.016 E0.11630
G1 X62.355 Y109.282 E0.11763
G1 X62.363 Y100.586 E0.27267
G1 X62.728 Y96.932 E0.11512
G1 X63.297 Y93.357 E0.11350
G1 X64.142 Y89.545 E0.12244
G1 X65.104 Y86.146 E0.11077
G1 X66.313 Y82.665 E0.11553
G1 X67.723 Y79.264 E0.11542
G1 X69.312 Y75.986 E0.11422
G1 X71.178 Y72.658 E0.11964
G1 X73.118 Y69.626 E0.11286
G1 X75.296 Y66.625 E0.11626
G1 X77.594 Y63.828 E0.11353
G1 F8640.000
G1 X79.920 Y61.499 E-0.76000
G1 E-0.04000 F2100.00000
G1 Z0.800 F10800.000
G1 X80.405 Y60.737
G1 Z0.200
G1 E0.80000 F2100.00000
G1 F1200.000
G1 X80.064 Y60.654 E0.01101
G1 X78.054 Y60.806 E0.06320
G1 X77.005 Y61.256 E0.03579
G1 X76.179 Y61.889 E0.03264
G1 X73.447 Y65.197 E0.13451
G1 X71.189 Y68.307 E0.12051
G1 X69.119 Y71.545 E0.12049
G1 X67.269 Y74.849 E0.11872
G1 X65.615 Y78.255 E0.11874
G1 X64.158 Y81.762 E0.11906
G1 X62.879 Y85.435 E0.12194
G1 X61.844 Y89.091 E0.11914
G1 X61.022 Y92.810 E0.11941
G1 X60.407 Y96.661 E0.12228
G1 X60.001 Y100.721 E0.12793
G1 X60.117 Y101.868 E0.03616
G1 X60.878 Y103.519 E0.05699
G1 X61.820 Y104.494 E0.04252
G1 X62.171 Y104.698 E0.01272
G1 X62.548 Y104.918 F10800.000
G1 F1200.000
G1 X62.561 Y104.926 E0.00048
G1 X62.548 Y104.936 E0.00052
G1 X62.170 Y105.229 F10800.000
G1 F1200.000
G1 X61.516 Y105.738 E0.02600
G1 X60.766 Y106.610 E0.03604
G1 X60.246 Y107.661 E0.03678
G1 X60.008 Y108.723 E0.03413
G1 X60.408 Y113.344 E0.14544
G1 X61.022 Y117.186 E0.12198
G1 X61.842 Y120.904 E0.11936
G1 X62.873 Y124.548 E0.11875
G1 X64.118 Y128.136 E0.11907
G1 X65.575 Y131.657 E0.11949
G1 X67.257 Y135.126 E0.12088
G1 X69.110 Y138.440 E0.11906
G1 X71.161 Y141.651 E0.11944
G1 X73.436 Y144.789 E0.12154
G1 X76.247 Y148.173 E0.13791
G1 X77.227 Y148.847 E0.03730
G1 X78.214 Y149.218 E0.03306
G1 X80.104 Y149.309 E0.05935
G1 X80.381 Y149.238 E0.00895
G1 X80.805 Y149.129 F10800.000
G1 F1200.000
G1 X80.881 Y149.110 E0.00245
G1 X80.864 Y149.188 E0.00251
G1 X80.770 Y149.628 F10800.000
G1 F1200.000
G1 X80.633 Y150.272 E0.02063
G1 X80.707 Y151.467 E0.03755
G1 X81.024 Y152.536 E0.03495
G1 X81.745 Y153.663 E0.04195
G1 X85.227 Y156.578 E0.14241
G1 X88.327 Y158.827 E0.12008
G1 X91.550 Y160.887 E0.11990
G1 X94.861 Y162.741 E0.11898
G1 X98.259 Y164.391 E0.11846
G1 X101.880 Y165.893 E0.12292
G1 X105.482 Y167.141 E0.11952
G1 X109.156 Y168.179 E0.11971
G1 X112.867 Y168.996 E0.11913
G1 X116.638 Y169.597 E0.11971
G1 X121.321 Y169.990 E0.14736
G1 X122.265 Y169.780 E0.03032
G1 X123.168 Y169.367 E0.03115
G1 X124.369 Y168.344 E0.04945
G1 X124.698 Y167.837 E0.01894
G1 X124.942 Y167.461 F10800.000
G1 F1200.000
G1 X124.992 Y167.384 E0.00285
G1 X125.040 Y167.461 E0.00283
G1 X125.280 Y167.838 F10800.000
G1 F1200.000
G1 X125.574 Y168.301 E0.01722
G1 X126.997 Y169.476 E0.05786
G1 X127.901 Y169.843 E0.03059
G1 X128.834 Y170.004 E0.02968
G1 X133.313 Y169.605 E0.14098
G1 X137.117 Y169.001 E0.12078
G1 X140.859 Y168.179 E0.12013
G1 X144.518 Y167.146 E0.11920
G1 X148.107 Y165.904 E0.11909
G1 X151.677 Y164.427 E0.12111
G1 X155.119 Y162.759 E0.11993
G1 X158.450 Y160.897 E0.11966
G1 X161.653 Y158.851 E0.11916
G1 X164.749 Y156.609 E0.11985
G1 X167.951 Y153.987 E0.12976
G1 X168.578 Y153.262 E0.03008
G1 X169.035 Y152.397 E0.03066
G1 X169.312 Y151.286 E0.03590
G1 X169.323 Y149.975 E0.04113
G1 X169.237 Y149.636 E0.01096
G1 X169.130 Y149.210 F10800.000
G1 F1200.000
G1 X169.112 Y149.137 E0.00236
G1 X169.187 Y149.153 E0.00241
G1 X169.624 Y149.249 F10800.000
G1 F1200.000
G1 X170.143 Y149.363 E0.01664
G1 X171.430 Y149.315 E0.04040
G1 X172.962 Y148.772 E0.05094
G1 X173.810 Y148.135 E0.03325
G1 X176.584 Y144.784 E0.13641
G1 X178.843 Y141.669 E0.12064
G1 X180.912 Y138.431 E0.12048
G1 X182.767 Y135.111 E0.11925
G1 X184.420 Y131.703 E0.11874
G1 X185.869 Y128.210 E0.11858
G1 X187.137 Y124.566 E0.12098
G1 X188.174 Y120.904 E0.11932
G1 X188.993 Y117.195 E0.11912
G1 X189.606 Y113.361 E0.12173
G1 X190.014 Y109.263 E0.12912
G1 X189.915 Y108.183 E0.03402
G1 X189.615 Y107.295 E0.02938
G1 X189.176 Y106.547 E0.02719
G1 X188.373 Y105.654 E0.03766
G1 X187.845 Y105.310 E0.01974
G1 X187.469 Y105.065 F10800.000
G1 F1200.000
G1 X187.373 Y105.003 E0.00359
G1 X187.469 Y104.950 E0.00343
G1 X187.846 Y104.742 F10800.000
G1 F1200.000
G1 X188.115 Y104.594 E0.00963
G1 X189.194 Y103.474 E0.04876
G1 X189.877 Y101.994 E0.05113
G1 X190.015 Y100.852 E0.03606
G1 X189.611 Y96.675 E0.13158
G1 X189.006 Y92.870 E0.12079
G1 X188.186 Y89.146 E0.11957
G1 X187.156 Y85.495 E0.11894
G1 X185.901 Y81.873 E0.12016
G1 X184.448 Y78.359 E0.11925
G1 X182.791 Y74.935 E0.11926
G1 X180.915 Y71.574 E0.12068
G1 X178.878 Y68.382 E0.11874
G1 X176.601 Y65.238 E0.12172
G1 X173.990 Y62.048 E0.12923
G1 X173.312 Y61.460 E0.02813
G1 X172.504 Y61.012 E0.02897
G1 X171.502 Y60.725 E0.03268
G1 X169.616 Y60.743 E0.05914
G1 X169.204 Y60.864 F10800.000
G1 F1200.000
G1 X169.108 Y60.892 E0.00315
G1 X169.137 Y60.796 E0.00315
G1 X169.259 Y60.385 F10800.000
G1 F1200.000
G1 X169.341 Y60.109 E0.00902
G1 X169.318 Y58.544 E0.04909
G1 X168.785 Y57.064 E0.04930
G1 X168.073 Y56.132 E0.03677
G1 X164.790 Y53.422 E0.13347
G1 X161.696 Y51.178 E0.11985
G1 X158.475 Y49.118 E0.11988
G1 X155.144 Y47.254 E0.11968
G1 X151.713 Y45.589 E0.11959
G1 X148.144 Y44.110 E0.12111
G1 X144.556 Y42.866 E0.11908
G1 X140.898 Y41.831 E0.11920
G1 X137.168 Y41.008 E0.11978
G1 X133.393 Y40.405 E0.11984
G1 X129.251 Y39.993 E0.13053
G1 X128.109 Y40.114 E0.03599
G1 X126.926 Y40.601 E0.04011
G1 X126.376 Y40.970 E0.02076
G1 X125.382 Y41.985 E0.04456
G1 X125.286 Y42.160 E0.00626
G1 X125.078 Y42.537 F10800.000
G1 F1200.000
G1 X125.037 Y42.611 E0.00267
G1 X124.985 Y42.537 E0.00285
G1 X124.721 Y42.160 F10800.000
G1 F1200.000
G1 X124.235 Y41.467 E0.02653
G1 X122.913 Y40.467 E0.05198
G1 X122.139 Y40.165 E0.02604
G1 X121.308 Y40.000 E0.02658
G1 X116.594 Y40.408 E0.14833
G1 X112.850 Y41.008 E0.11890
G1 X109.151 Y41.823 E0.11875
G1 X105.475 Y42.861 E0.11976
G1 X101.885 Y44.105 E0.11915
G1 X98.358 Y45.565 E0.11969
G1 X94.928 Y47.224 E0.11946
G1 X91.551 Y49.112 E0.12130
G1 X88.332 Y51.170 E0.11981
G1 X85.238 Y53.413 E0.11982
G1 X82.028 Y56.046 E0.13017
G1 X81.284 Y56.992 E0.03772
G1 X80.704 Y58.648 E0.05501
G1 X80.704 Y60.103 E0.04564
G1 X80.782 Y60.360 E0.00842
G1 X80.907 Y60.769 F10800.000
G1 F1200.000
G1 X80.937 Y60.868 E0.00326
G1 X80.833 Y60.843 E0.00337
G1 X80.521 Y61.154 F10800.000
G1 F1200.000
G1 X80.947 Y61.267 E0.01384
G1 X81.579 Y61.603 E0.02244
G1 X81.210 Y60.466 E0.03746
G1 X81.081 Y60.062 F10800.000
G1 F1200.000
G1 X81.081 Y58.679 E0.04335
G1 X81.600 Y57.199 E0.04919
G1 X82.283 Y56.324 E0.03480
G1 X85.464 Y53.715 E0.12898
G1 X88.539 Y51.485 E0.11912
G1 X91.749 Y49.433 E0.11946
G1 X95.097 Y47.561 E0.12025
G1 X98.517 Y45.907 E0.11911
G1 X102.024 Y44.456 E0.11900
G1 X105.594 Y43.219 E0.11846
G1 X109.248 Y42.187 E0.11906
G1 X112.925 Y41.377 E0.11806
G1 X116.647 Y40.782 E0.11817
G1 X121.312 Y40.379 E0.14682
G1 X122.020 Y40.523 E0.02265
G1 X122.708 Y40.784 E0.02306
G1 X123.983 Y41.749 E0.05013
G1 X124.266 Y42.160 E0.01564
G1 X124.525 Y42.537 F10800.000
G1 F1200.000
G1 X124.756 Y42.873 E0.01280
G1 X124.970 Y43.559 E0.02253
G1 X125.509 Y42.537 E0.03623
G1 X125.738 Y42.160 F10800.000
G1 F1200.000
G1 X126.604 Y41.270 E0.03894
G1 X127.090 Y40.941 E0.01840
G1 X128.178 Y40.486 E0.03699
G1 X129.233 Y40.370 E0.03327
G1 X133.350 Y40.780 E0.12973
G1 X137.103 Y41.380 E0.11914
G1 X140.811 Y42.198 E0.11908
G1 X144.448 Y43.227 E0.11851
G1 X148.015 Y44.465 E0.11839
G1 X151.553 Y45.930 E0.12006
G1 X154.974 Y47.591 E0.11924
G1 X158.286 Y49.444 E0.11899
G1 X161.488 Y51.492 E0.11918
G1 X164.564 Y53.724 E0.11915
G1 X167.789 Y56.380 E0.13099
G1 X168.440 Y57.221 E0.03335
G1 X168.952 Y58.641 E0.04733
G1 X168.962 Y60.087 E0.04535
G1 X168.833 Y60.492 F10800.000
G1 F1200.000
G1 X168.507 Y61.515 E0.03366
G1 X169.510 Y61.170 E0.03323
G1 X169.986 Y61.114 F10800.000
G1 F1200.000
G1 X171.425 Y61.096 E0.04511
G1 X172.379 Y61.369 E0.03110
G1 X173.110 Y61.779 E0.02631
G1 X173.708 Y62.299 E0.02484
G1 X176.305 Y65.472 E0.12856
G1 X178.563 Y68.589 E0.12067
G1 X180.588 Y71.763 E0.11805
G1 X182.454 Y75.104 E0.11999
G1 X184.101 Y78.508 E0.11857
G1 X185.547 Y82.002 E0.11855
G1 X186.798 Y85.613 E0.11981
G1 X187.822 Y89.243 E0.11825
G1 X188.634 Y92.935 E0.11853
G1 X189.238 Y96.728 E0.12044
G1 X189.638 Y100.830 E0.12922
G1 X189.522 Y101.864 E0.03262
G1 X188.865 Y103.287 E0.04913
G1 X187.846 Y104.319 E0.04549
G1 X187.469 Y104.519 F10800.000
G1 F1200.000
G1 X186.439 Y105.065 E0.03653
G1 X187.068 Y105.258 E0.02062
G1 X187.468 Y105.514 E0.01490
G1 X187.845 Y105.756 F10800.000
G1 F1200.000
G1 X188.110 Y105.925 E0.00987
G1 X188.882 Y106.785 E0.03622
G1 X189.279 Y107.467 E0.02475
G1 X189.550 Y108.281 E0.02689
G1 X189.637 Y109.244 E0.03032
G1 X189.233 Y113.307 E0.12804
G1 X188.624 Y117.119 E0.12103
G1 X187.809 Y120.807 E0.11842
G1 X186.779 Y124.447 E0.11862
G1 X185.515 Y128.081 E0.12063
G1 X184.074 Y131.553 E0.11788
G1 X182.431 Y134.941 E0.11806
G1 X180.585 Y138.242 E0.11856
G1 X178.528 Y141.461 E0.11978
G1 X176.282 Y144.557 E0.11993
G1 X173.563 Y147.849 E0.13386
G1 X172.807 Y148.426 E0.02983
G1 X171.332 Y148.949 E0.04906
G1 X170.157 Y148.985 E0.03689
G1 X169.938 Y148.936 E0.00702
G1 X169.504 Y148.837 F10800.000
G1 F1200.000
G1 X169.077 Y148.740 E0.01371
G1 X168.767 Y148.575 E0.01103
G1 X168.569 Y148.768 E0.00865
G1 X168.677 Y148.981 E0.00748
G1 X168.819 Y149.520 E0.01748
G1 X168.930 Y149.942 F10800.000
G1 F1200.000
G1 X168.946 Y149.999 E0.00186
G1 X168.941 Y151.217 E0.03819
G1 X168.675 Y152.283 E0.03442
G1 X168.256 Y153.064 E0.02781
G1 X167.700 Y153.706 E0.02662
G1 X164.514 Y156.314 E0.12908
G1 X161.436 Y158.543 E0.11915
G1 X158.252 Y160.576 E0.11847
G1 X154.940 Y162.427 E0.11897
G1 X151.517 Y164.086 E0.11923
G1 X147.979 Y165.549 E0.12007
G1 X144.410 Y166.785 E0.11840
G1 X140.762 Y167.814 E0.11885
G1 X137.053 Y168.630 E0.11909
G1 X133.260 Y169.232 E0.12040
G1 X128.826 Y169.626 E0.13958
G1 X128.021 Y169.485 E0.02561
G1 X127.213 Y169.166 E0.02723
G1 X125.839 Y168.031 E0.05589
G1 X125.720 Y167.838 E0.00711
G1 X125.487 Y167.461 F10800.000
G1 F1200.000
G1 X125.195 Y166.989 E0.01740
G1 X125.121 Y166.759 E0.00757
G1 X124.845 Y166.760 E0.00863
G1 X124.753 Y167.051 E0.00958
G1 X124.493 Y167.460 E0.01518
G1 X124.254 Y167.837 F10800.000
G1 F1200.000
G1 X124.102 Y168.076 E0.00888
G1 X122.944 Y169.063 E0.04770
G1 X122.161 Y169.418 E0.02695
G1 X121.322 Y169.611 E0.02700
G1 X116.690 Y169.224 E0.14575
G1 X112.932 Y168.624 E0.11932
G1 X109.243 Y167.812 E0.11844
G1 X105.601 Y166.783 E0.11867
G1 X102.009 Y165.538 E0.11917
G1 X98.419 Y164.050 E0.12187
G1 X95.030 Y162.404 E0.11811
M73 Q0 S186
G1 X91.739 Y160.560 E0.11829
M73 P0 R179
G1 X88.535 Y158.512 E0.11921
G1 X85.454 Y156.277 E0.11936
G1 X82.010 Y153.393 E0.14085
G1 X81.358 Y152.358 E0.03835
G1 X81.075 Y151.383 E0.03182
G1 X81.011 Y150.277 E0.03474
G1 X81.085 Y149.943 E0.01071
G1 X81.182 Y149.506 F10800.000
G1 F1200.000
G1 X81.291 Y149.010 E0.01595
G1 X81.430 Y148.744 E0.00938
G1 X81.232 Y148.548 E0.00873
G1 X80.971 Y148.688 E0.00928
G1 X80.496 Y148.819 E0.01548
G1 X80.073 Y148.930 F10800.000
G1 F1200.000
G1 X78.262 Y148.843 E0.05687
G1 X77.420 Y148.523 E0.02823
G1 X76.520 Y147.911 E0.03414
G1 X73.738 Y144.563 E0.13648
G1 X71.475 Y141.443 E0.12083
G1 X69.437 Y138.252 E0.11875
G1 X67.594 Y134.957 E0.11837
G1 X65.917 Y131.498 E0.12053
G1 X64.469 Y127.997 E0.11879
G1 X63.231 Y124.430 E0.11838
G1 X62.207 Y120.806 E0.11806
G1 X61.393 Y117.121 E0.11832
G1 X60.781 Y113.292 E0.12160
G1 X60.387 Y108.720 E0.14387
G1 X60.593 Y107.808 E0.02931
G1 X61.093 Y106.799 E0.03531
G1 X61.788 Y106.000 E0.03320
G1 X62.170 Y105.703 E0.01516
G1 X62.547 Y105.426 F10800.000
G1 F1200.000
G1 X63.576 Y105.062 E0.03422
G1 X62.548 Y104.481 E0.03702
G1 X62.171 Y104.268 F10800.000
G1 F1200.000
G1 X62.072 Y104.212 E0.00358
G1 X61.171 Y103.280 E0.04063
G1 X60.488 Y101.798 E0.05115
G1 X60.378 Y100.739 E0.03339
G1 X60.782 Y96.704 E0.12714
G1 X61.391 Y92.886 E0.12124
G1 X62.208 Y89.188 E0.11872
G1 X63.237 Y85.554 E0.11845
G1 X64.512 Y81.891 E0.12159
G1 X65.961 Y78.405 E0.11836
G1 X67.606 Y75.019 E0.11805
