; generated by PrusaSlicer 2.2.0+win64 on 2020-09-21 at 22:14:41 UTC

; 

; external perimeters extrusion width = 0.45mm
; perimeters extrusion width = 0.45mm
; infill extrusion width = 0.45mm
; solid infill extrusion width = 0.45mm
; top infill extrusion width = 0.40mm
; first layer extrusion width = 0.42mm

M73 P0 R87
M73 Q0 S92
M201 X1000 Y1000 Z200 E5000 ; sets maximum accelerations, mm/sec^2
M203 X200 Y200 Z12 E120 ; sets maximum feedrates, mm/sec
M204 P1250 R1250 T1250 ; sets acceleration (P, T) and retract acceleration (R), mm/sec^2
M205 X8.00 Y8.00 Z0.40 E4.50 ; sets the jerk limits, mm/sec
M205 S0 T0 ; sets the minimum extruding and travel feed rate, mm/sec
M107
M862.3 P "MK3S" ; printer model check
M862.1 P0.4 ; nozzle diameter check
M115 U3.9.0 ; tell printer latest fw version
G90 ; use absolute coordinates
M83 ; extruder relative mode
M104 S215 ; set extruder temp
M140 S60 ; set bed temp
M190 S60 ; wait for bed temp
M109 S215 ; wait for extruder temp
G28 W ; home all without mesh bed level
G80 ; mesh bed leveling
G1 Y-3.0 F1000.0 ; go outside print area
G92 E0.0
G1 X60.0 E9.0 F1000.0 ; intro line
M73 Q0 S92
M73 P0 R87
G1 X100.0 E12.5 F1000.0 ; intro line
G92 E0.0
M221 S95

; Don't change E values below. Excessive value can damage the printer.

M907 E538 ; set extruder motor current
G21 ; set units to millimeters
G90 ; use absolute coordinates
M83 ; use relative distances for extrusion
M900 K0.05 ; Filament gcode LA 1.5
M900 K30 ; Filament gcode LA 1.0
;BEFORE_LAYER_CHANGE
G92 E0.0
;0.2


G1 E-0.80000 F2100.00000
G1 Z0.600 F10800.000
;AFTER_LAYER_CHANGE
;0.2
G1 X88.018 Y76.710
G1 Z0.200
G1 E0.80000 F2100.00000
M204 S1000
G1 F1200.000
G1 X90.573 Y73.955 E0.11781
G1 X93.286 Y71.361 E0.11769
G1 X96.100 Y68.975 E0.11566
G1 X99.220 Y66.636 E0.12227
G1 X102.298 Y64.606 E0.11562
G1 X105.552 Y62.727 E0.11781
G1 X108.909 Y61.048 E0.11769
G1 X112.301 Y59.597 E0.11566
G1 X115.972 Y58.282 E0.12227
G1 X119.512 Y57.248 E0.11562
G1 X123.171 Y56.413 E0.11769
G1 X126.878 Y55.797 E0.11781
G1 X130.546 Y55.411 E0.11566
G1 X134.410 Y55.236 E0.12127
G1 X138.129 Y55.292 E0.11662
G1 X141.808 Y55.567 E0.11566
G1 X145.668 Y56.090 E0.12215
G1 X149.286 Y56.804 E0.11562
G1 X152.922 Y57.749 E0.11781
G1 X156.492 Y58.909 E0.11769
G1 X159.930 Y60.257 E0.11578
G1 X163.465 Y61.895 E0.12215
G1 X166.712 Y63.643 E0.11562
G1 X169.908 Y65.618 E0.11781
G1 X172.977 Y67.779 E0.11769
G1 X175.862 Y70.078 E0.11566
G1 X178.760 Y72.687 E0.12227
G1 X181.347 Y75.315 E0.11562
G1 X183.819 Y78.145 E0.11781
G1 X186.116 Y81.114 E0.11769
G1 X188.194 Y84.161 E0.11566
G1 X190.195 Y87.509 E0.12227
G1 X191.892 Y90.782 E0.11562
G1 X193.420 Y94.215 E0.11781
G1 X194.739 Y97.729 E0.11769
G1 X195.828 Y101.254 E0.11566
G1 X196.752 Y105.042 E0.12227
G1 X197.410 Y108.671 E0.11562
G1 X197.858 Y112.401 E0.11781
G1 X198.083 Y116.148 E0.11769
G1 X198.084 Y119.837 E0.11566
G1 X197.851 Y123.730 E0.12227
G1 X197.409 Y127.391 E0.11562
G1 X196.738 Y131.088 E0.11781
G1 X195.848 Y134.734 E0.11769
G1 X194.761 Y138.263 E0.11578
G1 X193.392 Y141.911 E0.12215
G1 X191.891 Y145.279 E0.11562
G1 X190.160 Y148.614 E0.11781
G1 X188.235 Y151.836 E0.11769
G1 X186.158 Y154.885 E0.11566
G1 X183.773 Y157.969 E0.12227
G1 X181.345 Y160.746 E0.11562
G1 X178.711 Y163.420 E0.11769
G1 X175.862 Y165.981 E0.12012
G1 X172.978 Y168.279 E0.11562
G1 X169.906 Y170.442 E0.11781
G1 X166.713 Y172.415 E0.11769
G1 X163.465 Y174.164 E0.11566
G1 X159.927 Y175.803 E0.12227
G1 X156.494 Y177.150 E0.11562
G1 X152.920 Y178.311 E0.11781
G1 X149.287 Y179.255 E0.11769
G1 X145.668 Y179.969 E0.11566
G1 X141.804 Y180.493 E0.12227
G1 X138.126 Y180.767 E0.11562
G1 X134.408 Y180.823 E0.11662
G1 X130.546 Y180.648 E0.12119
G1 X126.879 Y180.262 E0.11562
G1 X123.172 Y179.646 E0.11781
G1 X119.513 Y178.811 E0.11769
G1 X115.972 Y177.778 E0.11566
G1 X112.301 Y176.462 E0.12227
G1 X108.910 Y175.012 E0.11562
G1 X105.550 Y173.331 E0.11781
G1 X102.299 Y171.454 E0.11769
G1 X99.220 Y169.423 E0.11566
G1 X96.100 Y167.084 E0.12227
G1 X93.287 Y164.699 E0.11562
G1 X90.574 Y162.105 E0.11769
G1 X87.971 Y159.294 E0.12012
G1 X85.630 Y156.445 E0.11562
G1 X83.421 Y153.405 E0.11781
G1 X81.398 Y150.239 E0.11781
G1 X79.601 Y147.017 E0.11566
G1 X77.897 Y143.473 E0.12330
G1 X76.513 Y140.095 E0.11447
G1 X75.299 Y136.539 E0.11781
G1 X74.300 Y132.921 E0.11769
G1 X73.532 Y129.313 E0.11566
G1 X72.951 Y125.457 E0.12227
G1 X72.622 Y121.784 E0.11562
G1 X72.509 Y118.028 E0.11781
G1 X72.622 Y114.276 E0.11769
G1 X72.951 Y110.602 E0.11566
G1 X73.532 Y106.746 E0.12227
G1 X74.300 Y103.139 E0.11562
G1 X75.300 Y99.517 E0.11781
G1 X76.513 Y95.965 E0.11769
G1 X77.911 Y92.552 E0.11566
G1 X79.603 Y89.038 E0.12227
G1 X81.400 Y85.818 E0.11562
G1 X83.420 Y82.655 E0.11769
G1 X85.675 Y79.557 E0.12012
G1 X87.979 Y76.756 E0.11374
G1 F8640.000
G1 X90.216 Y74.341 E-0.76000
G1 E-0.04000 F2100.00000
G1 Z0.800 F10800.000
G1 X86.176 Y75.272
G1 Z0.200
G1 E0.80000 F2100.00000
G1 F1200.000
G1 X88.880 Y72.345 E0.12495
G1 X91.678 Y69.666 E0.12147
G1 X94.648 Y67.143 E0.12218
G1 X97.764 Y64.802 E0.12220
G1 X101.083 Y62.610 E0.12471
G1 X104.429 Y60.678 E0.12113
G1 X107.883 Y58.948 E0.12112
G1 X111.560 Y57.377 E0.12540
G1 X115.187 Y56.079 E0.12077
G1 X118.884 Y54.998 E0.12078
G1 X122.772 Y54.110 E0.12505
G1 X126.572 Y53.481 E0.12077
G1 X130.415 Y53.077 E0.12115
G1 X134.317 Y52.901 E0.12248
G1 X138.169 Y52.955 E0.12079
G1 X142.193 Y53.257 E0.12652
G1 X145.998 Y53.775 E0.12041
G1 X149.777 Y54.519 E0.12077
G1 X153.649 Y55.527 E0.12543
G1 X157.354 Y56.736 E0.12221
G1 X160.980 Y58.164 E0.12218
G1 X164.483 Y59.791 E0.12110
G1 X167.874 Y61.616 E0.12075
G1 X171.160 Y63.646 E0.12110
G1 X174.321 Y65.866 E0.12112
G1 X177.485 Y68.389 E0.12687
G1 X180.337 Y70.961 E0.12041
G1 X183.024 Y73.687 E0.12004
G1 X185.583 Y76.611 E0.12181
G1 X187.963 Y79.682 E0.12184
G1 X190.230 Y83.006 E0.12616
G1 X192.199 Y86.304 E0.12041
G1 X193.964 Y89.701 E0.12004
G1 X195.610 Y93.397 E0.12685
G1 X196.953 Y96.982 E0.12004
G1 X198.080 Y100.629 E0.11969
G1 X199.039 Y104.560 E0.12687
G1 X199.727 Y108.373 E0.12149
G1 X200.189 Y112.231 E0.12182
G1 X200.418 Y116.087 E0.12112
G1 X200.418 Y119.972 E0.12182
G1 X200.190 Y123.817 E0.12075
G1 X199.731 Y127.664 E0.12147
G1 X199.008 Y131.645 E0.12686
G1 X198.098 Y135.364 E0.12004
G1 X196.975 Y139.012 E0.11970
G1 X195.553 Y142.800 E0.12687
G1 X193.979 Y146.328 E0.12112
G1 X192.199 Y149.755 E0.12110
G1 X190.218 Y153.071 E0.12110
G1 X188.051 Y156.256 E0.12077
G1 X185.576 Y159.457 E0.12688
G1 X183.024 Y162.372 E0.12148
G1 X180.312 Y165.122 E0.12111
G1 X177.450 Y167.699 E0.12075
G1 X174.440 Y170.103 E0.12076
G1 X171.140 Y172.427 E0.12656
G1 X167.845 Y174.458 E0.12138
G1 X164.432 Y176.294 E0.12151
G1 X160.927 Y177.918 E0.12112
G1 X157.342 Y179.327 E0.12077
G1 X153.514 Y180.571 E0.12619
G1 X149.778 Y181.538 E0.12103
G1 X145.997 Y182.284 E0.12081
G1 X142.056 Y182.816 E0.12470
G1 X138.181 Y183.103 E0.12182
G1 X134.296 Y183.159 E0.12181
G1 X130.426 Y182.983 E0.12148
G1 X126.550 Y182.575 E0.12220
G1 X122.716 Y181.938 E0.12185
G1 X118.928 Y181.073 E0.12184
G1 X115.198 Y179.984 E0.12183
G1 X111.539 Y178.674 E0.12184
G1 X107.924 Y177.130 E0.12328
G1 X104.449 Y175.392 E0.12183
G1 X101.093 Y173.455 E0.12147
G1 X97.801 Y171.283 E0.12366
G1 X94.695 Y168.952 E0.12176
G1 X91.738 Y166.447 E0.12151
G1 X88.888 Y163.723 E0.12362
G1 X86.254 Y160.882 E0.12148
G1 X83.799 Y157.897 E0.12117
G1 X81.503 Y154.737 E0.12248
G1 X79.414 Y151.473 E0.12149
G1 X77.525 Y148.091 E0.12148
G1 X75.835 Y144.592 E0.12182
G1 X74.337 Y140.944 E0.12363
G1 X73.082 Y137.278 E0.12149
G1 X72.048 Y133.545 E0.12147
G1 X71.217 Y129.643 E0.12509
G1 X70.631 Y125.743 E0.12364
G1 X70.287 Y121.873 E0.12182
G1 X70.173 Y117.990 E0.12182
G1 X70.291 Y114.118 E0.12146
G1 X70.638 Y110.259 E0.12147
G1 X71.217 Y106.416 E0.12185
G1 X72.023 Y102.614 E0.12186
G1 X73.055 Y98.868 E0.12184
G1 X74.312 Y95.179 E0.12218
G1 X75.802 Y91.542 E0.12325
G1 X77.482 Y88.050 E0.12149
G1 X79.373 Y84.655 E0.12185
G1 X81.520 Y81.294 E0.12505
G1 X83.793 Y78.170 E0.12112
G1 X86.137 Y75.319 E0.11575
G1 X86.428 Y75.558 F10800.000
G1 F1200.000
G1 X89.153 Y72.606 E0.12595
G1 X91.935 Y69.942 E0.12076
G1 X94.888 Y67.434 E0.12148
G1 X97.986 Y65.107 E0.12150
G1 X101.276 Y62.934 E0.12364
G1 X104.612 Y61.008 E0.12078
G1 X108.046 Y59.288 E0.12041
G1 X111.693 Y57.730 E0.12433
G1 X115.309 Y56.436 E0.12042
G1 X118.985 Y55.361 E0.12008
G1 X122.840 Y54.482 E0.12398
G1 X126.617 Y53.856 E0.12006
G1 X130.438 Y53.453 E0.12044
G1 X134.329 Y53.278 E0.12212
G1 X138.158 Y53.332 E0.12009
G1 X142.148 Y53.632 E0.12544
G1 X145.931 Y54.146 E0.11970
G1 X149.688 Y54.886 E0.12006
G1 X153.537 Y55.888 E0.12472
G1 X157.221 Y57.089 E0.12150
G1 X160.826 Y58.508 E0.12147
G1 X164.309 Y60.125 E0.12040
G1 X167.690 Y61.946 E0.12040
G1 X170.957 Y63.963 E0.12040
G1 X174.100 Y66.172 E0.12042
G1 X177.236 Y68.673 E0.12580
G1 X180.072 Y71.230 E0.11970
G1 X182.752 Y73.948 E0.11969
G1 X185.295 Y76.855 E0.12110
G1 X187.661 Y79.909 E0.12113
G1 X189.915 Y83.214 E0.12544
G1 X191.872 Y86.492 E0.11970
G1 X193.627 Y89.870 E0.11934
G1 X195.259 Y93.534 E0.12578
G1 X196.594 Y97.098 E0.11934
G1 X197.718 Y100.735 E0.11934
G1 X198.669 Y104.633 E0.12580
G1 X199.354 Y108.424 E0.12078
G1 X199.813 Y112.259 E0.12112
G1 X200.041 Y116.093 E0.12042
G1 X200.041 Y119.956 E0.12112
G1 X199.814 Y123.789 E0.12040
G1 X199.357 Y127.613 E0.12076
G1 X198.641 Y131.561 E0.12579
G1 X197.736 Y135.258 E0.11934
G1 X196.616 Y138.896 E0.11934
G1 X195.207 Y142.652 E0.12579
G1 X193.642 Y146.159 E0.12042
G1 X191.872 Y149.567 E0.12040
G1 X189.903 Y152.864 E0.12040
G1 X187.743 Y156.039 E0.12041
G1 X185.288 Y159.213 E0.12580
G1 X182.751 Y162.111 E0.12077
G1 X180.055 Y164.846 E0.12041
G1 X177.202 Y167.415 E0.12040
G1 X174.210 Y169.805 E0.12006
G1 X170.937 Y172.109 E0.12548
G1 X167.661 Y174.129 E0.12068
G1 X164.258 Y175.959 E0.12116
G1 X160.773 Y177.574 E0.12041
G1 X157.209 Y178.974 E0.12006
G1 X153.414 Y180.207 E0.12512
G1 X149.699 Y181.169 E0.12033
G1 X145.930 Y181.913 E0.12046
G1 X142.022 Y182.441 E0.12363
G1 X138.170 Y182.726 E0.12112
G1 X134.308 Y182.782 E0.12111
G1 X130.460 Y182.608 E0.12077
G1 X126.606 Y182.202 E0.12150
G1 X122.795 Y181.569 E0.12114
G1 X119.017 Y180.706 E0.12148
G1 X115.309 Y179.623 E0.12112
G1 X111.672 Y178.321 E0.12113
G1 X108.077 Y176.785 E0.12257
G1 X104.622 Y175.057 E0.12112
G1 X101.286 Y173.132 E0.12077
G1 X98.023 Y170.978 E0.12259
G1 X94.935 Y168.661 E0.12106
G1 X91.986 Y166.163 E0.12116
G1 X89.161 Y163.462 E0.12255
G1 X86.542 Y160.638 E0.12078
G1 X84.094 Y157.662 E0.12082
M73 Q1 S91
G1 X81.811 Y154.520 E0.12178
M73 P1 R86
G1 X79.735 Y151.275 E0.12079
G1 X77.857 Y147.912 E0.12077
G1 X76.177 Y144.433 E0.12112
G1 X74.688 Y140.806 E0.12292
G1 X73.441 Y137.162 E0.12078
G1 X72.413 Y133.450 E0.12076
G1 X71.589 Y129.581 E0.12401
G1 X71.007 Y125.704 E0.12293
G1 X70.663 Y121.857 E0.12112
G1 X70.550 Y117.995 E0.12111
G1 X70.667 Y114.146 E0.12076
G1 X71.012 Y110.310 E0.12077
G1 X71.589 Y106.478 E0.12150
G1 X72.391 Y102.698 E0.12115
G1 X73.417 Y98.974 E0.12113
G1 X74.668 Y95.307 E0.12148
G1 X76.144 Y91.700 E0.12219
G1 X77.819 Y88.219 E0.12113
G1 X79.700 Y84.843 E0.12114
G1 X81.829 Y81.511 E0.12398
G1 X84.087 Y78.405 E0.12042
G1 X86.390 Y75.604 E0.11369
G1 X86.682 Y75.844 F10800.000
G1 F1200.000
G1 X89.425 Y72.866 E0.12695
G1 X92.191 Y70.218 E0.12006
G1 X95.127 Y67.725 E0.12077
G1 X98.208 Y65.412 E0.12079
G1 X101.480 Y63.251 E0.12293
G1 X104.796 Y61.337 E0.12007
G1 X108.210 Y59.628 E0.11971
G1 X111.825 Y58.083 E0.12327
G1 X115.420 Y56.796 E0.11971
G1 X119.085 Y55.725 E0.11972
G1 X122.907 Y54.853 E0.12292
G1 X126.674 Y54.229 E0.11971
G1 X130.471 Y53.829 E0.11974
G1 X134.340 Y53.655 E0.12142
G1 X138.147 Y53.709 E0.11939
G1 X142.103 Y54.006 E0.12437
G1 X145.874 Y54.519 E0.11935
G1 X149.609 Y55.255 E0.11935
G1 X153.426 Y56.248 E0.12365
G1 X157.088 Y57.442 E0.12079
G1 X160.673 Y58.853 E0.12077
G1 X164.135 Y60.460 E0.11970
G1 X167.506 Y62.275 E0.12005
G1 X170.754 Y64.281 E0.11970
G1 X173.878 Y66.477 E0.11971
G1 X176.988 Y68.957 E0.12473
G1 X179.807 Y71.498 E0.11900
G1 X182.479 Y74.209 E0.11934
G1 X185.008 Y77.099 E0.12040
G1 X187.360 Y80.135 E0.12042
G1 X189.595 Y83.412 E0.12437
G1 X191.540 Y86.671 E0.11900
G1 X193.290 Y90.038 E0.11899
G1 X194.908 Y93.672 E0.12471
G1 X196.239 Y97.226 E0.11899
G1 X197.356 Y100.841 E0.11864
G1 X198.299 Y104.705 E0.12473
G1 X198.980 Y108.474 E0.12007
G1 X199.436 Y112.287 E0.12041
G1 X199.664 Y116.110 E0.12007
G1 X199.664 Y119.950 E0.12041
G1 X199.437 Y123.761 E0.11970
G1 X198.983 Y127.563 E0.12006
G1 X198.273 Y131.477 E0.12472
G1 X197.374 Y135.152 E0.11864
G1 X196.258 Y138.779 E0.11899
G1 X194.860 Y142.503 E0.12472
G1 X193.305 Y145.990 E0.11971
G1 X191.545 Y149.378 E0.11970
G1 X189.582 Y152.666 E0.12005
G1 X187.434 Y155.822 E0.11971
G1 X185.001 Y158.969 E0.12473
G1 X182.479 Y161.851 E0.12007
G1 X179.798 Y164.569 E0.11970
G1 X176.962 Y167.124 E0.11970
G1 X173.979 Y169.507 E0.11970
G1 X170.734 Y171.791 E0.12441
G1 X167.477 Y173.799 E0.11998
G1 X164.094 Y175.620 E0.12046
G1 X160.630 Y177.225 E0.11971
G1 X157.077 Y178.621 E0.11971
G1 X153.314 Y179.844 E0.12404
G1 X149.621 Y180.801 E0.11963
G1 X145.862 Y181.542 E0.12011
G1 X141.989 Y182.065 E0.12256
G1 X138.159 Y182.349 E0.12041
G1 X134.319 Y182.405 E0.12040
G1 X130.494 Y182.232 E0.12007
G1 X126.662 Y181.829 E0.12079
G1 X122.862 Y181.198 E0.12079
G1 X119.107 Y180.340 E0.12078
G1 X115.420 Y179.263 E0.12042
G1 X111.804 Y177.968 E0.12043
G1 X108.231 Y176.441 E0.12186
G1 X104.796 Y174.722 E0.12042
G1 X101.480 Y172.808 E0.12006
G1 X98.245 Y170.673 E0.12153
G1 X95.165 Y168.362 E0.12071
G1 X92.234 Y165.879 E0.12045
G1 X89.434 Y163.201 E0.12149
G1 X86.829 Y160.394 E0.12007
G1 X84.389 Y157.427 E0.12046
G1 X82.119 Y154.303 E0.12107
G1 X80.056 Y151.076 E0.12009
G1 X78.189 Y147.733 E0.12007
G1 X76.519 Y144.274 E0.12041
G1 X75.039 Y140.668 E0.12221
G1 X73.799 Y137.045 E0.12007
G1 X72.778 Y133.355 E0.12006
G1 X71.959 Y129.508 E0.12330
G1 X71.382 Y125.665 E0.12186
G1 X71.040 Y121.840 E0.12041
G1 X70.927 Y118.001 E0.12041
G1 X71.043 Y114.174 E0.12005
G1 X71.386 Y110.360 E0.12006
G1 X71.959 Y106.550 E0.12079
G1 X72.759 Y102.782 E0.12080
G1 X73.779 Y99.079 E0.12042
G1 X75.023 Y95.434 E0.12077
G1 X76.486 Y91.858 E0.12113
G1 X78.157 Y88.387 E0.12078
G1 X80.026 Y85.032 E0.12043
G1 X82.137 Y81.728 E0.12292
G1 X84.389 Y78.632 E0.12006
G1 X86.643 Y75.890 E0.11128
G1 X86.935 Y76.130 F10800.000
G1 F1200.000
G1 X87.109 Y75.918 E0.00861
G1 X89.698 Y73.127 E0.11936
G1 X92.448 Y70.495 E0.11936
G1 X95.367 Y68.016 E0.12006
G1 X98.430 Y65.717 E0.12008
G1 X101.673 Y63.575 E0.12186
G1 X104.970 Y61.672 E0.11936
G1 X108.374 Y59.968 E0.11936
G1 X111.958 Y58.436 E0.12220
G1 X115.542 Y57.153 E0.11936
G1 X119.185 Y56.088 E0.11902
G1 X122.974 Y55.224 E0.12185
G1 X126.719 Y54.603 E0.11901
G1 X130.505 Y54.204 E0.11939
G1 X134.351 Y54.032 E0.12071
G1 X138.136 Y54.086 E0.11868
G1 X142.057 Y54.380 E0.12330
G1 X145.818 Y54.892 E0.11900
G1 X149.531 Y55.623 E0.11865
G1 X153.314 Y56.608 E0.12258
G1 X156.956 Y57.795 E0.12008
G1 X160.519 Y59.197 E0.12006
G1 X163.962 Y60.795 E0.11900
G1 X167.313 Y62.599 E0.11935
G1 X170.542 Y64.593 E0.11900
G1 X173.657 Y66.782 E0.11936
G1 X176.740 Y69.241 E0.12365
G1 X179.551 Y71.775 E0.11865
G1 X182.207 Y74.470 E0.11864
G1 X184.720 Y77.343 E0.11970
G1 X187.058 Y80.361 E0.11972
G1 X189.274 Y83.610 E0.12330
G1 X191.213 Y86.859 E0.11864
G1 X192.953 Y90.207 E0.11829
G1 X194.557 Y93.810 E0.12364
G1 X195.881 Y97.342 E0.11829
G1 X196.994 Y100.947 E0.11829
G1 X197.929 Y104.778 E0.12366
G1 X198.606 Y108.524 E0.11937
G1 X199.060 Y112.315 E0.11971
G1 X199.287 Y116.115 E0.11936
G1 X199.288 Y119.933 E0.11971
G1 X199.061 Y123.733 E0.11935
G1 X198.610 Y127.513 E0.11935
G1 X197.905 Y131.393 E0.12365
G1 X197.009 Y135.057 E0.11829
G1 X195.899 Y138.663 E0.11829
G1 X194.513 Y142.355 E0.12365
G1 X192.967 Y145.822 E0.11901
G1 X191.213 Y149.200 E0.11935
G1 X189.262 Y152.468 E0.11935
G1 X187.126 Y155.605 E0.11900
G1 X184.713 Y158.725 E0.12366
G1 X182.206 Y161.590 E0.11936
G1 X179.542 Y164.293 E0.11900
G1 X176.714 Y166.840 E0.11935
G1 X173.748 Y169.208 E0.11900
G1 X170.532 Y171.473 E0.12333
