; generated by PrusaSlicer 2.2.0+win64 on 2021-12-24 at 15:42:02 UTC

; 

; external perimeters extrusion width = 0.60mm
; perimeters extrusion width = 0.50mm
; infill extrusion width = 0.50mm
; solid infill extrusion width = 0.50mm
; top infill extrusion width = 0.45mm
; first layer extrusion width = 0.42mm

M73 P0 R92
M73 Q0 S92
M201 X1000 Y1000 Z200 E5000 ; sets maximum accelerations, mm/sec^2
M203 X200 Y200 Z12 E120 ; sets maximum feedrates, mm/sec
M204 P1250 R1250 T1250 ; sets acceleration (P, T) and retract acceleration (R), mm/sec^2
M205 X8.00 Y8.00 Z0.40 E4.50 ; sets the jerk limits, mm/sec
M205 S0 T0 ; sets the minimum extruding and travel feed rate, mm/sec
M107
M862.3 P "MK3S" ; printer model check
M862.1 P0.4 ; nozzle diameter check
M115 U3.10.0 ; tell printer latest fw version
G90 ; use absolute coordinates
M83 ; extruder relative mode
M104 S215 ; set extruder temp
M140 S60 ; set bed temp
M190 S60 ; wait for bed temp
M109 S215 ; wait for extruder temp
G28 W ; home all without mesh bed level
G80 ; mesh bed leveling
G1 Y-3.0 F1000.0 ; go outside print area
G92 E0.0
G1 X60.0 E9.0 F1000.0 ; intro line
M73 Q0 S92
M73 P0 R92
G1 X100.0 E12.5 F1000.0 ; intro line
G92 E0.0
M221 S95

; Don't change E values below. Excessive value can damage the printer.

M907 E538 ; set extruder motor current
G21 ; set units to millimeters
G90 ; use absolute coordinates
M83 ; use relative distances for extrusion
M900 K0.05 ; Filament gcode LA 1.5
M900 K30 ; Filament gcode LA 1.0
;BEFORE_LAYER_CHANGE
G92 E0.0
;0.2


G1 E-0.80000 F2100.00000
G1 Z0.400 F10800.000
;AFTER_LAYER_CHANGE
;0.2
G1 X112.204 Y95.140
G1 Z0.200
G1 E0.80000 F2100.00000
M204 S1000
G1 F1200.000
G1 X113.521 Y93.633 E0.06277
G1 X114.695 Y92.556 E0.04994
G1 X116.076 Y91.531 E0.05393
G1 X117.551 Y90.662 E0.05367
G1 X119.117 Y89.952 E0.05392
G1 X120.750 Y89.412 E0.05392
G1 X122.419 Y89.050 E0.05354
G1 X124.129 Y88.866 E0.05392
G1 X125.717 Y88.862 E0.04981
G1 X127.714 Y89.076 E0.06296
G1 X129.272 Y89.418 E0.05000
G1 X131.006 Y90.003 E0.05739
G1 X132.458 Y90.667 E0.05007
G1 X133.939 Y91.541 E0.05392
G1 X135.313 Y92.562 E0.05367
G1 X136.577 Y93.729 E0.05393
G1 X137.709 Y95.023 E0.05392
G1 X138.691 Y96.420 E0.05354
G1 X139.526 Y97.924 E0.05392
G1 X140.151 Y99.394 E0.05007
G1 X140.690 Y101.142 E0.05738
G1 X140.991 Y102.711 E0.05007
G1 X141.152 Y104.710 E0.06289
G1 X141.105 Y106.298 E0.04981
G1 X140.876 Y108.003 E0.05392
G1 X140.469 Y109.665 E0.05367
G1 X139.884 Y111.286 E0.05403
G1 X139.135 Y112.827 E0.05370
G1 X138.228 Y114.278 E0.05366
G1 X137.167 Y115.631 E0.05392
G1 X136.053 Y116.781 E0.05020
G1 X134.655 Y117.956 E0.05726
G1 X133.327 Y118.843 E0.05007
G1 X131.547 Y119.768 E0.06289
G1 X130.066 Y120.343 E0.04981
G1 X128.398 Y120.796 E0.05418
G1 X126.708 Y121.067 E0.05367
G1 X124.933 Y121.157 E0.05572
G1 X123.278 Y121.065 E0.05200
G1 X121.580 Y120.791 E0.05392
G1 X119.924 Y120.339 E0.05380
G1 X118.330 Y119.716 E0.05367
G1 X116.800 Y118.922 E0.05405
G1 X115.373 Y117.976 E0.05367
G1 X114.049 Y116.880 E0.05392
G1 X112.937 Y115.745 E0.04981
G1 X111.699 Y114.167 E0.06289
G1 X110.856 Y112.810 E0.05007
G1 X110.066 Y111.159 E0.05739
G1 X109.528 Y109.656 E0.05007
G1 X109.121 Y107.985 E0.05392
G1 X108.894 Y106.288 E0.05367
G1 X108.848 Y104.577 E0.05367
G1 X108.985 Y102.859 E0.05405
G1 X109.302 Y101.176 E0.05367
G1 X109.797 Y99.529 E0.05392
G1 X110.414 Y98.056 E0.05007
G1 X111.290 Y96.450 E0.05738
G1 X112.170 Y95.189 E0.04819
G1 X112.599 Y95.241 F10800.000
G1 F1200.000
G1 X113.778 Y93.909 E0.05576
G1 X114.934 Y92.848 E0.04920
G1 X116.282 Y91.846 E0.05267
G1 X117.723 Y90.998 E0.05243
G1 X119.253 Y90.304 E0.05267
G1 X120.847 Y89.776 E0.05267
G1 X122.482 Y89.422 E0.05243
G1 X124.152 Y89.243 E0.05267
G1 X125.717 Y89.239 E0.04909
G1 X127.634 Y89.444 E0.06046
G1 X129.169 Y89.781 E0.04927
G1 X130.855 Y90.349 E0.05576
G1 X132.282 Y91.000 E0.04920
G1 X133.729 Y91.854 E0.05267
G1 X135.071 Y92.851 E0.05243
G1 X136.305 Y93.991 E0.05267
G1 X137.411 Y95.255 E0.05267
G1 X138.373 Y96.623 E0.05243
G1 X139.188 Y98.092 E0.05267
G1 X139.803 Y99.539 E0.04932
G1 X140.326 Y101.239 E0.05576
G1 X140.621 Y102.781 E0.04920
G1 X140.775 Y104.701 E0.06040
G1 X140.729 Y106.266 E0.04909
G1 X140.506 Y107.931 E0.05267
G1 X140.109 Y109.555 E0.05243
G1 X139.538 Y111.138 E0.05277
G1 X138.804 Y112.646 E0.05257
G1 X137.918 Y114.063 E0.05242
G1 X136.881 Y115.385 E0.05267
G1 X135.784 Y116.518 E0.04944
G1 X134.424 Y117.657 E0.05564
G1 X133.118 Y118.528 E0.04920
G1 X131.409 Y119.417 E0.06040
G1 X129.950 Y119.984 E0.04909
G1 X128.325 Y120.426 E0.05279
G1 X126.671 Y120.692 E0.05255
G1 X124.944 Y120.780 E0.05422
G1 X123.320 Y120.691 E0.05100
G1 X121.661 Y120.423 E0.05267
G1 X120.045 Y119.982 E0.05255
G1 X118.484 Y119.372 E0.05255
G1 X116.990 Y118.596 E0.05279
G1 X115.596 Y117.672 E0.05243
G1 X114.302 Y116.601 E0.05267
G1 X113.207 Y115.482 E0.04909
G1 X112.017 Y113.965 E0.06046
G1 X111.187 Y112.630 E0.04927
G1 X110.419 Y111.027 E0.05576
G1 X109.890 Y109.549 E0.04920
G1 X109.492 Y107.917 E0.05267
G1 X109.270 Y106.260 E0.05243
G1 X109.225 Y104.585 E0.05255
G1 X109.359 Y102.906 E0.05279
G1 X109.669 Y101.263 E0.05243
G1 X110.153 Y99.655 E0.05267
G1 X110.759 Y98.207 E0.04920
G1 X111.692 Y96.524 E0.06034
G1 X112.565 Y95.290 E0.04739
G1 F8640.000
G1 X113.778 Y93.909 E-0.42442
G1 X114.848 Y92.926 E-0.33558
G1 E-0.04000 F2100.00000
G1 Z0.600 F10800.000
G1 X111.336 Y94.422
G1 Z0.200
G1 E0.80000 F2100.00000
G1 F1200.000
G1 X111.412 Y94.315 E0.00411
G1 X112.592 Y92.965 E0.05622
G1 X113.891 Y91.757 E0.05563
G1 X115.360 Y90.652 E0.05761
G1 X116.924 Y89.717 E0.05716
G1 X118.839 Y88.849 E0.06590
G1 X120.550 Y88.297 E0.05638
G1 X122.307 Y87.925 E0.05630
G1 X124.093 Y87.738 E0.05632
G1 X125.889 Y87.737 E0.05631
G1 X127.716 Y87.929 E0.05760
G1 X129.494 Y88.309 E0.05700
G1 X131.241 Y88.880 E0.05764
G1 X132.900 Y89.625 E0.05701
G1 X134.471 Y90.540 E0.05701
G1 X135.938 Y91.615 E0.05703
G1 X137.298 Y92.853 E0.05765
G1 X138.505 Y94.210 E0.05696
G1 X139.574 Y95.705 E0.05761
G1 X140.481 Y97.310 E0.05780
G1 X141.300 Y99.246 E0.06592
G1 X141.805 Y100.951 E0.05576
G1 X142.134 Y102.715 E0.05627
G1 X142.278 Y104.485 E0.05568
G1 X142.238 Y106.280 E0.05629
G1 X142.005 Y108.103 E0.05761
G1 X141.585 Y109.872 E0.05702
G1 X140.980 Y111.591 E0.05712
G1 X140.192 Y113.245 E0.05745
G1 X139.230 Y114.813 E0.05767
G1 X138.104 Y116.273 E0.05781
G1 X136.620 Y117.798 E0.06672
G1 X135.226 Y118.937 E0.05644
G1 X133.708 Y119.932 E0.05692
G1 X132.112 Y120.755 E0.05629
G1 X130.420 Y121.414 E0.05692
G1 X128.688 Y121.888 E0.05629
G1 X126.897 Y122.181 E0.05691
G1 X125.104 Y122.285 E0.05632
G1 X123.309 Y122.203 E0.05633
G1 X121.492 Y121.926 E0.05763
G1 X119.713 Y121.457 E0.05769
G1 X117.994 Y120.802 E0.05769
G1 X116.354 Y119.968 E0.05769
G1 X114.812 Y118.964 E0.05769
G1 X113.383 Y117.800 E0.05780
G1 X111.914 Y116.295 E0.06593
G1 X110.811 Y114.873 E0.05643
G1 X109.853 Y113.329 E0.05698
G1 X109.063 Y111.693 E0.05695
G1 X108.454 Y110.004 E0.05629
G1 X108.024 Y108.260 E0.05633
G1 X107.776 Y106.460 E0.05697
G1 X107.718 Y104.645 E0.05695
G1 X107.848 Y102.853 E0.05633
G1 X108.173 Y101.043 E0.05765
G1 X108.690 Y99.273 E0.05781
G1 X109.517 Y97.314 E0.06669
G1 X110.389 Y95.764 E0.05575
G1 X111.302 Y94.471 E0.04962
G1 X111.610 Y94.689 F10800.000
G1 F1200.000
G1 X111.714 Y94.541 E0.00569
G1 X112.869 Y93.221 E0.05499
G1 X114.140 Y92.040 E0.05441
G1 X115.578 Y90.960 E0.05637
G1 X117.108 Y90.046 E0.05589
G1 X118.965 Y89.205 E0.06391
G1 X120.638 Y88.664 E0.05513
G1 X122.356 Y88.299 E0.05507
G1 X124.122 Y88.114 E0.05570
G1 X125.879 Y88.114 E0.05507
G1 X127.667 Y88.303 E0.05636
G1 X129.405 Y88.675 E0.05575
G1 X131.114 Y89.235 E0.05639
G1 X132.736 Y89.965 E0.05576
G1 X134.273 Y90.861 E0.05576
G1 X135.707 Y91.913 E0.05578
G1 X137.036 Y93.125 E0.05640
G1 X138.216 Y94.453 E0.05571
G1 X139.261 Y95.916 E0.05636
G1 X140.147 Y97.486 E0.05652
G1 X140.942 Y99.363 E0.06392
G1 X141.436 Y101.030 E0.05452
G1 X141.759 Y102.756 E0.05504
G1 X141.901 Y104.506 E0.05506
G1 X141.862 Y106.262 E0.05506
G1 X141.632 Y108.045 E0.05637
G1 X141.220 Y109.775 E0.05578
G1 X140.628 Y111.456 E0.05587
G1 X139.856 Y113.074 E0.05620
G1 X138.914 Y114.607 E0.05641
G1 X137.813 Y116.034 E0.05653
G1 X136.373 Y117.513 E0.06471
G1 X135.010 Y118.627 E0.05518
G1 X133.526 Y119.602 E0.05569
G1 X131.966 Y120.407 E0.05506
G1 X130.311 Y121.053 E0.05569
G1 X128.617 Y121.517 E0.05506
G1 X126.865 Y121.805 E0.05567
G1 X125.112 Y121.908 E0.05508
G1 X123.337 Y121.827 E0.05570
G1 X121.559 Y121.555 E0.05638
G1 X119.819 Y121.095 E0.05643
G1 X118.138 Y120.454 E0.05643
G1 X116.534 Y119.637 E0.05643
G1 X115.026 Y118.654 E0.05643
G1 X113.629 Y117.514 E0.05652
G1 X112.206 Y116.055 E0.06393
G1 X111.126 Y114.665 E0.05518
G1 X110.188 Y113.155 E0.05573
G1 X109.414 Y111.556 E0.05571
G1 X108.818 Y109.904 E0.05505
G1 X108.393 Y108.179 E0.05570
G1 X108.151 Y106.419 E0.05573
G1 X108.095 Y104.643 E0.05571
G1 X108.223 Y102.890 E0.05509
G1 X108.543 Y101.120 E0.05640
G1 X109.049 Y99.390 E0.05653
G1 X109.851 Y97.489 E0.06468
G1 X110.702 Y95.973 E0.05450
G1 X111.575 Y94.738 E0.04743
G1 X112.005 Y94.781 F10800.000
G1 F1200.000
G1 X113.133 Y93.490 E0.05376
G1 X114.390 Y92.323 E0.05379
G1 X115.796 Y91.267 E0.05513
G1 X117.292 Y90.375 E0.05462
G1 X119.091 Y89.560 E0.06192
G1 X120.726 Y89.031 E0.05387
G1 X122.424 Y88.670 E0.05444
G1 X124.152 Y88.490 E0.05445
G1 X125.869 Y88.491 E0.05384
G1 X127.617 Y88.677 E0.05511
G1 X129.316 Y89.042 E0.05450
G1 X130.987 Y89.591 E0.05514
G1 X132.572 Y90.305 E0.05451
G1 X134.074 Y91.181 E0.05452
G1 X135.475 Y92.211 E0.05454
G1 X136.775 Y93.396 E0.05515
G1 X137.927 Y94.696 E0.05446
G1 X138.948 Y96.127 E0.05511
G1 X139.814 Y97.661 E0.05524
G1 X140.583 Y99.481 E0.06193
G1 X141.072 Y101.128 E0.05388
G1 X141.387 Y102.815 E0.05381
G1 X141.525 Y104.527 E0.05383
G1 X141.485 Y106.243 E0.05383
G1 X141.260 Y107.987 E0.05512
G1 X140.856 Y109.678 E0.05453
G1 X140.276 Y111.321 E0.05462
G1 X139.521 Y112.902 E0.05495
G1 X138.599 Y114.401 E0.05515
G1 X137.521 Y115.795 E0.05526
G1 X136.126 Y117.228 E0.06270
G1 X134.795 Y118.317 E0.05393
G1 X133.344 Y119.271 E0.05445
G1 X131.801 Y120.068 E0.05443
G1 X130.183 Y120.698 E0.05445
G1 X128.527 Y121.151 E0.05382
G1 X126.814 Y121.432 E0.05444
G1 X125.100 Y121.531 E0.05385
G1 X123.364 Y121.450 E0.05447
G1 X121.627 Y121.184 E0.05513
G1 X119.926 Y120.733 E0.05517
G1 X118.282 Y120.105 E0.05517
G1 X116.714 Y119.305 E0.05517
G1 X115.241 Y118.344 E0.05517
G1 X113.876 Y117.229 E0.05525
G1 X112.497 Y115.815 E0.06194
G1 X111.441 Y114.458 E0.05392
G1 X110.523 Y112.982 E0.05449
G1 X109.765 Y111.419 E0.05447
G1 X109.176 Y109.786 E0.05443
G1 X108.762 Y108.099 E0.05446
G1 X108.526 Y106.377 E0.05449
G1 X108.472 Y104.641 E0.05447
G1 X108.599 Y102.928 E0.05386
G1 X108.912 Y101.197 E0.05515
G1 X109.408 Y99.506 E0.05526
G1 X110.185 Y97.664 E0.06268
G1 X111.016 Y96.183 E0.05326
G1 X111.970 Y94.831 E0.05189
G1 F8640.000
G1 X113.133 Y93.490 E-0.40972
G1 X114.244 Y92.458 E-0.35028
G1 E-0.04000 F2100.00000
G1 Z0.600 F10800.000
G1 X112.888 Y95.488
G1 Z0.200
G1 E0.80000 F2100.00000
G1 F1200.000
G1 X113.952 Y94.271 E0.05069
G1 X115.122 Y93.185 E0.05008
G1 X116.434 Y92.202 E0.05138
G1 X117.844 Y91.363 E0.05143
G1 X119.471 Y90.626 E0.05602
G1 X120.991 Y90.131 E0.05012
G1 X122.573 Y89.792 E0.05072
G1 X124.182 Y89.621 E0.05073
G1 X125.799 Y89.620 E0.05072
G1 X127.428 Y89.792 E0.05136
G1 X129.011 Y90.131 E0.05075
G1 X130.568 Y90.642 E0.05139
G1 X132.045 Y91.306 E0.05077
G1 X133.461 Y92.132 E0.05139
G1 X134.780 Y93.104 E0.05140
G1 X135.989 Y94.211 E0.05138
G1 X137.060 Y95.423 E0.05071
G1 X138.009 Y96.758 E0.05135
G1 X138.812 Y98.188 E0.05143
G1 X139.508 Y99.834 E0.05603
G1 X139.965 Y101.366 E0.05013
G1 X140.264 Y102.956 E0.05072
G1 X140.394 Y104.569 E0.05073
G1 X140.356 Y106.166 E0.05011
G1 X140.145 Y107.791 E0.05138
G1 X139.763 Y109.385 E0.05139
G1 X139.219 Y110.914 E0.05087
G1 X138.513 Y112.386 E0.05120
G1 X137.652 Y113.781 E0.05138
G1 X136.646 Y115.076 E0.05143
G1 X135.384 Y116.373 E0.05675
G1 X134.132 Y117.401 E0.05078
G1 X132.781 Y118.290 E0.05072
G1 X131.344 Y119.033 E0.05071
G1 X129.837 Y119.621 E0.05073
G1 X128.277 Y120.048 E0.05072
G1 X126.680 Y120.308 E0.05071
G1 X125.065 Y120.400 E0.05074
G1 X123.449 Y120.322 E0.05073
G1 X121.830 Y120.070 E0.05137
G1 X120.246 Y119.648 E0.05140
G1 X118.716 Y119.060 E0.05140
G1 X117.257 Y118.312 E0.05140
G1 X115.886 Y117.414 E0.05140
G1 X114.617 Y116.374 E0.05143
G1 X113.370 Y115.095 E0.05602
G1 X112.374 Y113.818 E0.05077
G1 X111.518 Y112.444 E0.05077
G1 X110.811 Y110.988 E0.05074
G1 X110.262 Y109.467 E0.05070
G1 X109.875 Y107.896 E0.05072
G1 X109.652 Y106.273 E0.05137
G1 X109.604 Y104.656 E0.05073
G1 X109.725 Y103.042 E0.05074
G1 X110.019 Y101.430 E0.05139
G1 X110.484 Y99.857 E0.05143
G1 X111.187 Y98.189 E0.05673
G1 X111.968 Y96.794 E0.05012
G1 X112.853 Y95.538 E0.04820
G1 X113.162 Y95.755 F10800.000
G1 F1200.000
G1 X114.229 Y94.527 E0.05101
G1 X115.371 Y93.468 E0.04884
G1 X116.652 Y92.510 E0.05013
G1 X118.027 Y91.693 E0.05016
G1 X119.598 Y90.982 E0.05406
G1 X121.098 Y90.492 E0.04948
G1 X122.642 Y90.163 E0.04948
G1 X124.211 Y89.997 E0.04949
G1 X125.789 Y89.997 E0.04947
G1 X127.378 Y90.166 E0.05011
G1 X128.922 Y90.498 E0.04950
G1 X130.441 Y90.997 E0.05014
G1 X131.881 Y91.645 E0.04952
G1 X133.262 Y92.452 E0.05014
G1 X134.548 Y93.402 E0.05014
G1 X135.727 Y94.482 E0.05013
G1 X136.771 Y95.665 E0.04946
G1 X137.696 Y96.968 E0.05010
G1 X138.478 Y98.363 E0.05016
G1 X139.150 Y99.952 E0.05408
G1 X139.597 Y101.446 E0.04889
G1 X139.889 Y102.996 E0.04948
G1 X140.017 Y104.570 E0.04949
G1 X139.979 Y106.147 E0.04949
G1 X139.773 Y107.733 E0.05012
G1 X139.399 Y109.287 E0.05013
G1 X138.868 Y110.778 E0.04962
G1 X138.178 Y112.214 E0.04995
G1 X137.337 Y113.574 E0.05013
G1 X136.355 Y114.837 E0.05016
G1 X135.136 Y116.089 E0.05478
G1 X133.916 Y117.091 E0.04952
G1 X132.598 Y117.960 E0.04948
G1 X131.197 Y118.685 E0.04946
G1 X129.728 Y119.260 E0.04948
G1 X128.206 Y119.677 E0.04948
G1 X126.649 Y119.932 E0.04946
G1 X125.053 Y120.023 E0.05011
G1 X123.477 Y119.946 E0.04948
G1 X121.898 Y119.699 E0.05012
G1 X120.353 Y119.286 E0.05014
G1 X118.861 Y118.712 E0.05014
G1 X117.438 Y117.981 E0.05014
G1 X116.101 Y117.104 E0.05014
G1 X114.864 Y116.089 E0.05016
G1 X113.661 Y114.855 E0.05406
G1 X112.689 Y113.610 E0.04951
G1 X111.844 Y112.253 E0.05014
G1 X111.155 Y110.833 E0.04949
G1 X110.620 Y109.349 E0.04946
G1 X110.243 Y107.816 E0.04948
G1 X110.027 Y106.232 E0.05012
G1 X109.981 Y104.655 E0.04948
G1 X110.100 Y103.081 E0.04950
G1 X110.388 Y101.508 E0.05014
G1 X110.842 Y99.974 E0.05016
G1 X111.522 Y98.364 E0.05477
G1 X112.282 Y97.003 E0.04887
G1 X113.127 Y95.804 E0.04601
G1 X113.435 Y96.020 F10800.000
G1 F1200.000
G1 X114.493 Y94.797 E0.05072
G1 X115.620 Y93.751 E0.04822
G1 X116.869 Y92.818 E0.04888
G1 X118.211 Y92.023 E0.04890
G1 X119.725 Y91.337 E0.05212
G1 X121.187 Y90.859 E0.04823
G1 X122.691 Y90.537 E0.04824
G1 X124.222 Y90.375 E0.04824
G1 X125.760 Y90.374 E0.04822
G1 X127.309 Y90.537 E0.04886
G1 X128.814 Y90.859 E0.04825
G1 X130.295 Y91.345 E0.04888
G1 X131.717 Y91.985 E0.04888
G1 X133.062 Y92.773 E0.04888
G1 X134.316 Y93.699 E0.04888
G1 X135.465 Y94.753 E0.04887
G1 X136.481 Y95.906 E0.04821
G1 X137.382 Y97.178 E0.04885
G1 X138.144 Y98.538 E0.04889
G1 X138.791 Y100.070 E0.05214
G1 X139.233 Y101.544 E0.04825
G1 X139.517 Y103.056 E0.04824
G1 X139.640 Y104.590 E0.04825
G1 X139.603 Y106.128 E0.04824
G1 X139.400 Y107.674 E0.04887
G1 X139.034 Y109.189 E0.04888
G1 X138.516 Y110.642 E0.04837
G1 X137.842 Y112.041 E0.04869
G1 X137.021 Y113.366 E0.04887
G1 X136.064 Y114.597 E0.04889
G1 X134.888 Y115.804 E0.05283
G1 X133.700 Y116.782 E0.04826
G1 X132.399 Y117.640 E0.04885
G1 X131.033 Y118.346 E0.04821
G1 X129.600 Y118.905 E0.04824
G1 X128.116 Y119.311 E0.04824
G1 X126.598 Y119.559 E0.04822
G1 X125.042 Y119.646 E0.04886
G1 X123.506 Y119.570 E0.04823
G1 X121.966 Y119.329 E0.04886
G1 X120.460 Y118.925 E0.04888
G1 X119.006 Y118.363 E0.04888
G1 X117.620 Y117.651 E0.04888
G1 X116.317 Y116.794 E0.04888
G1 X115.112 Y115.804 E0.04889
G1 X113.951 Y114.614 E0.05212
G1 X113.004 Y113.402 E0.04825
G1 X112.178 Y112.079 E0.04889
G1 X111.506 Y110.695 E0.04825
