; generated by PrusaSlicer 2.2.0+win64 on 2022-01-15 at 21:16:58 UTC

; 

; external perimeters extrusion width = 0.60mm
; perimeters extrusion width = 0.50mm
; infill extrusion width = 0.50mm
; solid infill extrusion width = 0.50mm
; top infill extrusion width = 0.45mm
; first layer extrusion width = 0.42mm

M73 P0 R26
M73 Q0 S26
M201 X1000 Y1000 Z200 E5000 ; sets maximum accelerations, mm/sec^2
M203 X200 Y200 Z12 E120 ; sets maximum feedrates, mm/sec
M204 P1250 R1250 T1250 ; sets acceleration (P, T) and retract acceleration (R), mm/sec^2
M205 X8.00 Y8.00 Z0.40 E4.50 ; sets the jerk limits, mm/sec
M205 S0 T0 ; sets the minimum extruding and travel feed rate, mm/sec
M107
M862.3 P "MK3S" ; printer model check
M862.1 P0.4 ; nozzle diameter check
M115 U3.10.1 ; tell printer latest fw version
G90 ; use absolute coordinates
M83 ; extruder relative mode
M104 S235 ; set extruder temp
M140 S80 ; set bed temp
M190 S80 ; wait for bed temp
M109 S235 ; wait for extruder temp
G28 W ; home all without mesh bed level
G80 ; mesh bed leveling
G1 Y-3.0 F1000.0 ; go outside print area
G92 E0.0
G1 X60.0 E9.0 F1000.0 ; intro line
M73 Q0 S26
M73 P0 R26
G1 X100.0 E12.5 F1000.0 ; intro line
G92 E0.0
M221 S95

; Don't change E values below. Excessive value can damage the printer.

M907 E538 ; set extruder motor current
G21 ; set units to millimeters
G90 ; use absolute coordinates
M83 ; use relative distances for extrusion
M900 K0.05 ; Filament gcode LA 1.5
M900 K30 ; Filament gcode LA 1.0
;BEFORE_LAYER_CHANGE
G92 E0.0
;0.2


G1 E-0.80000 F2100.00000
G1 Z0.400 F10800.000
;AFTER_LAYER_CHANGE
;0.2
G1 X104.843 Y70.861
G1 Z0.200
G1 E0.80000 F2100.00000
M204 S1000
G1 F1200.000
G1 X105.627 Y70.473 E0.02743
G1 X109.494 Y69.548 E0.12468
G1 X113.463 Y69.033 E0.12550
G1 X117.392 Y68.730 E0.12356
G1 X125.028 Y68.607 E0.23943
G1 X132.347 Y68.729 E0.22953
G1 X136.154 Y68.983 E0.11962
G1 X139.860 Y69.447 E0.11710
G1 X143.839 Y70.291 E0.12754
G1 X147.218 Y72.256 E0.12256
G1 X147.609 Y72.576 E0.01585
G1 X147.921 Y72.969 E0.01574
G1 X149.769 Y76.393 E0.12199
G1 X151.316 Y79.706 E0.11465
G1 X152.743 Y83.135 E0.11643
G1 X154.034 Y86.541 E0.11421
G1 X155.232 Y90.033 E0.11575
G1 X156.289 Y93.564 E0.11559
G1 X157.190 Y97.196 E0.11734
G1 X157.882 Y100.834 E0.11609
G1 X158.347 Y104.474 E0.11506
G1 X158.594 Y108.318 E0.12079
G1 X158.591 Y112.051 E0.11703
G1 X158.322 Y115.754 E0.11640
G1 X157.578 Y119.762 E0.12784
G1 X152.338 Y135.210 E0.51147
G1 X150.963 Y137.937 E0.09577
G1 X150.604 Y138.437 E0.01929
G1 X150.183 Y138.793 E0.01728
G1 X147.206 Y140.695 E0.11077
G1 X146.699 Y140.829 E0.01645
G1 X143.500 Y141.241 E0.10113
G1 X140.344 Y141.372 E0.09904
G1 X137.242 Y141.393 E0.09727
G1 X109.734 Y141.373 E0.86250
G1 X106.510 Y141.238 E0.10115
G1 X103.017 Y140.755 E0.11058
G1 X102.424 Y140.480 E0.02048
G1 X99.856 Y138.798 E0.09626
G1 X99.476 Y138.477 E0.01562
G1 X99.102 Y137.964 E0.01989
G1 X97.720 Y135.227 E0.09616
G1 X92.312 Y119.070 E0.53419
G1 X91.629 Y115.104 E0.12618
G1 X91.406 Y111.209 E0.12234
G1 X91.512 Y107.236 E0.12462
G1 X91.869 Y103.363 E0.12195
G1 X92.448 Y99.515 E0.12200
G1 X93.219 Y95.700 E0.12205
G1 X94.225 Y91.754 E0.12766
G1 X95.372 Y88.193 E0.11731
G1 X96.764 Y84.576 E0.12154
G1 X99.706 Y77.558 E0.23858
G1 X101.399 Y74.037 E0.12249
G1 X101.907 Y73.367 E0.02637
G1 X104.797 Y70.900 E0.11913
; printing object cutter - honey pot - v4.stl id:0 copy 0
G1 F8640.000
G1 X105.627 Y70.473 E-0.21547
G1 X107.920 Y69.924 E-0.54453
G1 E-0.04000 F2100.00000
G1 Z0.600 F10800.000
G1 X108.073 Y77.574
G1 Z0.200
G1 E0.80000 F2100.00000
G1 F1200.000
G1 X112.406 Y76.733 E0.13839
G1 X116.614 Y76.360 E0.13247
G1 X120.820 Y76.207 E0.13195
G1 X124.856 Y76.164 E0.12656
G1 X129.226 Y76.207 E0.13702
G1 X133.431 Y76.360 E0.13195
G1 X137.640 Y76.733 E0.13248
G1 X141.973 Y77.574 E0.13839
G1 X143.078 Y79.819 E0.07846
G1 X144.032 Y81.915 E0.07220
G1 X144.935 Y84.031 E0.07215
G1 X145.777 Y86.115 E0.07046
G1 X146.624 Y88.310 E0.07378
G1 X147.393 Y90.414 E0.07023
G1 X148.151 Y92.656 E0.07422
G1 X148.827 Y94.861 E0.07229
G1 X149.427 Y97.087 E0.07230
G1 X149.941 Y99.337 E0.07236
G1 X150.357 Y101.609 E0.07243
G1 X150.671 Y103.898 E0.07244
G1 X150.887 Y106.198 E0.07243
G1 X151.009 Y108.504 E0.07241
G1 X151.036 Y110.816 E0.07249
G1 X150.944 Y113.129 E0.07260
G1 X150.694 Y115.435 E0.07273
G1 X150.247 Y117.725 E0.07314
G1 X149.550 Y119.977 E0.07391
G1 X148.477 Y122.000 E0.07182
G1 X146.856 Y123.830 E0.07664
G1 X145.136 Y125.331 E0.07158
G1 X143.781 Y127.050 E0.06863
G1 X143.804 Y128.894 E0.05784
G1 X145.230 Y130.553 E0.06859
G1 X145.376 Y131.513 E0.03045
G1 X145.302 Y132.411 E0.02824
G1 X145.001 Y133.509 E0.03570
G1 X134.866 Y133.752 E0.31787
G1 X125.023 Y133.598 E0.30865
G1 X115.183 Y133.752 E0.30858
G1 X105.045 Y133.509 E0.31795
G1 X104.743 Y132.404 E0.03593
G1 X104.670 Y131.534 E0.02736
G1 X104.816 Y130.552 E0.03113
G1 X106.238 Y128.917 E0.06795
G1 X106.104 Y126.713 E0.06923
G1 X104.702 Y125.147 E0.06591
G1 X102.907 Y123.561 E0.07510
G1 X101.380 Y121.720 E0.07500
G1 X100.290 Y119.422 E0.07973
G1 X99.647 Y117.061 E0.07674
G1 X99.250 Y114.672 E0.07594
G1 X99.052 Y112.266 E0.07570
G1 X99.009 Y109.853 E0.07567
G1 X99.081 Y107.446 E0.07550
G1 X99.254 Y105.045 E0.07547
G1 X99.533 Y102.654 E0.07547
G1 X99.912 Y100.321 E0.07410
G1 X100.416 Y97.927 E0.07673
G1 X101.012 Y95.598 E0.07536
G1 X101.691 Y93.298 E0.07521
G1 X102.443 Y91.020 E0.07522
G1 X103.253 Y88.762 E0.07522
G1 X104.109 Y86.521 E0.07519
G1 X105.001 Y84.298 E0.07512
G1 X105.936 Y82.090 E0.07517
G1 X106.927 Y79.905 E0.07522
G1 X108.047 Y77.628 E0.07957
G1 F8640.000
G1 X111.271 Y76.966 E-0.76000
G1 E-0.04000 F2100.00000
G1 Z0.600 F10800.000
G1 X149.360 Y128.015
G1 Z0.200
G1 E0.80000 F2100.00000
G1 F1200.000
G1 X150.102 Y131.156 E0.10118
G1 X149.809 Y134.037 E0.09082
G1 X148.551 Y136.531 E0.08757
G1 X146.204 Y138.083 E0.08822
G1 X143.299 Y138.461 E0.09187
G1 X140.278 Y138.586 E0.09478
G1 X137.240 Y138.606 E0.09529
G1 X134.192 Y138.557 E0.09556
G1 X128.082 Y138.401 E0.19162
G1 X125.023 Y138.366 E0.09593
G1 X121.966 Y138.401 E0.09585
G1 X115.864 Y138.557 E0.19138
G1 X112.823 Y138.606 E0.09537
G1 X109.785 Y138.586 E0.09524
G1 X106.764 Y138.462 E0.09481
G1 X103.857 Y138.087 E0.09190
G1 X101.509 Y136.550 E0.08799
G1 X100.250 Y134.054 E0.08768
G1 X99.921 Y131.139 E0.09196
G1 X100.766 Y128.088 E0.09925
G1 X98.035 Y125.244 E0.12365
G1 X96.241 Y122.093 E0.11367
G1 X95.050 Y118.550 E0.11722
G1 X94.409 Y114.896 E0.11632
G1 X94.193 Y111.168 E0.11708
G1 X94.293 Y107.426 E0.11735
G1 X94.636 Y103.698 E0.11738
G1 X95.193 Y99.996 E0.11738
G1 X95.936 Y96.321 E0.11756
G1 X96.893 Y92.561 E0.12167
G1 X97.999 Y89.123 E0.11323
G1 X99.348 Y85.622 E0.11763
G1 X102.256 Y78.685 E0.23585
G1 X103.849 Y75.371 E0.11529
G1 X106.463 Y73.137 E0.10779
G1 X110.061 Y72.277 E0.11599
G1 X113.768 Y71.804 E0.11720
G1 X117.502 Y71.515 E0.11741
G1 X121.259 Y71.417 E0.11784
G1 X125.163 Y71.395 E0.12241
G1 X128.612 Y71.422 E0.10813
G1 X132.192 Y71.512 E0.11231
G1 X135.890 Y71.757 E0.11618
G1 X139.351 Y72.187 E0.10936
G1 X142.740 Y72.858 E0.10831
G1 X145.609 Y74.540 E0.10428
G1 X147.254 Y77.595 E0.10880
G1 X148.766 Y80.833 E0.11202
G1 X150.142 Y84.136 E0.11221
G1 X151.413 Y87.487 E0.11236
G1 X152.575 Y90.875 E0.11231
G1 X153.600 Y94.300 E0.11208
G1 X154.462 Y97.765 E0.11195
G1 X155.130 Y101.271 E0.11193
G1 X155.580 Y104.809 E0.11182
G1 X155.807 Y108.372 E0.11194
G1 X155.806 Y111.947 E0.11209
G1 X155.547 Y115.490 E0.11139
G1 X154.907 Y118.963 E0.11073
G1 X153.747 Y122.285 E0.11030
G1 X151.913 Y125.359 E0.11224
G1 X149.402 Y127.972 E0.11364
G1 F8640.000
G1 X150.102 Y131.156 E-0.75272
G1 X150.099 Y131.187 E-0.00728
G1 E-0.04000 F2100.00000
G1 Z0.600 F10800.000
G1 X151.020 Y86.771
G1 Z0.200
G1 E0.80000 F2100.00000
G1 F1200.000
G1 X142.739 Y78.490 E0.36805
G1 X143.257 Y79.542 E0.03687
G1 X151.054 Y87.339 E0.34655
G1 X151.347 Y88.167 E0.02757
G1 X143.715 Y80.534 E0.33921
G1 X144.162 Y81.516 E0.03390
G1 X151.626 Y88.980 E0.33174
G1 X151.905 Y89.794 E0.02703
G1 X144.573 Y82.462 E0.32586
G1 X144.970 Y83.393 E0.03182
G1 X152.184 Y90.607 E0.32063
G1 X152.435 Y91.393 E0.02590
G1 X145.352 Y84.310 E0.31478
G1 X145.715 Y85.207 E0.03040
G1 X152.663 Y92.156 E0.30882
G1 X152.892 Y92.919 E0.02503
G1 X146.074 Y86.101 E0.30299
G1 X146.411 Y86.972 E0.02934
G1 X153.120 Y93.682 E0.29820
G1 X153.344 Y94.440 E0.02485
G1 X146.747 Y87.843 E0.29319
G1 X147.067 Y88.697 E0.02866
G1 X153.521 Y95.151 E0.28684
G1 X153.697 Y95.862 E0.02303
G1 X147.374 Y89.539 E0.28104
G1 X147.679 Y90.378 E0.02807
G1 X153.874 Y96.574 E0.27534
G1 X154.051 Y97.285 E0.02303
G1 X147.952 Y91.186 E0.27105
G1 X148.226 Y91.994 E0.02681
G1 X154.215 Y97.984 E0.26621
G1 X154.341 Y98.644 E0.02113
G1 X148.489 Y92.792 E0.26012
G1 X148.725 Y93.562 E0.02533
G1 X154.467 Y99.305 E0.25522
G1 X154.593 Y99.965 E0.02113
G1 X148.961 Y94.333 E0.25032
G1 X149.181 Y95.087 E0.02470
G1 X154.719 Y100.625 E0.24614
G1 X154.845 Y101.286 E0.02113
G1 X149.378 Y95.819 E0.24296
G1 X149.575 Y96.551 E0.02382
G1 X154.925 Y101.900 E0.23775
G1 X155.003 Y102.513 E0.01941
G1 X149.759 Y97.269 E0.23307
G1 X149.917 Y97.961 E0.02233
G1 X155.081 Y103.125 E0.22951
G1 X155.159 Y103.738 E0.01941
G1 X150.075 Y98.654 E0.22594
G1 X150.230 Y99.343 E0.02219
G1 X155.237 Y104.350 E0.22254
G1 X155.299 Y104.836 E0.01539
G1 X155.306 Y104.954 E0.00372
G1 X150.349 Y99.997 E0.22030
G1 X150.469 Y100.652 E0.02090
G1 X155.343 Y105.525 E0.21660
G1 X155.379 Y106.096 E0.01798
G1 X150.589 Y101.306 E0.21290
G1 X150.688 Y101.939 E0.02014
G1 X155.415 Y106.667 E0.21012
G1 X155.452 Y107.238 E0.01798
G1 X150.773 Y102.559 E0.20796
G1 X150.858 Y103.178 E0.01966
G1 X155.488 Y107.809 E0.20579
G1 X155.525 Y108.380 E0.01798
G1 X150.943 Y103.798 E0.20363
G1 X151.002 Y104.391 E0.01873
G1 X155.524 Y108.914 E0.20101
G1 X155.524 Y109.448 E0.01679
G1 X151.057 Y104.981 E0.19854
G1 X151.113 Y105.571 E0.01862
G1 X155.524 Y109.983 E0.19606
G1 X155.524 Y110.517 E0.01679
G1 X151.168 Y106.161 E0.19359
G1 X151.199 Y106.726 E0.01778
G1 X155.523 Y111.051 E0.19222
G1 X155.523 Y111.585 E0.01679
G1 X151.228 Y107.290 E0.19088
G1 X151.258 Y107.855 E0.01776
G1 X155.511 Y112.107 E0.18900
G1 X155.474 Y112.605 E0.01570
G1 X151.288 Y108.419 E0.18606
G1 X151.297 Y108.963 E0.01710
G1 X155.438 Y113.104 E0.18402
G1 X155.402 Y113.602 E0.01570
G1 X151.304 Y109.504 E0.18212
G1 X151.310 Y110.045 E0.01700
G1 X155.365 Y114.100 E0.18022
G1 X155.329 Y114.598 E0.01570
G1 X151.317 Y110.586 E0.17832
G1 X151.308 Y111.112 E0.01652
G1 X155.292 Y115.096 E0.17710
G1 X155.243 Y115.581 E0.01532
G1 X151.287 Y111.626 E0.17581
G1 X151.267 Y112.140 E0.01617
G1 X155.160 Y116.033 E0.17303
G1 X155.077 Y116.484 E0.01442
G1 X151.246 Y112.654 E0.17024
G1 X151.225 Y113.166 E0.01613
G1 X154.993 Y116.935 E0.16750
G1 X154.910 Y117.386 E0.01442
G1 X151.172 Y113.649 E0.16613
G1 X151.120 Y114.131 E0.01524
G1 X154.827 Y117.838 E0.16475
M73 Q4 S25
G1 X154.744 Y118.289 E0.01442
G1 X151.068 Y114.613 E0.16338
M73 P4 R25
G1 X151.015 Y115.095 E0.01524
G1 X154.661 Y118.740 E0.16201
G1 X154.633 Y118.891 E0.00480
G1 X154.541 Y119.155 E0.00880
G1 X150.956 Y115.570 E0.15932
G1 X150.869 Y116.017 E0.01432
G1 X154.402 Y119.551 E0.15705
G1 X154.264 Y119.947 E0.01319
G1 X150.781 Y116.465 E0.15478
G1 X150.694 Y116.912 E0.01432
G1 X154.125 Y120.343 E0.15251
G1 X153.987 Y120.740 E0.01319
G1 X150.607 Y117.359 E0.15024
G1 X150.518 Y117.805 E0.01429
G1 X153.849 Y121.136 E0.14802
G1 X153.710 Y121.532 E0.01319
G1 X150.392 Y118.213 E0.14749
G1 X150.266 Y118.622 E0.01343
G1 X153.572 Y121.928 E0.14695
G1 X153.490 Y122.164 E0.00787
G1 X153.409 Y122.299 E0.00494
G1 X150.139 Y119.030 E0.14531
G1 X150.013 Y119.438 E0.01343
G1 X153.209 Y122.634 E0.14205
G1 X153.010 Y122.969 E0.01225
G1 X149.887 Y119.846 E0.13879
G1 X149.813 Y120.086 E0.00788
G1 X149.736 Y120.230 E0.00513
G1 X152.810 Y123.304 E0.13661
G1 X152.610 Y123.639 E0.01225
G1 X149.551 Y120.579 E0.13597
G1 X149.365 Y120.929 E0.01242
G1 X152.410 Y123.973 E0.13533
G1 X152.211 Y124.308 E0.01225
G1 X149.180 Y121.278 E0.13469
G1 X148.995 Y121.627 E0.01242
G1 X152.011 Y124.643 E0.13405
G1 X151.811 Y124.978 E0.01225
G1 X148.810 Y121.976 E0.13341
G1 X148.711 Y122.162 E0.00663
G1 X148.594 Y122.295 E0.00555
G1 X151.588 Y125.289 E0.13309
G1 X151.326 Y125.562 E0.01188
G1 X148.343 Y122.578 E0.13260
G1 X148.092 Y122.862 E0.01190
G1 X151.064 Y125.834 E0.13211
G1 X150.802 Y126.107 E0.01188
G1 X147.841 Y123.145 E0.13162
G1 X147.590 Y123.429 E0.01190
G1 X150.540 Y126.379 E0.13114
G1 X150.278 Y126.652 E0.01188
G1 X147.339 Y123.712 E0.13065
G1 X147.088 Y123.996 E0.01190
G1 X150.016 Y126.924 E0.13016
G1 X149.754 Y127.197 E0.01188
G1 X146.807 Y124.249 E0.13101
G1 X146.521 Y124.498 E0.01191
G1 X149.492 Y127.469 E0.13206
G1 X149.230 Y127.742 E0.01188
G1 X146.236 Y124.747 E0.13310
G1 X145.950 Y124.996 E0.01191
G1 X149.100 Y128.147 E0.14002
G1 X149.266 Y128.847 E0.02260
G1 X145.665 Y125.245 E0.16006
G1 X145.379 Y125.494 E0.01191
G1 X149.431 Y129.547 E0.18010
G1 X149.597 Y130.247 E0.02260
G1 X145.137 Y125.787 E0.19821
G1 X144.901 Y126.086 E0.01196
G1 X149.762 Y130.946 E0.21604
G1 X149.816 Y131.174 E0.00736
G1 X149.783 Y131.502 E0.01034
G1 X144.666 Y126.384 E0.22743
G1 X144.430 Y126.683 E0.01196
G1 X149.733 Y131.987 E0.23571
G1 X149.684 Y132.472 E0.01532
G1 X144.194 Y126.982 E0.24399
G1 X144.065 Y127.146 E0.00657
G1 X144.068 Y127.390 E0.00766
G1 X149.634 Y132.957 E0.24741
G1 X149.585 Y133.442 E0.01532
G1 X144.075 Y127.931 E0.24491
G1 X144.081 Y128.473 E0.01702
G1 X149.536 Y133.927 E0.24241
G1 X149.364 Y134.290 E0.01262
G1 X145.453 Y130.379 E0.17384
G1 X145.497 Y130.430 E0.00213
G1 X145.592 Y131.052 E0.01977
G1 X149.185 Y134.646 E0.15970
G1 X149.006 Y135.001 E0.01251
G1 X145.649 Y131.644 E0.14921
G1 X145.608 Y132.137 E0.01557
G1 X148.827 Y135.356 E0.14306
G1 X148.648 Y135.712 E0.01251
G1 X145.542 Y132.606 E0.13805
G1 X145.427 Y133.025 E0.01367
G1 X148.469 Y136.067 E0.13519
G1 X148.333 Y136.337 E0.00950
G1 X148.255 Y136.388 E0.00292
G1 X145.312 Y133.445 E0.13081
G1 X145.218 Y133.787 E0.01115
G1 X145.122 Y133.789 E0.00303
G1 X147.933 Y136.601 E0.12496
G1 X147.612 Y136.814 E0.01212
G1 X144.600 Y133.802 E0.13386
G1 X144.078 Y133.814 E0.01641
G1 X147.290 Y137.026 E0.14276
G1 X146.968 Y137.239 E0.01212
G1 X143.556 Y133.827 E0.15166
G1 X143.034 Y133.839 E0.01641
G1 X146.646 Y137.452 E0.16056
G1 X146.325 Y137.665 E0.01212
G1 X142.512 Y133.852 E0.16946
G1 X141.990 Y133.864 E0.01641
G1 X145.956 Y137.830 E0.17627
G1 X145.483 Y137.892 E0.01499
G1 X141.468 Y133.877 E0.17845
G1 X140.946 Y133.889 E0.01641
G1 X145.010 Y137.953 E0.18063
G1 X144.537 Y138.015 E0.01499
G1 X140.424 Y133.902 E0.18281
G1 X139.902 Y133.914 E0.01641
G1 X144.064 Y138.077 E0.18499
G1 X143.591 Y138.138 E0.01499
G1 X139.380 Y133.927 E0.18717
G1 X138.858 Y133.939 E0.01641
G1 X143.105 Y138.186 E0.18876
G1 X142.591 Y138.207 E0.01615
G1 X138.336 Y133.952 E0.18914
G1 X137.814 Y133.964 E0.01641
G1 X142.078 Y138.228 E0.18953
G1 X141.564 Y138.250 E0.01615
G1 X137.292 Y133.977 E0.18991
G1 X136.770 Y133.989 E0.01641
G1 X141.051 Y138.271 E0.19029
G1 X140.538 Y138.292 E0.01615
G1 X136.248 Y134.002 E0.19068
G1 X135.726 Y134.014 E0.01641
G1 X140.016 Y138.305 E0.19068
G1 X139.485 Y138.308 E0.01669
G1 X135.203 Y134.027 E0.19029
G1 X134.674 Y134.032 E0.01664
G1 X138.954 Y138.312 E0.19022
G1 X138.423 Y138.315 E0.01669
G1 X134.131 Y134.023 E0.19075
G1 X133.588 Y134.015 E0.01707
G1 X137.892 Y138.319 E0.19129
G1 X137.361 Y138.322 E0.01669
G1 X133.045 Y134.006 E0.19182
G1 X132.502 Y133.998 E0.01707
G1 X136.821 Y138.316 E0.19194
G1 X136.277 Y138.308 E0.01707
G1 X131.959 Y133.989 E0.19193
G1 X131.416 Y133.981 E0.01707
G1 X135.734 Y138.299 E0.19193
G1 X135.191 Y138.290 E0.01707
G1 X130.873 Y133.972 E0.19192
G1 X130.330 Y133.964 E0.01707
G1 X134.648 Y138.282 E0.19191
G1 X134.104 Y138.272 E0.01710
G1 X129.787 Y133.955 E0.19187
G1 X129.244 Y133.947 E0.01707
G1 X133.555 Y138.258 E0.19162
G1 X133.007 Y138.244 E0.01725
G1 X128.701 Y133.938 E0.19137
G1 X128.158 Y133.930 E0.01707
G1 X132.458 Y138.230 E0.19113
G1 X131.910 Y138.216 E0.01725
G1 X127.615 Y133.921 E0.19088
G1 X127.072 Y133.913 E0.01707
G1 X131.361 Y138.202 E0.19063
