; generated by PrusaSlicer 2.4.0+win64 on 2022-03-04 at 00:55:34 UTC

; 

; external perimeters extrusion width = 0.60mm
; perimeters extrusion width = 0.50mm
; infill extrusion width = 0.50mm
; solid infill extrusion width = 0.50mm
; top infill extrusion width = 0.45mm
; first layer extrusion width = 0.42mm

; external perimeters extrusion width = 0.60mm
; perimeters extrusion width = 0.50mm
; infill extrusion width = 0.50mm
; solid infill extrusion width = 0.50mm
; top infill extrusion width = 0.45mm
; first layer extrusion width = 0.42mm

; external perimeters extrusion width = 0.60mm
; perimeters extrusion width = 0.50mm
; infill extrusion width = 0.50mm
; solid infill extrusion width = 0.50mm
; top infill extrusion width = 0.45mm
; first layer extrusion width = 0.42mm

M73 P0 R226
M73 Q0 S255
M201 X4000 Y4000 Z1000 E5000 ; sets maximum accelerations, mm/sec^2
M203 X200 Y200 Z12 E120 ; sets maximum feedrates, mm/sec
M204 P2000 R2000 T2000 ; sets acceleration (P, T) and retract acceleration (R), mm/sec^2
M205 X8.00 Y8.00 Z0.40 E4.50 ; sets the jerk limits, mm/sec
M205 S0 T0 ; sets the minimum extruding and travel feed rate, mm/sec
M107
;TYPE:Custom
M862.3 P "MK3S" ; printer model check
M862.1 P0.4 ; nozzle diameter check
M115 U3.10.0 ; tell printer latest fw version
G90 ; use absolute coordinates
M83 ; extruder relative mode
M104 S225 ; set extruder temp
M140 S80 ; set bed temp
M190 S80 ; wait for bed temp
M109 S225 ; wait for extruder temp
G28 W ; home all without mesh bed level
G80 ; mesh bed leveling
G1 Y-3.0 F1000.0 ; go outside print area
G92 E0.0
G1 X60.0 E9.0 F1000.0 ; intro line
G1 X100.0 E12.5 F1000.0 ; intro line
G92 E0.0
M221 S95

; Don't change E values below. Excessive value can damage the printer.

M907 E538 ; set extruder motor current
G21 ; set units to millimeters
G90 ; use absolute coordinates
M83 ; use relative distances for extrusion
M900 K0.05 ; Filament gcode LA 1.5
M900 K30 ; Filament gcode LA 1.0
M107
;LAYER_CHANGE
;Z:0.2
;HEIGHT:0.2
;BEFORE_LAYER_CHANGE
G92 E0.0
;0.2


G1 E-.6 F3600
G1 Z.2 F10800
;AFTER_LAYER_CHANGE
;0.2
G1 X30.138 Y27.125
G1 E.6 F3600
M204 S1000
;TYPE:Skirt/Brim
;WIDTH:0.42
G1 X45.173 Y10.42 E.7047
G1 X48.212 Y7.257 E.13751
G1 X49.879 Y6.528 E.05704
G1 X242.747 Y2.722 E6.04842
G1 X244.441 Y3.385 E.05704
M73 Q0 S254
G1 X247.547 Y6.37 E.13507
G1 X248.276 Y8.037 E.05704
G1 X249.721 Y82.229 E2.32669
G1 X243.363 Y141.356 E1.86457
G1 X243.082 Y143.104 E.0555
G1 X242.608 Y144.866 E.0572
G1 X241.93 Y146.616 E.05886
G1 X241.11 Y148.211 E.05623
G1 X240.004 Y149.884 E.06287
G1 X238.811 Y151.312 E.05836
G1 X237.411 Y152.658 E.06089
G1 X235.994 Y153.755 E.05616
G1 X234.38 Y154.748 E.05942
G1 X232.437 Y155.654 E.06724
G1 X230.348 Y156.325 E.0688
G1 X228.515 Y156.686 E.05857
G1 X226.211 Y156.854 E.07243
G1 X88.863 Y156.854 E4.30644
G1 X87.552 Y156.789 E.04117
G1 X85.087 Y156.39 E.0783
G1 X8.936 Y138.147 E2.45522
G1 X7.809 Y137.516 E.0405
G1 X4.762 Y134.47 E.13507
G1 X4.066 Y132.789 E.05704
G1 X4.066 Y57.005 E2.37616
G1 X4.677 Y55.414 E.05341
G1 X30.098 Y27.17 E1.19145
M204 S2000
;WIPE_START
G1 F8640
G1 X31.061 Y26.1 E-.57
;WIPE_END
G1 E-.03 F3600
G1 X47.519 Y26.826 F10800
G1 E.6 F3600
M204 S1000
G1 X47.261 Y13.759 E.4098
G1 X47.522 Y12.444 E.04204
G1 X48.125 Y11.257 E.04175
G1 X49.047 Y10.254 E.04269
G1 X50.161 Y9.56 E.04116
G1 X51.681 Y9.157 E.04931
G1 X128.089 Y7.649 E2.39618
G1 X129.378 Y7.891 E.04112
G1 X130.428 Y8.379 E.03632
G1 X131.348 Y9.135 E.03733
G1 X131.645 Y9.238 E.00985
G1 X133.076 Y9.577 E.04611
G1 X135.129 Y9.935 E.06535
G1 X137.716 Y10.282 E.08184
G1 X140.772 Y10.601 E.09635
G1 X144.259 Y10.886 E.10969
G1 X148.131 Y11.131 E.12167
G1 X152.347 Y11.338 E.13233
G1 X156.86 Y11.497 E.14161
G1 X161.623 Y11.611 E.14938
G1 X166.587 Y11.678 E.15565
G1 X171.711 Y11.695 E.16066
G1 X176.934 Y11.662 E.16377
G1 X182.207 Y11.584 E.16535
G1 X187.481 Y11.454 E.16541
G1 X192.701 Y11.281 E.16378
G1 X197.816 Y11.061 E.16051
G1 X202.778 Y10.799 E.1558
G1 X207.531 Y10.497 E.14932
G1 X212.034 Y10.16 E.14159
G1 X216.238 Y9.787 E.13232
G1 X220.1 Y9.389 E.12174
G1 X223.573 Y8.966 E.10969
G1 X226.614 Y8.527 E.09634
G1 X229.182 Y8.079 E.08172
G1 X231.222 Y7.64 E.06545
G1 X232.64 Y7.244 E.04615
G1 X232.944 Y7.125 E.01025
G1 X233.712 Y6.408 E.03293
G1 X234.53 Y5.941 E.02953
G1 X235.506 Y5.613 E.0323
G1 X241.626 Y5.479 E.19192
G1 X242.4 Y5.692 E.02518
G1 X243.131 Y6.015 E.02506
G1 X244.354 Y6.984 E.04892
G1 X245.217 Y8.266 E.04845
G1 X245.647 Y9.837 E.05107
G1 X247.036 Y80.227 E2.20745
G1 X246.794 Y81.49 E.04033
G1 X246.206 Y82.681 E.04167
G1 X245.07 Y83.874 E.05164
G1 X243.962 Y84.499 E.03987
G1 X242.724 Y84.814 E.04007
G1 X237.381 Y84.897 E.16753
G1 X235.994 Y84.528 E.045
G1 X235.12 Y84.043 E.03136
G1 X234.445 Y83.442 E.02833
G1 X234.146 Y83.339 E.00991
G1 X232.709 Y82.998 E.04631
G1 X230.655 Y82.641 E.06535
G1 X228.068 Y82.294 E.08184
G1 X225.012 Y81.974 E.09634
G1 X221.526 Y81.688 E.10968
G1 X217.652 Y81.441 E.12171
G1 X213.437 Y81.237 E.1323
G1 X208.924 Y81.075 E.14161
G1 X204.163 Y80.963 E.14931
G1 X199.195 Y80.897 E.15577
G1 X194.075 Y80.881 E.16055
G1 X188.849 Y80.911 E.16386
G1 X183.578 Y80.991 E.16528
G1 X178.306 Y81.119 E.16537
G1 X173.085 Y81.295 E.16378
G1 X167.964 Y81.513 E.16072
G1 X163.007 Y81.776 E.15563
G1 X158.253 Y82.075 E.14935
G1 X153.75 Y82.415 E.14159
G1 X149.545 Y82.785 E.13235
G1 X145.687 Y83.185 E.12162
G1 X142.214 Y83.608 E.10969
G1 X139.173 Y84.049 E.09637
G1 X136.598 Y84.498 E.08193
G1 X134.563 Y84.935 E.06527
G1 X133.142 Y85.333 E.04626
G1 X132.853 Y85.445 E.00973
G1 X131.97 Y86.233 E.03711
G1 X130.941 Y86.763 E.03627
G1 X129.816 Y87.038 E.03633
G1 X126.073 Y87.126 E.11739
G1 X126.552 Y88.075 E.03334
G1 X126.795 Y89.255 E.03776
G1 X126.799 Y91.42 E.06787
G1 X126.868 Y91.603 E.00615
G1 X127.052 Y92.45 E.02715
G1 X127.121 Y93.103 E.0206
G1 X127.166 Y93.307 E.00656
G1 X127.278 Y93.606 E.00999
G1 X127.49 Y94.064 E.01584
G1 X128.231 Y94.391 E.0254
G1 X128.489 Y94.446 E.00825
G1 X129.477 Y94.555 E.03117
G1 X130.085 Y94.764 E.02015
G1 X236.374 Y94.764 E3.33264
G1 X238.354 Y95.393 E.06511
G1 X239.035 Y95.901 E.02666
G1 X240.027 Y96.987 E.04613
G1 X240.484 Y97.906 E.03217
G1 X240.799 Y99.218 E.04231
G1 X240.798 Y139.752 E1.2709
G1 X240.762 Y140.555 E.02521
G1 X240.689 Y141.284 E.02298
G1 X240.58 Y142.016 E.0232
G1 X240.404 Y142.869 E.02732
G1 X240.195 Y143.655 E.0255
G1 X239.943 Y144.432 E.0256
G1 X239.336 Y145.879 E.0492
G1 X238.881 Y146.744 E.03065
G1 X238.365 Y147.585 E.03093
G1 X237.785 Y148.402 E.03141
G1 X237.123 Y149.209 E.03273
G1 X236.373 Y149.998 E.03415
G1 X235.618 Y150.687 E.03204
G1 X234.829 Y151.314 E.0316
G1 X233.987 Y151.891 E.032
G1 X233.107 Y152.409 E.03201
G1 X232.179 Y152.872 E.03251
G1 X231.204 Y153.273 E.03306
G1 X230.218 Y153.6 E.03257
G1 X229.142 Y153.871 E.0348
G1 X228.207 Y154.04 E.02979
G1 X226.204 Y154.191 E.06296
G1 X88.824 Y154.191 E4.30747
G1 X87.702 Y154.128 E.03523
G1 X86.683 Y153.995 E.03223
G1 X85.662 Y153.789 E.03266
G1 X84.702 Y153.525 E.03119
G1 X83.744 Y153.189 E.03186
G1 X82.73 Y152.75 E.03464
G1 X81.823 Y152.275 E.03209
G1 X80.943 Y151.734 E.03241
G1 X80.241 Y151.238 E.02693
G1 X79.566 Y150.7 E.02705
G1 X78.455 Y149.652 E.04791
G1 X77.926 Y149.069 E.0247
G1 X77.466 Y148.506 E.02277
G1 X77.038 Y147.928 E.02255
G1 X76.586 Y147.243 E.02576
G1 X76.157 Y146.505 E.02676
G1 X75.848 Y145.906 E.02112
G1 X75.554 Y145.258 E.02231
G1 X75.268 Y144.54 E.02424
G1 X74.802 Y143.021 E.0498
G1 X74.643 Y142.294 E.02335
G1 X74.498 Y141.402 E.02832
G1 X74.372 Y139.593 E.05687
G1 X74.372 Y99.217 E1.26595
G1 X74.691 Y97.896 E.04259
G1 X75.249 Y96.845 E.03733
G1 X76.38 Y95.691 E.05066
G1 X77.467 Y95.096 E.03884
G1 X78.687 Y94.781 E.03951
G1 X98.078 Y94.764 E.60799
G1 X98.262 Y94.695 E.00618
G1 X99.107 Y94.51 E.02713
G1 X99.75 Y94.442 E.02025
G1 X100.106 Y94.349 E.01154
G1 X100.912 Y93.99 E.02767
G1 X101.027 Y93.845 E.0058
G1 X101.191 Y93.53 E.01114
G1 X101.248 Y93.364 E.00551
G1 X101.308 Y93.056 E.00983
G1 X101.348 Y92.479 E.01812
G1 X101.377 Y92.302 E.00563
G1 X101.443 Y88.742 E.11165
G1 X101.821 Y87.607 E.03749
G1 X72.142 Y88.193 E.93076
G1 X72.362 Y88.61 E.01479
G1 X72.706 Y90.112 E.0483
G1 X72.695 Y99.807 E.304
G1 X72.275 Y101.394 E.05147
G1 X71.579 Y102.509 E.04121
G1 X70.624 Y103.385 E.04063
G1 X69.583 Y103.956 E.03722
G1 X68.335 Y104.326 E.04084
G1 X66.877 Y104.479 E.04596
G1 X49.676 Y104.482 E.53933
M73 P0 R225
G1 X48.739 Y104.986 E.03334
G1 X47.587 Y105.334 E.03774
G1 X43.256 Y105.414 E.13584
G1 X42.465 Y105.715 E.02652
G1 X41.334 Y105.84 E.03569
G1 X41.009 Y105.917 E.01046
G1 X39.998 Y106.328 E.03422
G1 X39.753 Y106.623 E.01203
G1 X39.598 Y106.885 E.00955
G1 X39.424 Y107.359 E.01581
G1 X39.408 Y109.087 E.05419
G1 X39.834 Y109.18 E.01365
G1 X40.742 Y109.524 E.03045
G1 X41.218 Y109.819 E.01756
G1 X42.868 Y110.385 E.0547
G1 X44.531 Y111.212 E.05823
G1 X46.156 Y112.292 E.06118
G1 X47.641 Y113.581 E.06167
G1 X48.978 Y115.093 E.06326
G1 X50.104 Y116.768 E.0633
G1 X50.99 Y118.56 E.06268
G1 X51.638 Y120.461 E.06296
G1 X52.028 Y122.431 E.06299
G1 X52.154 Y124.242 E.05692
G1 X52.135 Y131.232 E.21916
G1 X51.889 Y132.299 E.03434
G1 X51.33 Y133.4 E.0387
G1 X50.41 Y134.399 E.04259
G1 X49.51 Y135.022 E.03431
G1 X47.724 Y135.549 E.05838
G1 X44.139 Y135.549 E.11242
G1 X42.276 Y134.966 E.06118
G1 X41.376 Y134.32 E.03476
G1 X40.69 Y133.581 E.0316
G1 X40.135 Y132.643 E.03418
G1 X39.754 Y131.294 E.04394
G1 X39.728 Y125.648 E.17705
G1 X39.695 Y125.131 E.01624
G1 X39.626 Y124.782 E.01114
G1 X39.508 Y124.436 E.01148
G1 X39.346 Y124.107 E.01147
G1 X39.143 Y123.804 E.01143
G1 X38.907 Y123.534 E.01127
G1 X38.634 Y123.296 E.01134
G1 X38.332 Y123.093 E.01142
G1 X38.004 Y122.932 E.01147
G1 X37.657 Y122.814 E.01147
G1 X37.308 Y122.744 E.01115
G1 X36.792 Y122.711 E.01622
G1 X22.093 Y122.711 E.4609
G1 X21.576 Y122.744 E.01622
G1 X21.228 Y122.814 E.01115
G1 X20.881 Y122.932 E.01148
G1 X20.553 Y123.093 E.01147
G1 X20.253 Y123.294 E.01131
G1 X19.977 Y123.536 E.01153
G1 X19.738 Y123.807 E.01132
G1 X19.54 Y124.104 E.01117
G1 X19.377 Y124.436 E.0116
G1 X19.259 Y124.782 E.01147
G1 X19.189 Y125.131 E.01115
G1 X19.157 Y125.65 E.0163
G1 X19.127 Y131.317 E.17771
G1 X18.736 Y132.671 E.04418
G1 X18.107 Y133.697 E.03773
G1 X17.358 Y134.451 E.03332
G1 X16.493 Y135.024 E.03254
G1 X14.871 Y135.529 E.05325
G1 X10.901 Y135.51 E.12449
G1 X9.627 Y135.136 E.04162
G1 X8.684 Y134.579 E.03436
G1 X7.684 Y133.569 E.04456
G1 X7.199 Y132.785 E.0289
G1 X6.73 Y131.104 E.05471
G1 X6.73 Y124.306 E.21315
G1 X6.862 Y122.385 E.06038
G1 X7.253 Y120.438 E.06226
G1 X7.886 Y118.58 E.06155
G1 X8.766 Y116.792 E.06247
G1 X9.859 Y115.155 E.06173
G1 X11.206 Y113.62 E.06402
G1 X12.731 Y112.29 E.06344
G1 X14.429 Y111.169 E.06381
G1 X16.251 Y110.288 E.06346
G1 X18.145 Y109.667 E.06248
G1 X20.086 Y109.299 E.06195
G1 X21.858 Y109.185 E.05568
G1 X24.728 Y109.177 E.08997
G1 X24.725 Y80.609 E.89574
G1 X21.867 Y80.609 E.08962
G1 X20.061 Y80.492 E.05675
G1 X18.121 Y80.12 E.06193
G1 X16.253 Y79.506 E.06165
G1 X14.432 Y78.626 E.06343
G1 X12.735 Y77.507 E.06373
G1 X11.211 Y76.178 E.06341
G1 X9.88 Y74.665 E.06318
G1 X8.786 Y73.035 E.06157
G1 X7.912 Y71.277 E.06152
G1 X7.272 Y69.427 E.06141
G1 X6.878 Y67.525 E.0609
G1 X6.73 Y65.468 E.06465
G1 X6.739 Y58.613 E.21494
G1 X7.16 Y57.104 E.04912
G1 X7.815 Y56.058 E.03868
G1 X8.681 Y55.218 E.03785
G1 X9.597 Y54.671 E.03344
G1 X10.725 Y54.312 E.03712
G1 X14.966 Y54.281 E.13298
G1 X16.057 Y54.572 E.0354
G1 X17.028 Y55.087 E.03447
G1 X17.942 Y55.906 E.03848
G1 X18.636 Y56.91 E.03826
G1 X19.088 Y58.234 E.04386
G1 X19.156 Y64.138 E.18514
G1 X19.189 Y64.663 E.01648
G1 X19.259 Y65.011 E.01115
G1 X19.377 Y65.358 E.01147
G1 X19.54 Y65.69 E.0116
G1 X19.738 Y65.986 E.01117
G1 X19.977 Y66.257 E.01132
G1 X20.253 Y66.5 E.01153
G1 X20.553 Y66.7 E.01132
G1 X20.881 Y66.862 E.01147
G1 X21.228 Y66.98 E.01148
G1 X21.576 Y67.05 E.01115
G1 X22.093 Y67.082 E.01622
G1 X36.792 Y67.082 E.46089
G1 X37.308 Y67.05 E.01622
G1 X37.657 Y66.98 E.01115
G1 X38.004 Y66.862 E.01148
G1 X38.332 Y66.7 E.01147
G1 X38.634 Y66.498 E.01142
G1 X38.907 Y66.26 E.01134
G1 X39.143 Y65.989 E.01127
G1 X39.346 Y65.686 E.01143
G1 X39.508 Y65.358 E.01147
G1 X39.626 Y65.011 E.01148
G1 X39.695 Y64.663 E.01114
G1 X39.728 Y64.146 E.01624
G1 X39.74 Y58.598 E.17395
G1 X40.057 Y57.34 E.04066
G1 X40.709 Y56.191 E.04141
G1 X41.877 Y55.068 E.05082
G1 X42.796 Y54.585 E.03255
G1 X43.777 Y54.302 E.032
G1 X48.061 Y54.263 E.13433
G1 X47.52 Y26.886 E.85854
M204 S2000
G1 X47.897 Y26.879 F10800
M204 S1000
G1 F3600
G1 X47.639 Y13.772 E.41103
G1 X47.886 Y12.544 E.03927
G1 X48.448 Y11.453 E.03849
G1 X49.305 Y10.53 E.03949
G1 X50.335 Y9.896 E.03791
G1 X51.711 Y9.533 E.04462
G1 X128.077 Y8.026 E2.39488
G1 X129.241 Y8.243 E.0371
G1 X130.247 Y8.71 E.03479
G1 X131.159 Y9.468 E.03719
G1 X131.539 Y9.6 E.01262
G1 X133 Y9.946 E.04706
G1 X135.071 Y10.308 E.06593
G1 X137.671 Y10.656 E.08224
G1 X140.737 Y10.976 E.09666
G1 X144.231 Y11.262 E.10993
G1 X148.11 Y11.508 E.12186
G1 X152.331 Y11.714 E.13249
G1 X156.849 Y11.874 E.14176
G1 X161.616 Y11.988 E.14951
G1 X166.584 Y12.055 E.15577
G1 X171.711 Y12.073 E.16077
G1 X176.938 Y12.039 E.16387
G1 X182.214 Y11.961 E.16547
G1 X187.492 Y11.831 E.16551
G1 X192.716 Y11.658 E.16389
G1 X197.834 Y11.438 E.16063
G1 X202.8 Y11.175 E.15592
G1 X207.557 Y10.874 E.14946
G1 X212.065 Y10.536 E.14174
G1 X216.274 Y10.163 E.13249
G1 X220.142 Y9.764 E.12193
G1 X223.623 Y9.34 E.10993
G1 X226.673 Y8.9 E.09664
G1 X229.254 Y8.449 E.08213
G1 X231.312 Y8.006 E.06603
G1 X232.76 Y7.603 E.04711
G1 X233.15 Y7.449 E.01315
G1 X233.92 Y6.724 E.03317
G1 X234.671 Y6.291 E.02717
G1 X235.545 Y5.989 E.029
G1 X241.553 Y5.85 E.18844
G1 X242.261 Y6.043 E.023
G1 X242.956 Y6.35 E.02384
G1 X244.096 Y7.26 E.0457
G1 X244.886 Y8.448 E.04476
G1 X245.271 Y9.867 E.04608
G1 X246.659 Y80.214 E2.2061
G1 X246.429 Y81.392 E.03763
G1 X245.881 Y82.487 E.03841
G1 X244.86 Y83.56 E.04642
G1 X243.8 Y84.158 E.03817
G1 X242.654 Y84.443 E.03701
G1 X237.402 Y84.519 E.1647
G1 X236.157 Y84.188 E.0404
G1 X235.322 Y83.724 E.02995
G1 X234.64 Y83.111 E.02875
G1 X234.251 Y82.977 E.01291
G1 X232.785 Y82.628 E.04725
G1 X230.713 Y82.269 E.06594
G1 X228.113 Y81.92 E.08224
G1 X225.048 Y81.598 E.09664
G1 X221.553 Y81.312 E.10993
G1 X217.673 Y81.065 E.1219
G1 X213.453 Y80.86 E.13247
G1 X208.935 Y80.698 E.14175
G1 X204.17 Y80.586 E.14944
G1 X199.198 Y80.52 E.1559
G1 X194.074 Y80.504 E.16066
G1 X188.845 Y80.534 E.16397
G1 X183.571 Y80.614 E.16539
G1 X178.295 Y80.742 E.16548
G1 X173.071 Y80.918 E.16388
G1 X167.946 Y81.137 E.16083
G1 X162.985 Y81.399 E.15575
G1 X158.227 Y81.699 E.14948
G1 X153.719 Y82.039 E.14174
G1 X149.509 Y82.41 E.13252
G1 X145.645 Y82.81 E.12181
G1 X142.165 Y83.234 E.10993
G1 X139.113 Y83.677 E.09668
G1 X136.526 Y84.127 E.08233
G1 X134.473 Y84.569 E.06586
G1 X133.023 Y84.975 E.0472
G1 X132.652 Y85.119 E.0125
G1 X131.775 Y85.909 E.03701
G1 X130.789 Y86.417 E.03477
G1 X129.748 Y86.667 E.03357
G1 X125.458 Y86.763 E.13455
G1 X126.188 Y88.178 E.04993
G1 X126.422 Y89.312 E.03632
G1 X126.422 Y91.492 E.06834
G1 X126.503 Y91.7 E.00699
G1 X126.682 Y92.519 E.02631
G1 X126.748 Y93.163 E.02028
G1 X126.804 Y93.414 E.00807
G1 X126.93 Y93.751 E.01127
G1 X127.206 Y94.347 E.02059
G1 X127.976 Y94.701 E.0266
G1 X128.139 Y94.757 E.00539
G1 X128.428 Y94.819 E.00928
G1 X129.413 Y94.927 E.03107
G1 X130.019 Y95.141 E.02015
G1 X236.345 Y95.141 E3.33378
G1 X238.155 Y95.715 E.05952
G1 X238.771 Y96.17 E.02401
G1 X239.703 Y97.181 E.04311
G1 X240.123 Y98.017 E.02934
G1 X240.422 Y99.241 E.03951
G1 X240.421 Y139.747 E1.27005
G1 X240.386 Y140.523 E.02433
G1 X240.315 Y141.242 E.02267
G1 X240.208 Y141.955 E.02259
G1 X240.036 Y142.788 E.02666
G1 X239.832 Y143.553 E.02484
G1 X239.586 Y144.308 E.02488
G1 X238.999 Y145.711 E.0477
G1 X238.55 Y146.563 E.0302
G1 X238.047 Y147.382 E.03015
G1 X237.49 Y148.168 E.0302
G1 X236.836 Y148.964 E.03231
G1 X236.114 Y149.724 E.03287
G1 X235.378 Y150.396 E.03123
G1 X234.61 Y151.007 E.03077
G1 X233.779 Y151.576 E.03159
G1 X232.921 Y152.08 E.03119
G1 X232.029 Y152.526 E.03126
G1 X231.079 Y152.917 E.03223
G1 X230.119 Y153.236 E.0317
G1 X229.056 Y153.504 E.03438
