; generated by PrusaSlicer 2.2.0+win64 on 2020-07-24 at 01:02:48 UTC


;
;

;
;
; 

; external perimeters extrusion width = 0.45mm
; perimeters extrusion width = 0.45mm
; infill extrusion width = 0.45mm
; solid infill extrusion width = 0.45mm
; top infill extrusion width = 0.40mm
; first layer extrusion width = 0.42mm

M73 P0 R85
M201 X1250 Y1250 Z400 E5000 ; sets maximum accelerations, mm/sec^2
M203 X180 Y180 Z12 E80 ; sets maximum feedrates, mm/sec
M204 P1250 R1250 T1250 ; sets acceleration (P, T) and retract acceleration (R), mm/sec^2
M205 X8.00 Y8.00 Z2.00 E10.00 ; sets the jerk limits, mm/sec
M205 S0 T0 ; sets the minimum extruding and travel feed rate, mm/sec
M107
G90 ; use absolute coordinates
M83 ; extruder relative mode
M104 S170 ; set extruder temp for bed leveling
M140 S70 ; set bed temp
M109 R170 ; wait for bed leveling temp
M190 S70 ; wait for bed temp
G28 ; home all without mesh bed level
G29 ; mesh bed leveling 
M104 S225 ; set extruder temp
G92 E0.0
G1 Y-2.0 X179 F2400
G1 Z3 F720
M109 S225 ; wait for extruder temp

; intro line
G1 X170 F1000
G1 Z0.2 F720
G1 X110.0 E8.0 F900
M73 P0 R85
G1 X40.0 E10.0 F700
G92 E0.0

M221 S95 ; set flow
G21 ; set units to millimeters
G90 ; use absolute coordinates
M83 ; use relative distances for extrusion
M900 K0.2 ; Filament gcode LA 1.5
; ; Filament gcode LA 1.0
;BEFORE_LAYER_CHANGE
G92 E0.0
;0.2


G1 Z0.200 F9000.000
;AFTER_LAYER_CHANGE
;0.2
G1 E-3.20000 F4200.00000
G1 Z0.400 F9000.000
G1 X46.181 Y31.410
G1 Z0.200
G1 E3.20000 F2400.00000
M204 S800
G1 F1200.000
G1 X47.380 Y30.569 E0.04590
G1 X48.383 Y30.101 E0.03472
G1 X49.082 Y29.875 E0.02304
G1 X49.801 Y29.721 E0.02304
G1 X50.904 Y29.625 E0.03472
G1 X128.996 Y29.623 E2.44853
G1 X130.288 Y29.738 E0.04065
G1 X131.600 Y30.100 E0.04269
G1 X133.138 Y30.899 E0.05433
G1 X134.145 Y31.722 E0.04079
G1 X135.026 Y32.756 E0.04257
G1 X135.678 Y33.882 E0.04079
G1 X136.122 Y35.105 E0.04079
G1 X136.348 Y36.444 E0.04258
G1 X136.384 Y143.027 E3.34184
G1 X136.275 Y144.269 E0.03910
G1 X135.973 Y145.425 E0.03746
G1 X135.657 Y146.192 E0.02602
G1 X135.062 Y147.215 E0.03710
G1 X134.602 Y147.807 E0.02352
G1 X133.819 Y148.591 E0.03472
G1 X132.613 Y149.434 E0.04614
G1 X131.613 Y149.900 E0.03460
G1 X130.910 Y150.127 E0.02316
G1 X130.191 Y150.280 E0.02304
G1 X129.058 Y150.377 E0.03567
G1 X50.969 Y150.377 E2.44841
G1 X49.735 Y150.267 E0.03886
G1 X48.579 Y149.964 E0.03746
G1 X47.815 Y149.650 E0.02590
G1 X46.792 Y149.054 E0.03710
G1 X46.200 Y148.594 E0.02352
G1 X45.417 Y147.811 E0.03472
G1 X44.573 Y146.606 E0.04614
G1 X44.107 Y145.606 E0.03460
G1 X43.880 Y144.903 E0.02316
G1 X43.727 Y144.184 E0.02304
G1 X43.631 Y143.039 E0.03603
G1 X43.616 Y36.973 E3.32561
G1 X43.726 Y35.731 E0.03910
G1 X44.027 Y34.575 E0.03746
G1 X44.343 Y33.808 E0.02602
G1 X44.938 Y32.785 E0.03710
G1 X45.398 Y32.193 E0.02352
G1 X46.139 Y31.452 E0.03284
M204 S1250
G1 E-2.24000 F4200.00000
G1 F7200.000
G1 X47.380 Y30.569 E-0.84404
G1 X47.491 Y30.517 E-0.06796
G1 E-0.04800 F4200.00000
G1 Z0.400 F9000.000
G1 X90.609 Y59.461
G1 Z0.200
G1 E3.20000 F2400.00000
M204 S800
G1 F1200.000
G1 X85.666 Y54.519 E0.21918
G1 X85.427 Y54.222 E0.01193
G1 X85.285 Y53.964 E0.00925
G1 X85.186 Y53.697 E0.00891
G1 X85.126 Y53.420 E0.00891
G1 X85.105 Y53.136 E0.00891
G1 X85.126 Y52.853 E0.00891
G1 X85.186 Y52.575 E0.00891
G1 X85.285 Y52.309 E0.00891
G1 X85.422 Y52.059 E0.00891
G1 X85.592 Y51.832 E0.00891
G1 X85.793 Y51.631 E0.00891
G1 X86.020 Y51.460 E0.00891
G1 X86.270 Y51.324 E0.00891
G1 X86.547 Y51.221 E0.00927
G1 X86.925 Y51.154 E0.01206
G1 X87.365 Y51.161 E0.01378
G1 X87.658 Y51.225 E0.00942
G1 X87.925 Y51.324 E0.00891
G1 X88.184 Y51.465 E0.00925
G1 X88.480 Y51.704 E0.01194
G1 X94.969 Y58.199 E0.28784
G1 X95.137 Y58.423 E0.00880
G1 X95.273 Y58.673 E0.00891
G1 X95.373 Y58.939 E0.00891
G1 X95.433 Y59.217 E0.00891
G1 X95.453 Y59.500 E0.00891
G1 X95.433 Y59.783 E0.00891
G1 X95.373 Y60.061 E0.00891
G1 X95.273 Y60.327 E0.00891
G1 X95.132 Y60.586 E0.00925
G1 X94.893 Y60.883 E0.01194
G1 X88.399 Y67.372 E0.28784
G1 X88.174 Y67.540 E0.00880
G1 X87.925 Y67.676 E0.00891
G1 X87.658 Y67.775 E0.00891
G1 X87.381 Y67.836 E0.00891
G1 X87.097 Y67.856 E0.00891
G1 X86.814 Y67.836 E0.00891
G1 X86.536 Y67.775 E0.00891
G1 X86.270 Y67.676 E0.00891
G1 X86.020 Y67.540 E0.00891
G1 X85.793 Y67.369 E0.00891
G1 X85.592 Y67.168 E0.00891
G1 X85.422 Y66.941 E0.00891
G1 X85.285 Y66.691 E0.00891
G1 X85.186 Y66.425 E0.00891
G1 X85.126 Y66.147 E0.00891
G1 X85.105 Y65.864 E0.00891
G1 X85.126 Y65.580 E0.00891
G1 X85.186 Y65.303 E0.00891
G1 X85.285 Y65.036 E0.00891
G1 X85.427 Y64.778 E0.00925
G1 X85.666 Y64.481 E0.01193
G1 X90.629 Y59.512 E0.22020
M204 S1250
G1 X90.991 Y59.640 F9000.000
M204 S800
G1 F1200.000
G1 X91.016 Y59.500 E0.00447
G1 X90.991 Y59.360 E0.00447
G1 X90.893 Y59.212 E0.00556
G1 X85.947 Y54.266 E0.21932
G1 X85.741 Y54.012 E0.01024
G1 X85.629 Y53.806 E0.00734
G1 X85.549 Y53.591 E0.00722
G1 X85.500 Y53.366 E0.00722
G1 X85.483 Y53.136 E0.00722
G1 X85.500 Y52.906 E0.00722
G1 X85.549 Y52.681 E0.00722
G1 X85.629 Y52.466 E0.00722
G1 X85.740 Y52.264 E0.00722
G1 X85.878 Y52.079 E0.00722
G1 X86.040 Y51.916 E0.00722
G1 X86.225 Y51.778 E0.00722
G1 X86.427 Y51.668 E0.00722
G1 X86.646 Y51.586 E0.00735
G1 X86.956 Y51.531 E0.00984
G1 X87.321 Y51.537 E0.01147
G1 X87.552 Y51.588 E0.00740
G1 X87.768 Y51.668 E0.00722
G1 X87.973 Y51.780 E0.00734
G1 X88.227 Y51.985 E0.01024
G1 X94.683 Y58.446 E0.28637
G1 X94.819 Y58.627 E0.00711
G1 X94.929 Y58.830 E0.00722
G1 X95.010 Y59.045 E0.00722
G1 X95.059 Y59.270 E0.00722
G1 X95.075 Y59.500 E0.00722
G1 X95.059 Y59.730 E0.00722
G1 X95.010 Y59.955 E0.00722
G1 X94.929 Y60.170 E0.00722
G1 X94.817 Y60.376 E0.00734
G1 X94.612 Y60.630 E0.01024
G1 X88.151 Y67.086 E0.28637
G1 X87.970 Y67.222 E0.00711
G1 X87.768 Y67.332 E0.00722
G1 X87.552 Y67.412 E0.00722
G1 X87.327 Y67.461 E0.00722
G1 X87.097 Y67.478 E0.00722
G1 X86.868 Y67.461 E0.00722
G1 X86.643 Y67.412 E0.00722
G1 X86.427 Y67.332 E0.00722
G1 X86.225 Y67.222 E0.00722
G1 X86.040 Y67.084 E0.00722
G1 X85.878 Y66.921 E0.00722
G1 X85.740 Y66.737 E0.00722
G1 X85.629 Y66.534 E0.00722
G1 X85.549 Y66.319 E0.00722
G1 X85.500 Y66.094 E0.00722
G1 X85.483 Y65.864 E0.00722
G1 X85.500 Y65.634 E0.00722
G1 X85.549 Y65.409 E0.00722
G1 X85.629 Y65.194 E0.00722
G1 X85.741 Y64.988 E0.00734
G1 X85.947 Y64.734 E0.01024
G1 X90.894 Y59.787 E0.21936
G1 X90.965 Y59.694 E0.00367
M204 S1250
G1 X90.903 Y59.529 F9000.000
G1 E-2.24000 F4200.00000
G1 F7200.000
G1 X91.016 Y59.500 E-0.11116
G1 X90.991 Y59.360 E-0.07894
G1 X90.893 Y59.212 E-0.09822
G1 X90.097 Y58.417 E-0.62368
G1 E-0.04800 F4200.00000
G1 Z0.400 F9000.000
G1 X97.609 Y59.538
G1 Z0.200
G1 E3.20000 F2400.00000
M204 S800
G1 F1200.000
G1 X97.633 Y59.500 E0.00140
G1 X97.609 Y59.462 E0.00140
G1 X92.666 Y54.519 E0.21921
G1 X92.427 Y54.222 E0.01193
G1 X92.285 Y53.964 E0.00925
G1 X92.186 Y53.697 E0.00891
G1 X92.126 Y53.420 E0.00891
G1 X92.105 Y53.136 E0.00891
G1 X92.126 Y52.853 E0.00891
G1 X92.186 Y52.575 E0.00891
G1 X92.285 Y52.309 E0.00891
G1 X92.422 Y52.059 E0.00891
G1 X92.592 Y51.832 E0.00891
G1 X92.793 Y51.631 E0.00891
G1 X93.020 Y51.460 E0.00891
G1 X93.270 Y51.324 E0.00891
G1 X93.547 Y51.221 E0.00927
G1 X93.925 Y51.154 E0.01206
G1 X94.365 Y51.161 E0.01378
G1 X94.658 Y51.225 E0.00942
G1 X94.925 Y51.324 E0.00891
G1 X95.184 Y51.465 E0.00925
G1 X95.480 Y51.704 E0.01194
G1 X101.969 Y58.199 E0.28784
G1 X102.137 Y58.423 E0.00880
G1 X102.273 Y58.673 E0.00891
G1 X102.373 Y58.939 E0.00891
G1 X102.433 Y59.217 E0.00891
G1 X102.453 Y59.500 E0.00891
G1 X102.433 Y59.783 E0.00891
G1 X102.373 Y60.061 E0.00891
G1 X102.273 Y60.327 E0.00891
G1 X102.132 Y60.586 E0.00925
G1 X101.892 Y60.883 E0.01196
G1 X95.399 Y67.372 E0.28782
G1 X95.174 Y67.540 E0.00880
G1 X94.925 Y67.676 E0.00891
G1 X94.658 Y67.775 E0.00891
G1 X94.381 Y67.836 E0.00891
G1 X94.097 Y67.856 E0.00891
G1 X93.814 Y67.836 E0.00891
G1 X93.536 Y67.775 E0.00891
G1 X93.270 Y67.676 E0.00891
G1 X93.020 Y67.540 E0.00891
G1 X92.793 Y67.369 E0.00891
G1 X92.592 Y67.168 E0.00891
G1 X92.422 Y66.941 E0.00891
G1 X92.285 Y66.691 E0.00891
G1 X92.186 Y66.425 E0.00891
G1 X92.126 Y66.147 E0.00891
G1 X92.105 Y65.864 E0.00891
G1 X92.126 Y65.580 E0.00891
G1 X92.186 Y65.303 E0.00891
G1 X92.285 Y65.036 E0.00891
G1 X92.427 Y64.778 E0.00925
G1 X92.666 Y64.481 E0.01193
G1 X97.567 Y59.580 E0.21733
M204 S1250
G1 X98.016 Y59.500 F9000.000
M204 S800
G1 F1200.000
G1 X97.991 Y59.360 E0.00447
G1 X97.894 Y59.213 E0.00552
G1 X92.947 Y54.266 E0.21936
G1 X92.741 Y54.012 E0.01024
G1 X92.629 Y53.806 E0.00734
G1 X92.549 Y53.591 E0.00722
G1 X92.500 Y53.366 E0.00722
G1 X92.483 Y53.136 E0.00722
G1 X92.500 Y52.906 E0.00722
G1 X92.549 Y52.681 E0.00722
G1 X92.629 Y52.466 E0.00722
G1 X92.740 Y52.264 E0.00722
G1 X92.878 Y52.079 E0.00722
G1 X93.040 Y51.916 E0.00722
G1 X93.225 Y51.778 E0.00722
G1 X93.427 Y51.668 E0.00722
G1 X93.646 Y51.586 E0.00735
G1 X93.956 Y51.531 E0.00984
G1 X94.321 Y51.537 E0.01147
G1 X94.552 Y51.588 E0.00740
G1 X94.768 Y51.668 E0.00722
G1 X94.973 Y51.780 E0.00734
G1 X95.227 Y51.985 E0.01024
G1 X101.683 Y58.446 E0.28637
G1 X101.819 Y58.627 E0.00711
G1 X101.929 Y58.830 E0.00722
G1 X102.010 Y59.045 E0.00722
G1 X102.059 Y59.270 E0.00722
G1 X102.075 Y59.500 E0.00722
G1 X102.059 Y59.730 E0.00722
G1 X102.010 Y59.955 E0.00722
G1 X101.929 Y60.170 E0.00722
G1 X101.817 Y60.376 E0.00734
G1 X101.612 Y60.631 E0.01026
G1 X95.151 Y67.086 E0.28635
G1 X94.970 Y67.222 E0.00711
G1 X94.768 Y67.332 E0.00722
G1 X94.552 Y67.412 E0.00722
G1 X94.327 Y67.461 E0.00722
G1 X94.097 Y67.478 E0.00722
G1 X93.868 Y67.461 E0.00722
G1 X93.643 Y67.412 E0.00722
G1 X93.427 Y67.332 E0.00722
G1 X93.225 Y67.222 E0.00722
G1 X93.040 Y67.084 E0.00722
G1 X92.878 Y66.921 E0.00722
G1 X92.740 Y66.737 E0.00722
G1 X92.629 Y66.534 E0.00722
G1 X92.549 Y66.319 E0.00722
G1 X92.500 Y66.094 E0.00722
G1 X92.483 Y65.864 E0.00722
G1 X92.500 Y65.634 E0.00722
G1 X92.549 Y65.409 E0.00722
G1 X92.629 Y65.194 E0.00722
G1 X92.741 Y64.988 E0.00734
G1 X92.947 Y64.734 E0.01024
G1 X97.894 Y59.787 E0.21936
G1 X97.969 Y59.689 E0.00387
G1 X98.006 Y59.559 E0.00423
M204 S1250
G1 X97.894 Y59.427 F9000.000
G1 E-2.24000 F4200.00000
G1 F7200.000
G1 X97.991 Y59.360 E-0.11077
G1 X97.894 Y59.213 E-0.09760
G1 X96.996 Y58.315 E-0.70364
G1 E-0.04800 F4200.00000
G1 Z0.400 F9000.000
G1 X103.744 Y44.765
G1 Z0.200
G1 E3.20000 F2400.00000
M204 S800
G1 F1200.000
G1 X103.494 Y44.629 E0.00891
G1 X103.270 Y44.461 E0.00880
G1 X97.407 Y38.598 E0.25997
G1 X97.239 Y38.374 E0.00880
G1 X97.102 Y38.124 E0.00891
G1 X97.003 Y37.858 E0.00891
G1 X96.943 Y37.580 E0.00891
G1 X96.922 Y37.297 E0.00891
G1 X96.943 Y37.013 E0.00891
G1 X97.003 Y36.735 E0.00891
G1 X97.102 Y36.469 E0.00891
G1 X97.239 Y36.220 E0.00891
G1 X97.409 Y35.992 E0.00891
G1 X97.610 Y35.791 E0.00891
G1 X97.837 Y35.621 E0.00891
G1 X98.087 Y35.485 E0.00891
G1 X98.364 Y35.381 E0.00927
G1 X98.742 Y35.314 E0.01206
G1 X99.182 Y35.322 E0.01378
G1 X99.475 Y35.385 E0.00942
G1 X99.742 Y35.485 E0.00891
G1 X99.991 Y35.621 E0.00891
G1 X100.216 Y35.789 E0.00880
G1 X106.079 Y41.652 E0.25997
G1 X106.247 Y41.877 E0.00880
G1 X106.383 Y42.126 E0.00891
G1 X106.482 Y42.392 E0.00891
G1 X106.543 Y42.670 E0.00891
G1 X106.563 Y42.954 E0.00891
G1 X106.543 Y43.237 E0.00891
G1 X106.482 Y43.515 E0.00891
G1 X106.383 Y43.781 E0.00891
G1 X106.247 Y44.030 E0.00891
G1 X106.076 Y44.258 E0.00891
G1 X105.876 Y44.459 E0.00891
G1 X105.648 Y44.629 E0.00891
G1 X105.399 Y44.765 E0.00891
G1 X105.132 Y44.865 E0.00891
G1 X104.855 Y44.925 E0.00891
G1 X104.571 Y44.945 E0.00891
G1 X104.288 Y44.925 E0.00891
G1 X104.010 Y44.865 E0.00891
G1 X103.800 Y44.786 E0.00703
M204 S1250
G1 X103.932 Y44.433 F9000.000
M204 S800
G1 F1200.000
G1 X103.699 Y44.311 E0.00825
G1 X103.517 Y44.175 E0.00711
G1 X97.692 Y38.351 E0.25828
G1 X97.557 Y38.169 E0.00711
G1 X97.446 Y37.967 E0.00722
G1 X97.366 Y37.751 E0.00722
G1 X97.317 Y37.526 E0.00722
G1 X97.300 Y37.297 E0.00722
G1 X97.317 Y37.067 E0.00722
G1 X97.366 Y36.842 E0.00722
G1 X97.446 Y36.626 E0.00722
G1 X97.557 Y36.424 E0.00722
G1 X97.695 Y36.240 E0.00722
G1 X97.857 Y36.077 E0.00722
G1 X98.042 Y35.939 E0.00722
G1 X98.244 Y35.829 E0.00722
G1 X98.463 Y35.747 E0.00735
G1 X98.772 Y35.692 E0.00984
G1 X99.138 Y35.698 E0.01147
G1 X99.369 Y35.748 E0.00740
G1 X99.585 Y35.829 E0.00722
G1 X99.787 Y35.939 E0.00722
G1 X99.968 Y36.075 E0.00711
G1 X105.793 Y41.900 E0.25828
G1 X105.929 Y42.081 E0.00711
G1 X106.039 Y42.283 E0.00722
G1 X106.120 Y42.499 E0.00722
G1 X106.169 Y42.724 E0.00722
G1 X106.185 Y42.954 E0.00722
G1 X106.169 Y43.183 E0.00722
G1 X106.120 Y43.408 E0.00722
G1 X106.039 Y43.624 E0.00722
G1 X105.929 Y43.826 E0.00722
G1 X105.791 Y44.010 E0.00722
G1 X105.628 Y44.173 E0.00722
G1 X105.444 Y44.311 E0.00722
G1 X105.242 Y44.422 E0.00722
G1 X105.026 Y44.502 E0.00722
G1 X104.801 Y44.551 E0.00722
G1 X104.571 Y44.567 E0.00722
G1 X104.341 Y44.551 E0.00722
G1 X103.988 Y44.454 E0.01150
M204 S1250
G1 X103.723 Y44.594 F9000.000
G1 E-2.24000 F4200.00000
G1 F7200.000
G1 X103.699 Y44.311 E-0.17879
G1 X103.517 Y44.175 E-0.12562
G1 X102.742 Y43.400 E-0.60759
G1 E-0.04800 F4200.00000
G1 Z0.400 F9000.000
G1 X125.780 Y36.076
G1 Z0.200
G1 E3.20000 F2400.00000
M204 S800
G1 F1200.000
G1 X125.780 Y38.924 E0.08929
G1 X116.052 Y38.924 E0.30501
G1 X115.969 Y38.938 E0.00264
G1 X115.927 Y38.988 E0.00206
G1 X115.927 Y80.012 E1.28625
G1 X115.969 Y80.062 E0.00206
G1 X116.052 Y80.076 E0.00264
G1 X125.780 Y80.076 E0.30501
G1 X125.780 Y82.924 E0.08929
G1 X114.963 Y82.924 E0.33914
G1 X114.706 Y82.904 E0.00810
G1 X114.425 Y82.840 E0.00902
G1 X114.157 Y82.735 E0.00902
G1 X113.908 Y82.591 E0.00902
G1 X113.683 Y82.412 E0.00902
G1 X113.487 Y82.201 E0.00902
G1 X113.325 Y81.963 E0.00902
G1 X113.200 Y81.704 E0.00902
G1 X113.112 Y81.418 E0.00938
G1 X113.069 Y81.037 E0.01203
G1 X113.073 Y37.852 E1.35401
G1 X113.115 Y37.571 E0.00891
G1 X113.200 Y37.296 E0.00902
G1 X113.325 Y37.037 E0.00902
G1 X113.487 Y36.799 E0.00902
G1 X113.683 Y36.588 E0.00902
G1 X113.908 Y36.409 E0.00902
G1 X114.157 Y36.265 E0.00902
G1 X114.425 Y36.160 E0.00902
G1 X114.706 Y36.096 E0.00902
G1 X114.963 Y36.076 E0.00810
G1 X125.720 Y36.076 E0.33727
M204 S1250
G1 X125.403 Y36.453 F9000.000
M204 S800
G1 F1200.000
G1 X125.403 Y38.547 E0.06564
G1 X116.020 Y38.546 E0.29420
G1 X115.839 Y38.578 E0.00576
G1 X115.704 Y38.656 E0.00488
G1 X115.603 Y38.775 E0.00489
G1 X115.550 Y38.922 E0.00490
G1 X115.550 Y80.078 E1.29042
G1 X115.603 Y80.225 E0.00490
G1 X115.704 Y80.344 E0.00489
G1 X115.839 Y80.422 E0.00488
G1 X116.020 Y80.454 E0.00576
G1 X125.403 Y80.453 E0.29420
G1 X125.403 Y82.547 E0.06564
G1 X114.977 Y82.546 E0.32687
G1 X114.762 Y82.530 E0.00678
G1 X114.536 Y82.479 E0.00725
G1 X114.321 Y82.394 E0.00725
G1 X114.121 Y82.279 E0.00725
G1 X113.940 Y82.134 E0.00725
G1 X113.783 Y81.965 E0.00725
G1 X113.652 Y81.774 E0.00725
G1 X113.552 Y81.565 E0.00725
G1 X113.483 Y81.341 E0.00738
G1 X113.446 Y81.015 E0.01026
G1 X113.450 Y37.881 E1.35246
G1 X113.484 Y37.656 E0.00713
G1 X113.552 Y37.435 E0.00725
G1 X113.652 Y37.226 E0.00725
G1 X113.783 Y37.035 E0.00725
G1 X113.940 Y36.866 E0.00725
G1 X114.121 Y36.721 E0.00725
G1 X114.321 Y36.606 E0.00725
G1 X114.536 Y36.521 E0.00725
G1 X114.762 Y36.470 E0.00725
G1 X114.977 Y36.454 E0.00677
G1 X125.343 Y36.453 E0.32500
M204 S1250
G1 X125.803 Y36.453 F9000.000
G1 E-2.24000 F4200.00000
G1 F7200.000
G1 X125.390 Y38.098 E-0.91200
G1 E-0.04800 F4200.00000
G1 Z0.400 F9000.000
G1 X119.492 Y46.347
G1 Z0.200
G1 E3.20000 F2400.00000
M204 S800
G1 F1200.000
G1 X119.343 Y46.291 E0.00498
G1 X121.485 Y48.428 E0.09484
G1 X121.731 Y48.733 E0.01231
G1 X121.907 Y49.087 E0.01239
G1 X122.024 Y49.511 E0.01378
G1 X122.045 Y49.811 E0.00942
G1 X122.025 Y50.094 E0.00891
G1 X121.965 Y50.372 E0.00891
G1 X121.865 Y50.638 E0.00891
G1 X121.729 Y50.888 E0.00891
G1 X121.559 Y51.115 E0.00891
G1 X121.358 Y51.316 E0.00891
G1 X121.130 Y51.486 E0.00891
G1 X120.881 Y51.623 E0.00891
G1 X120.615 Y51.722 E0.00891
G1 X120.337 Y51.782 E0.00891
G1 X120.053 Y51.803 E0.00891
G1 X119.770 Y51.782 E0.00891
G1 X119.492 Y51.722 E0.00891
G1 X119.343 Y51.666 E0.00498
G1 X121.485 Y53.803 E0.09484
G1 X121.731 Y54.108 E0.01231
G1 X121.907 Y54.462 E0.01239
