; generated by PrusaSlicer 2.2.0+win64 on 2020-09-20 at 01:10:20 UTC

; 

; external perimeters extrusion width = 0.45mm
; perimeters extrusion width = 0.45mm
; infill extrusion width = 0.45mm
; solid infill extrusion width = 0.45mm
; top infill extrusion width = 0.40mm
; first layer extrusion width = 0.42mm

M73 P0 R113
M73 Q0 S117
M201 X1000 Y1000 Z200 E5000 ; sets maximum accelerations, mm/sec^2
M203 X200 Y200 Z12 E120 ; sets maximum feedrates, mm/sec
M204 P1250 R1250 T1250 ; sets acceleration (P, T) and retract acceleration (R), mm/sec^2
M205 X8.00 Y8.00 Z0.40 E4.50 ; sets the jerk limits, mm/sec
M205 S0 T0 ; sets the minimum extruding and travel feed rate, mm/sec
M107
M862.3 P "MK3S" ; printer model check
M862.1 P0.4 ; nozzle diameter check
M115 U3.9.0 ; tell printer latest fw version
G90 ; use absolute coordinates
M83 ; extruder relative mode
M104 S215 ; set extruder temp
M140 S60 ; set bed temp
M190 S60 ; wait for bed temp
M109 S215 ; wait for extruder temp
G28 W ; home all without mesh bed level
G80 ; mesh bed leveling
G1 Y-3.0 F1000.0 ; go outside print area
G92 E0.0
G1 X60.0 E9.0 F1000.0 ; intro line
M73 Q0 S117
M73 P0 R113
G1 X100.0 E12.5 F1000.0 ; intro line
G92 E0.0
M221 S95

; Don't change E values below. Excessive value can damage the printer.

M907 E538 ; set extruder motor current
G21 ; set units to millimeters
G90 ; use absolute coordinates
M83 ; use relative distances for extrusion
M900 K0.06 ; Filament gcode LA 1.5
M900 K30 ; Filament gcode LA 1.0
;BEFORE_LAYER_CHANGE
G92 E0.0
;0.2


G1 E-0.80000 F2100.00000
G1 Z0.600 F10800.000
;AFTER_LAYER_CHANGE
;0.2
G1 X97.449 Y81.284
G1 Z0.200
G1 E0.80000 F2100.00000
M204 S1000
G1 F1200.000
G1 X99.565 Y79.027 E0.09700
G1 X101.867 Y76.959 E0.09703
G1 X104.212 Y75.178 E0.09234
G1 X105.480 Y74.333 E0.04775
G1 X108.158 Y72.784 E0.09701
G1 X110.959 Y71.469 E0.09703
G1 X112.375 Y70.910 E0.04774
G1 X115.176 Y70.000 E0.09233
G1 X118.186 Y69.292 E0.09695
G1 X121.248 Y68.842 E0.09705
G1 X122.767 Y68.716 E0.04779
G1 X125.715 Y68.655 E0.09246
G1 X128.796 Y68.846 E0.09676
G1 X131.861 Y69.301 E0.09716
G1 X133.349 Y69.620 E0.04773
G1 X136.185 Y70.411 E0.09233
G1 X139.085 Y71.487 E0.09695
G1 X141.886 Y72.808 E0.09711
G1 X144.436 Y74.280 E0.09234
G1 X145.709 Y75.123 E0.04786
G1 X148.172 Y76.990 E0.09689
G1 X150.470 Y79.062 E0.09703
G1 X151.534 Y80.151 E0.04774
G1 X153.456 Y82.379 E0.09226
G1 X155.279 Y84.883 E0.09710
G1 X156.880 Y87.531 E0.09702
G1 X157.583 Y88.881 E0.04775
G1 X158.783 Y91.575 E0.09246
G1 X159.814 Y94.536 E0.09832
G1 X160.547 Y97.391 E0.09239
G1 X160.835 Y98.888 E0.04782
G1 X161.225 Y101.958 E0.09701
G1 X161.352 Y105.050 E0.09703
G1 X161.229 Y107.992 E0.09234
G1 X161.072 Y109.507 E0.04774
G1 X160.558 Y112.558 E0.09701
G1 X159.786 Y115.555 E0.09703
G1 X158.818 Y118.336 E0.09233
G1 X158.230 Y119.740 E0.04775
G1 X156.856 Y122.513 E0.09701
G1 X155.251 Y125.158 E0.09703
G1 X154.380 Y126.408 E0.04774
G1 X152.551 Y128.716 E0.09234
G1 X150.432 Y130.975 E0.09712
G1 X148.133 Y133.041 E0.09692
G1 X145.788 Y134.822 E0.09234
G1 X144.488 Y135.687 E0.04895
G1 X141.808 Y137.233 E0.09701
G1 X140.440 Y137.910 E0.04786
G1 X138.064 Y138.918 E0.08092
G1 X128.421 Y141.176 E0.31056
G1 X125.810 Y141.343 E0.08202
G1 X124.239 Y141.345 E0.04925
G1 X121.151 Y141.148 E0.09703
G1 X119.640 Y140.955 E0.04774
G1 X116.748 Y140.403 E0.09234
G1 X113.769 Y139.574 E0.09693
G1 X110.870 Y138.493 E0.09702
G1 X109.477 Y137.871 E0.04783
G1 X106.869 Y136.508 E0.09226
G1 X104.253 Y134.851 E0.09709
G1 X101.790 Y132.978 E0.09703
G1 X99.601 Y131.008 E0.09234
G1 X98.534 Y129.921 E0.04775
G1 X96.512 Y127.583 E0.09693
G1 X94.694 Y125.076 E0.09711
G1 X93.880 Y123.789 E0.04774
G1 X92.461 Y121.208 E0.09234
G1 X91.200 Y118.383 E0.09701
G1 X90.185 Y115.459 E0.09703
G1 X89.453 Y112.609 E0.09225
G1 X89.165 Y111.112 E0.04782
G1 X88.775 Y108.042 E0.09701
G1 X88.648 Y104.950 E0.09703
G1 X88.771 Y102.008 E0.09234
G1 X88.928 Y100.493 E0.04774
G1 X89.442 Y97.442 E0.09701
G1 X90.214 Y94.445 E0.09703
G1 X91.182 Y91.664 E0.09233
G1 X91.770 Y90.260 E0.04775
G1 X93.144 Y87.487 E0.09701
G1 X94.749 Y84.842 E0.09703
G1 X95.620 Y83.592 E0.04774
G1 X97.412 Y81.331 E0.09046
G1 F8640.000
G1 X99.565 Y79.027 E-0.72814
G1 X99.667 Y78.935 E-0.03186
G1 E-0.04000 F2100.00000
G1 Z0.800 F10800.000
G1 X137.976 Y122.675
G1 Z0.200
G1 E0.80000 F2100.00000
G1 F1200.000
G1 X136.925 Y122.384 E0.03420
G1 X136.399 Y122.188 E0.01761
G1 X135.890 Y121.948 E0.01763
G1 X135.403 Y121.667 E0.01763
G1 X134.942 Y121.347 E0.01763
G1 X134.509 Y120.988 E0.01763
G1 X134.107 Y120.595 E0.01763
G1 X133.740 Y120.169 E0.01763
G1 X133.409 Y119.715 E0.01763
G1 X133.118 Y119.234 E0.01762
G1 X132.868 Y118.730 E0.01763
G1 X132.661 Y118.207 E0.01763
G1 X132.499 Y117.669 E0.01763
G1 X132.382 Y117.119 E0.01763
G1 X132.311 Y116.562 E0.01763
G1 X132.288 Y116.000 E0.01763
G1 X132.311 Y115.438 E0.01763
G1 X132.382 Y114.881 E0.01763
G1 X132.499 Y114.331 E0.01763
G1 X132.661 Y113.793 E0.01763
G1 X132.868 Y113.270 E0.01763
G1 X133.118 Y112.766 E0.01763
G1 X133.409 Y112.285 E0.01763
G1 X133.740 Y111.831 E0.01763
G1 X134.107 Y111.405 E0.01763
G1 X134.509 Y111.012 E0.01763
G1 X134.942 Y110.653 E0.01763
G1 X135.403 Y110.333 E0.01763
G1 X135.890 Y110.051 E0.01763
G1 X136.399 Y109.812 E0.01763
G1 X136.925 Y109.616 E0.01761
G1 X137.976 Y109.325 E0.03418
G1 X137.987 Y97.849 E0.35982
G1 X137.105 Y97.423 E0.03072
G1 X136.331 Y98.012 E0.03052
G1 X135.851 Y98.316 E0.01781
G1 X135.101 Y98.688 E0.02624
G1 X134.568 Y98.886 E0.01782
G1 X133.758 Y99.093 E0.02624
G1 X133.202 Y99.176 E0.01763
G1 X132.641 Y99.211 E0.01763
G1 X132.079 Y99.199 E0.01763
G1 X131.248 Y99.095 E0.02624
G1 X130.695 Y98.965 E0.01782
G1 X130.160 Y98.791 E0.01763
G1 X129.636 Y98.571 E0.01782
G1 X128.904 Y98.168 E0.02621
G1 X128.066 Y97.582 E0.03206
G1 X127.213 Y98.017 E0.03002
G1 X127.224 Y123.352 E0.79435
G1 X128.341 Y123.709 E0.03677
G1 X128.858 Y123.926 E0.01759
G1 X129.356 Y124.187 E0.01763
G1 X129.831 Y124.488 E0.01763
G1 X130.279 Y124.828 E0.01762
G1 X130.696 Y125.204 E0.01763
G1 X131.081 Y125.614 E0.01763
G1 X131.430 Y126.055 E0.01763
G1 X131.742 Y126.523 E0.01763
G1 X132.012 Y127.015 E0.01762
G1 X132.241 Y127.529 E0.01763
G1 X132.426 Y128.060 E0.01763
G1 X132.566 Y128.604 E0.01763
G1 X132.659 Y129.159 E0.01763
G1 X132.706 Y129.719 E0.01763
G1 X132.706 Y130.281 E0.01763
G1 X132.659 Y130.841 E0.01763
G1 X132.566 Y131.396 E0.01763
G1 X132.426 Y131.940 E0.01763
G1 X132.241 Y132.471 E0.01763
G1 X132.012 Y132.985 E0.01763
G1 X131.742 Y133.477 E0.01762
G1 X131.430 Y133.945 E0.01763
G1 X131.077 Y134.391 E0.01782
G1 X130.491 Y134.988 E0.02624
G1 X130.058 Y135.347 E0.01763
G1 X129.597 Y135.667 E0.01763
G1 X129.110 Y135.948 E0.01763
G1 X128.601 Y136.188 E0.01763
G1 X128.068 Y136.386 E0.01782
G1 X127.224 Y136.641 E0.02766
G1 X127.224 Y138.111 E0.04610
G1 X125.695 Y138.181 E0.04798
G1 X124.305 Y138.181 E0.04359
G1 X122.916 Y138.123 E0.04359
G1 X121.531 Y138.007 E0.04359
G1 X120.152 Y137.832 E0.04359
G1 X118.781 Y137.601 E0.04358
G1 X117.421 Y137.312 E0.04359
G1 X116.075 Y136.966 E0.04359
G1 X114.744 Y136.564 E0.04359
G1 X113.432 Y136.107 E0.04358
G1 X112.139 Y135.595 E0.04359
G1 X110.869 Y135.030 E0.04359
G1 X109.624 Y134.412 E0.04359
G1 X108.406 Y133.742 E0.04358
G1 X107.217 Y133.022 E0.04359
G1 X106.059 Y132.253 E0.04359
G1 X104.934 Y131.436 E0.04358
G1 X103.845 Y130.572 E0.04358
G1 X102.793 Y129.664 E0.04359
G1 X101.779 Y128.712 E0.04359
G1 X100.807 Y127.719 E0.04358
G1 X99.877 Y126.686 E0.04359
G1 X98.990 Y125.615 E0.04359
G1 X98.150 Y124.508 E0.04358
G1 X97.357 Y123.366 E0.04359
G1 X96.612 Y122.192 E0.04359
G1 X95.917 Y120.989 E0.04358
G1 X95.273 Y119.757 E0.04359
G1 X94.681 Y118.499 E0.04359
G1 X94.142 Y117.217 E0.04359
G1 X93.658 Y115.915 E0.04358
G1 X93.228 Y114.593 E0.04359
G1 X92.854 Y113.254 E0.04358
G1 X92.537 Y111.900 E0.04359
G1 X92.276 Y110.535 E0.04359
G1 X92.073 Y109.160 E0.04359
G1 X91.928 Y107.777 E0.04359
G1 X91.841 Y106.390 E0.04358
G1 X91.812 Y105.000 E0.04359
G1 X91.841 Y103.610 E0.04359
G1 X91.928 Y102.223 E0.04358
G1 X92.073 Y100.840 E0.04359
G1 X92.276 Y99.465 E0.04359
G1 X92.537 Y98.100 E0.04359
G1 X92.854 Y96.746 E0.04359
G1 X93.228 Y95.407 E0.04358
G1 X93.658 Y94.085 E0.04359
G1 X94.142 Y92.783 E0.04358
G1 X94.681 Y91.501 E0.04359
G1 X95.273 Y90.243 E0.04359
G1 X95.917 Y89.011 E0.04358
G1 X96.612 Y87.808 E0.04358
G1 X97.357 Y86.634 E0.04359
G1 X98.150 Y85.492 E0.04359
G1 X98.990 Y84.385 E0.04358
G1 X99.877 Y83.314 E0.04359
G1 X100.807 Y82.281 E0.04359
G1 X101.779 Y81.288 E0.04358
G1 X102.793 Y80.336 E0.04359
G1 X103.845 Y79.428 E0.04359
G1 X104.934 Y78.564 E0.04358
G1 X106.059 Y77.747 E0.04358
G1 X107.217 Y76.978 E0.04359
G1 X108.406 Y76.258 E0.04359
G1 X109.624 Y75.588 E0.04358
G1 X110.869 Y74.970 E0.04359
G1 X112.139 Y74.405 E0.04359
G1 X113.432 Y73.893 E0.04359
G1 X114.745 Y73.436 E0.04360
G1 X116.075 Y73.034 E0.04356
G1 X117.420 Y72.689 E0.04354
G1 X118.781 Y72.399 E0.04364
G1 X120.152 Y72.168 E0.04358
G1 X121.531 Y71.993 E0.04358
G1 X122.916 Y71.877 E0.04359
G1 X124.305 Y71.819 E0.04358
G1 X125.694 Y71.819 E0.04357
G1 X127.084 Y71.877 E0.04361
G1 X128.469 Y71.993 E0.04358
G1 X129.848 Y72.168 E0.04359
G1 X131.219 Y72.399 E0.04358
G1 X132.579 Y72.688 E0.04359
G1 X133.925 Y73.034 E0.04358
G1 X135.255 Y73.436 E0.04357
G1 X136.568 Y73.893 E0.04360
G1 X137.861 Y74.405 E0.04359
G1 X139.131 Y74.970 E0.04359
G1 X140.376 Y75.588 E0.04359
G1 X141.594 Y76.258 E0.04358
G1 X142.783 Y76.978 E0.04359
G1 X143.941 Y77.747 E0.04359
G1 X145.066 Y78.564 E0.04358
G1 X146.155 Y79.428 E0.04358
G1 X147.207 Y80.336 E0.04359
G1 X148.221 Y81.288 E0.04359
G1 X149.193 Y82.281 E0.04358
G1 X150.123 Y83.314 E0.04359
G1 X151.010 Y84.385 E0.04359
G1 X151.850 Y85.492 E0.04358
G1 X152.643 Y86.634 E0.04359
G1 X153.388 Y87.808 E0.04359
G1 X154.083 Y89.011 E0.04358
G1 X154.727 Y90.243 E0.04359
G1 X155.319 Y91.501 E0.04359
G1 X155.858 Y92.783 E0.04359
G1 X156.342 Y94.085 E0.04358
G1 X156.772 Y95.407 E0.04359
G1 X157.146 Y96.746 E0.04358
G1 X157.463 Y98.100 E0.04359
G1 X157.724 Y99.465 E0.04359
G1 X157.927 Y100.840 E0.04359
G1 X158.072 Y102.223 E0.04359
G1 X158.159 Y103.610 E0.04358
G1 X158.188 Y105.000 E0.04359
G1 X158.159 Y106.390 E0.04359
G1 X158.072 Y107.777 E0.04358
G1 X157.927 Y109.160 E0.04359
G1 X157.724 Y110.535 E0.04359
G1 X157.463 Y111.900 E0.04359
G1 X157.146 Y113.254 E0.04359
G1 X156.772 Y114.593 E0.04358
G1 X156.342 Y115.915 E0.04359
G1 X155.858 Y117.217 E0.04358
G1 X155.319 Y118.499 E0.04359
G1 X154.727 Y119.757 E0.04359
G1 X154.083 Y120.989 E0.04358
G1 X153.388 Y122.192 E0.04358
G1 X152.643 Y123.366 E0.04359
G1 X151.850 Y124.508 E0.04359
G1 X151.010 Y125.615 E0.04358
G1 X150.123 Y126.686 E0.04359
G1 X149.193 Y127.719 E0.04359
G1 X148.221 Y128.712 E0.04358
G1 X147.207 Y129.664 E0.04359
G1 X146.155 Y130.572 E0.04359
G1 X145.066 Y131.436 E0.04359
G1 X143.941 Y132.253 E0.04358
G1 X142.783 Y133.022 E0.04359
G1 X141.594 Y133.742 E0.04359
G1 X140.376 Y134.412 E0.04358
G1 X139.131 Y135.030 E0.04359
G1 X137.976 Y135.544 E0.03963
G1 X137.976 Y122.735 E0.40160
G1 X137.599 Y122.962 F10800.000
G1 F1200.000
G1 X136.809 Y122.743 E0.02571
G1 X136.253 Y122.536 E0.01861
G1 X135.715 Y122.283 E0.01862
G1 X135.201 Y121.986 E0.01862
G1 X134.714 Y121.647 E0.01862
G1 X134.256 Y121.269 E0.01862
G1 X133.832 Y120.853 E0.01862
G1 X133.444 Y120.404 E0.01862
G1 X133.095 Y119.923 E0.01862
G1 X132.787 Y119.416 E0.01862
G1 X132.523 Y118.884 E0.01862
G1 X132.305 Y118.332 E0.01862
G1 X132.133 Y117.763 E0.01862
G1 X132.010 Y117.182 E0.01862
G1 X131.935 Y116.593 E0.01862
G1 X131.910 Y116.000 E0.01862
G1 X131.935 Y115.407 E0.01862
G1 X132.010 Y114.818 E0.01862
G1 X132.133 Y114.237 E0.01862
G1 X132.305 Y113.668 E0.01862
G1 X132.523 Y113.116 E0.01862
G1 X132.787 Y112.584 E0.01862
G1 X133.095 Y112.077 E0.01862
G1 X133.444 Y111.596 E0.01862
G1 X133.832 Y111.147 E0.01862
G1 X134.256 Y110.731 E0.01862
G1 X134.714 Y110.353 E0.01862
G1 X135.201 Y110.014 E0.01862
G1 X135.715 Y109.717 E0.01862
G1 X136.253 Y109.464 E0.01862
G1 X136.809 Y109.257 E0.01861
G1 X137.599 Y109.038 E0.02571
G1 X137.610 Y98.086 E0.34341
G1 X137.150 Y97.863 E0.01604
G1 X136.546 Y98.322 E0.02376
G1 X136.043 Y98.641 E0.01868
G1 X135.247 Y99.036 E0.02785
G1 X134.409 Y99.328 E0.02785
G1 X133.828 Y99.464 E0.01869
G1 X133.241 Y99.551 E0.01862
G1 X132.648 Y99.588 E0.01862
G1 X132.055 Y99.576 E0.01862
G1 X131.174 Y99.465 E0.02785
G1 X130.593 Y99.329 E0.01869
G1 X130.029 Y99.145 E0.01862
G1 X129.217 Y98.784 E0.02785
G1 X128.701 Y98.486 E0.01868
G1 X128.035 Y98.021 E0.02547
G1 X127.590 Y98.248 E0.01567
G1 X127.601 Y123.076 E0.77848
G1 X128.472 Y123.355 E0.02867
G1 X129.019 Y123.585 E0.01860
G1 X129.545 Y123.860 E0.01862
G1 X130.046 Y124.178 E0.01862
G1 X130.519 Y124.537 E0.01862
G1 X130.960 Y124.935 E0.01862
G1 X131.367 Y125.367 E0.01862
G1 X131.736 Y125.833 E0.01862
G1 X132.064 Y126.327 E0.01862
G1 X132.350 Y126.848 E0.01862
G1 X132.592 Y127.390 E0.01862
G1 X132.787 Y127.951 E0.01862
G1 X132.935 Y128.526 E0.01862
G1 X133.034 Y129.111 E0.01862
G1 X133.084 Y129.703 E0.01862
G1 X133.084 Y130.297 E0.01862
G1 X133.034 Y130.889 E0.01862
G1 X132.935 Y131.474 E0.01862
G1 X132.787 Y132.049 E0.01862
G1 X132.592 Y132.610 E0.01862
G1 X132.350 Y133.152 E0.01862
G1 X132.064 Y133.673 E0.01862
G1 X131.736 Y134.167 E0.01862
G1 X131.366 Y134.634 E0.01869
G1 X130.744 Y135.269 E0.02785
G1 X130.286 Y135.647 E0.01862
G1 X129.799 Y135.986 E0.01862
G1 X129.285 Y136.283 E0.01862
G1 X128.747 Y136.536 E0.01862
G1 X128.189 Y136.744 E0.01869
G1 X127.601 Y136.921 E0.01925
G1 X127.601 Y138.458 E0.04819
G1 X127.108 Y138.499 E0.01552
G1 X125.703 Y138.558 E0.04408
G1 X124.297 Y138.558 E0.04408
G1 X122.892 Y138.499 E0.04408
G1 X121.491 Y138.382 E0.04408
G1 X120.097 Y138.206 E0.04408
G1 X118.710 Y137.971 E0.04408
G1 X117.335 Y137.679 E0.04408
G1 X115.974 Y137.329 E0.04408
G1 X114.628 Y136.923 E0.04408
G1 X113.300 Y136.460 E0.04408
G1 X111.993 Y135.943 E0.04408
G1 X110.708 Y135.371 E0.04408
G1 X109.449 Y134.746 E0.04408
G1 X108.217 Y134.069 E0.04408
G1 X107.015 Y133.340 E0.04408
G1 X105.844 Y132.562 E0.04408
G1 X104.706 Y131.736 E0.04408
G1 X103.605 Y130.863 E0.04408
G1 X102.540 Y129.944 E0.04408
G1 X101.515 Y128.982 E0.04408
G1 X100.532 Y127.977 E0.04408
G1 X99.591 Y126.932 E0.04408
G1 X98.695 Y125.849 E0.04408
G1 X97.845 Y124.729 E0.04408
G1 X97.043 Y123.575 E0.04408
G1 X96.289 Y122.388 E0.04408
G1 X95.586 Y121.170 E0.04408
G1 X94.935 Y119.924 E0.04408
G1 X94.336 Y118.652 E0.04408
G1 X93.792 Y117.356 E0.04408
G1 X93.301 Y116.039 E0.04408
G1 X92.867 Y114.702 E0.04408
G1 X92.489 Y113.347 E0.04408
G1 X92.168 Y111.979 E0.04408
G1 X91.904 Y110.598 E0.04408
G1 X91.699 Y109.207 E0.04408
G1 X91.552 Y107.809 E0.04408
G1 X91.464 Y106.406 E0.04408
G1 X91.434 Y105.000 E0.04408
G1 X91.464 Y103.594 E0.04408
G1 X91.552 Y102.191 E0.04408
G1 X91.699 Y100.793 E0.04408
G1 X91.904 Y99.402 E0.04408
G1 X92.168 Y98.021 E0.04408
G1 X92.489 Y96.653 E0.04408
G1 X92.867 Y95.298 E0.04408
G1 X93.301 Y93.961 E0.04408
G1 X93.792 Y92.644 E0.04408
G1 X94.336 Y91.348 E0.04408
G1 X94.935 Y90.076 E0.04408
G1 X95.586 Y88.830 E0.04408
G1 X96.289 Y87.612 E0.04408
G1 X97.043 Y86.425 E0.04408
G1 X97.845 Y85.271 E0.04408
G1 X98.695 Y84.151 E0.04408
G1 X99.591 Y83.068 E0.04408
G1 X100.532 Y82.023 E0.04408
G1 X101.515 Y81.018 E0.04408
G1 X102.540 Y80.056 E0.04408
G1 X103.605 Y79.137 E0.04408
G1 X104.706 Y78.264 E0.04408
G1 X105.844 Y77.438 E0.04408
G1 X107.015 Y76.660 E0.04408
G1 X108.217 Y75.931 E0.04408
G1 X109.449 Y75.254 E0.04408
G1 X110.708 Y74.629 E0.04408
G1 X111.993 Y74.057 E0.04408
G1 X113.300 Y73.540 E0.04408
G1 X114.628 Y73.077 E0.04410
G1 X115.974 Y72.671 E0.04406
G1 X117.334 Y72.322 E0.04403
G1 X118.710 Y72.029 E0.04413
G1 X120.097 Y71.794 E0.04408
G1 X121.491 Y71.618 E0.04408
G1 X122.892 Y71.501 E0.04408
G1 X124.297 Y71.442 E0.04408
G1 X125.702 Y71.442 E0.04406
G1 X127.108 Y71.501 E0.04410
G1 X128.509 Y71.618 E0.04408
G1 X129.903 Y71.794 E0.04408
G1 X131.290 Y72.029 E0.04408
G1 X132.665 Y72.321 E0.04408
G1 X134.026 Y72.671 E0.04408
G1 X135.372 Y73.077 E0.04407
G1 X136.700 Y73.540 E0.04410
G1 X138.007 Y74.057 E0.04408
G1 X139.292 Y74.629 E0.04408
