; generated by PrusaSlicer 2.2.0+win64 on 2020-10-18 at 01:32:02 UTC

; 

; external perimeters extrusion width = 0.45mm
; perimeters extrusion width = 0.45mm
; infill extrusion width = 0.45mm
; solid infill extrusion width = 0.45mm
; top infill extrusion width = 0.40mm
; first layer extrusion width = 0.42mm

M73 P0 R51
M73 Q0 S51
M201 X1000 Y1000 Z200 E5000 ; sets maximum accelerations, mm/sec^2
M203 X200 Y200 Z12 E120 ; sets maximum feedrates, mm/sec
M204 P1250 R1250 T1250 ; sets acceleration (P, T) and retract acceleration (R), mm/sec^2
M205 X8.00 Y8.00 Z0.40 E4.50 ; sets the jerk limits, mm/sec
M205 S0 T0 ; sets the minimum extruding and travel feed rate, mm/sec
M107
M862.3 P "MK3S" ; printer model check
M862.1 P0.4 ; nozzle diameter check
M115 U3.9.1 ; tell printer latest fw version
G90 ; use absolute coordinates
M83 ; extruder relative mode
M104 S215 ; set extruder temp
M140 S60 ; set bed temp
M190 S60 ; wait for bed temp
M109 S215 ; wait for extruder temp
G28 W ; home all without mesh bed level
G80 ; mesh bed leveling
G1 Y-3.0 F1000.0 ; go outside print area
G92 E0.0
G1 X60.0 E9.0 F1000.0 ; intro line
M73 Q0 S51
M73 P0 R51
G1 X100.0 E12.5 F1000.0 ; intro line
G92 E0.0
M221 S95

; Don't change E values below. Excessive value can damage the printer.
M907 E430 ; set extruder motor current
G21 ; set units to millimeters
G90 ; use absolute coordinates
M83 ; use relative distances for extrusion
M900 K0.05 ; Filament gcode LA 1.5
M900 K30 ; Filament gcode LA 1.0
;BEFORE_LAYER_CHANGE
G92 E0.0
;0.2


G1 E-0.80000 F2100.00000
G1 Z0.600 F10800.000
;AFTER_LAYER_CHANGE
;0.2
G1 X89.908 Y78.039
G1 Z0.200
G1 E0.80000 F2100.00000
M204 S1000
G1 F1200.000
G1 X90.532 Y77.734 E0.02178
G1 X117.137 Y70.507 E0.86442
G1 X120.354 Y69.932 E0.10244
G1 X123.412 Y69.658 E0.09627
G1 X126.485 Y69.656 E0.09635
G1 X129.746 Y69.943 E0.10264
G1 X132.909 Y70.518 E0.10079
G1 X159.518 Y77.751 E0.86458
G1 X160.117 Y78.056 E0.02107
G1 X160.606 Y78.516 E0.02107
G1 X163.066 Y82.190 E0.13863
G1 X165.027 Y85.843 E0.12999
G1 X166.549 Y89.410 E0.12161
G1 X167.777 Y93.194 E0.12473
G1 X168.681 Y97.182 E0.12820
G1 X169.199 Y101.026 E0.12161
G1 X169.377 Y104.996 E0.12462
G1 X169.187 Y109.084 E0.12831
G1 X168.663 Y112.927 E0.12161
G1 X167.777 Y116.806 E0.12476
G1 X166.508 Y120.692 E0.12817
G1 X164.983 Y124.254 E0.12149
G1 X163.107 Y127.741 E0.12415
G1 X160.609 Y131.480 E0.14099
G1 X160.120 Y131.942 E0.02107
G1 X159.526 Y132.247 E0.02095
G1 X132.911 Y139.481 E0.86478
G1 X129.752 Y140.056 E0.10066
G1 X126.622 Y140.340 E0.09854
G1 X123.305 Y140.334 E0.10400
G1 X120.247 Y140.056 E0.09630
G1 X117.132 Y139.491 E0.09924
G1 X90.621 Y132.292 E0.86136
G1 X90.053 Y132.053 E0.01929
G1 X89.561 Y131.672 E0.01953
G1 X89.103 Y131.092 E0.02317
G1 X86.885 Y127.728 E0.12632
G1 X85.017 Y124.254 E0.12367
G1 X83.470 Y120.639 E0.12329
G1 X82.224 Y116.810 E0.12628
G1 X81.358 Y113.028 E0.12164
G1 X80.797 Y108.914 E0.13020
G1 X80.623 Y105.000 E0.12283
G1 X80.801 Y101.022 E0.12485
G1 X81.335 Y97.080 E0.12472
G1 X82.197 Y93.297 E0.12166
G1 X83.491 Y89.312 E0.13138
G1 X85.019 Y85.742 E0.12174
G1 X86.893 Y82.259 E0.12403
G1 X89.398 Y78.511 E0.14134
G1 X89.864 Y78.080 E0.01990
G1 F8640.000
G1 X90.532 Y77.734 E-0.17368
G1 X92.982 Y77.069 E-0.58632
G1 E-0.04000 F2100.00000
G1 Z0.800 F10800.000
G1 X98.824 Y75.287
G1 Z0.200
G1 E0.80000 F2100.00000
G1 F1200.000
G1 X90.839 Y75.287 E0.25036
G1 X89.813 Y75.474 E0.03272
G1 X88.632 Y76.047 E0.04114
G1 X87.622 Y76.960 E0.04268
G1 X84.860 Y81.105 E0.15618
G1 X82.924 Y84.708 E0.12824
G1 X81.305 Y88.481 E0.12873
G1 X79.941 Y92.681 E0.13847
G1 X79.030 Y96.703 E0.12930
G1 X78.475 Y100.804 E0.12975
G1 X78.287 Y104.939 E0.12978
G1 X78.465 Y109.075 E0.12981
G1 X79.058 Y113.453 E0.13853
G1 X80.001 Y117.539 E0.13147
G1 X81.305 Y121.520 E0.13136
G1 X82.916 Y125.275 E0.12813
G1 X84.851 Y128.879 E0.12824
G1 X87.113 Y132.303 E0.12868
G1 X87.398 Y132.761 E0.01690
G1 X88.148 Y133.566 E0.03449
G1 X88.779 Y134.064 E0.02522
G1 X90.704 Y134.713 E0.06369
G1 X98.818 Y134.713 E0.25442
G1 F8640.000
G1 X95.527 Y134.713 E-0.76000
G1 E-0.04000 F2100.00000
G1 Z0.800 F10800.000
G1 X100.257 Y134.713
G1 Z0.200
G1 E0.80000 F2100.00000
G1 F1200.000
G1 X101.811 Y134.713 E0.04873
G1 X102.729 Y135.385 E0.03566
G1 F8640.000
G1 X101.811 Y134.713 E-0.26262
G1 X100.257 Y134.713 E-0.35888
G1 E-0.17850 F2100.00000
G1 Z0.800 F10800.000
G1 X103.579 Y136.006
G1 Z0.200
G1 E0.80000 F2100.00000
G1 F1200.000
G1 X104.184 Y136.449 E0.02350
G1 X107.086 Y138.188 E0.10608
G1 X110.134 Y139.659 E0.10611
G1 X113.316 Y140.858 E0.10664
G1 X116.615 Y141.770 E0.10729
G1 X119.980 Y142.377 E0.10723
G1 X123.388 Y142.679 E0.10725
G1 X126.808 Y142.670 E0.10724
G1 X130.124 Y142.363 E0.10442
G1 X133.384 Y141.770 E0.10389
G1 X136.628 Y140.876 E0.10551
G1 X139.748 Y139.710 E0.10442
G1 X142.783 Y138.258 E0.10550
G1 X145.680 Y136.538 E0.10562
G1 X146.416 Y136.006 E0.02849
G1 F8640.000
G1 X145.680 Y136.538 E-0.20978
G1 X143.631 Y137.755 E-0.55022
G1 E-0.04000 F2100.00000
G1 Z0.800 F10800.000
G1 X147.280 Y135.380
G1 Z0.200
G1 E0.80000 F2100.00000
G1 F1200.000
G1 X148.201 Y134.713 E0.03563
G1 X149.732 Y134.713 E0.04799
G1 F8640.000
G1 X148.201 Y134.713 E-0.35342
G1 X147.280 Y135.380 E-0.26242
G1 E-0.18416 F2100.00000
G1 Z0.800 F10800.000
G1 X151.169 Y134.713
G1 Z0.200
G1 E0.80000 F2100.00000
G1 F1200.000
G1 X159.183 Y134.713 E0.25126
G1 X160.360 Y134.466 E0.03770
G1 X161.498 Y133.863 E0.04038
G1 X162.417 Y132.994 E0.03966
G1 X165.140 Y128.894 E0.15431
G1 X167.076 Y125.292 E0.12822
G1 X168.695 Y121.520 E0.12872
G1 X170.054 Y117.337 E0.13788
G1 X170.961 Y113.350 E0.12821
G1 X171.515 Y109.300 E0.12818
G1 X171.713 Y104.906 E0.13790
G1 X171.526 Y100.822 E0.12820
G1 X170.983 Y96.770 E0.12818
G1 X170.000 Y92.465 E0.13846
G1 X168.738 Y88.594 E0.12765
G1 X167.136 Y84.833 E0.12817
G1 X165.042 Y80.942 E0.13855
G1 X162.417 Y77.005 E0.14835
G1 X161.455 Y76.107 E0.04127
G1 X160.309 Y75.515 E0.04044
G1 X159.183 Y75.287 E0.03604
G1 X151.171 Y75.287 E0.25122
G1 F8640.000
G1 X154.462 Y75.287 E-0.76000
G1 E-0.04000 F2100.00000
G1 Z0.800 F10800.000
G1 X149.733 Y75.287
G1 Z0.200
G1 E0.80000 F2100.00000
G1 F1200.000
G1 X148.201 Y75.287 E0.04803
G1 X147.280 Y74.620 E0.03566
G1 F8640.000
G1 X148.201 Y75.287 E-0.26260
G1 X149.733 Y75.287 E-0.35372
G1 E-0.18368 F2100.00000
G1 Z0.800 F10800.000
G1 X146.415 Y73.994
G1 Z0.200
G1 E0.80000 F2100.00000
G1 F1200.000
G1 X145.680 Y73.462 E0.02846
G1 X142.783 Y71.742 E0.10562
G1 X139.763 Y70.297 E0.10499
G1 X136.627 Y69.123 E0.10498
G1 X133.398 Y68.233 E0.10502
G1 X130.088 Y67.632 E0.10550
G1 X126.702 Y67.325 E0.10659
G1 X123.315 Y67.324 E0.10619
G1 X119.927 Y67.630 E0.10667
G1 X116.597 Y68.235 E0.10612
G1 X113.316 Y69.142 E0.10672
G1 X110.134 Y70.341 E0.10662
G1 X107.086 Y71.812 E0.10611
G1 X104.184 Y73.551 E0.10608
G1 X103.577 Y73.996 E0.02360
G1 F8640.000
G1 X104.184 Y73.551 E-0.17379
G1 X106.362 Y72.246 E-0.58621
G1 E-0.04000 F2100.00000
G1 Z0.800 F10800.000
G1 X102.727 Y74.617
G1 Z0.200
G1 E0.80000 F2100.00000
G1 F1200.000
G1 X101.811 Y75.287 E0.03555
G1 X100.263 Y75.287 E0.04856
G1 F8640.000
G1 X101.811 Y75.287 E-0.35763
G1 X102.727 Y74.617 E-0.26181
G1 E-0.18055 F2100.00000
G1 Z0.800 F10800.000
G1 X98.874 Y75.664
G1 Z0.200
G1 E0.80000 F2100.00000
G1 F1200.000
G1 X101.935 Y75.664 E0.09595
G1 X103.741 Y74.342 E0.07020
G1 F8640.000
G1 X101.935 Y75.664 E-0.51694
G1 X100.882 Y75.664 E-0.24306
G1 E-0.04000 F2100.00000
G1 Z0.800 F10800.000
G1 X104.673 Y73.698
G1 Z0.200
G1 E0.80000 F2100.00000
G1 F1200.000
G1 X107.258 Y72.148 E0.09449
G1 X110.275 Y70.691 E0.10505
G1 X113.425 Y69.503 E0.10556
G1 X116.672 Y68.604 E0.10565
G1 X119.969 Y68.005 E0.10506
G1 X123.324 Y67.701 E0.10561
G1 X126.676 Y67.701 E0.10512
G1 X130.029 Y68.004 E0.10554
G1 X133.306 Y68.599 E0.10444
G1 X136.503 Y69.480 E0.10397
G1 X139.608 Y70.640 E0.10393
G1 X142.613 Y72.079 E0.10446
G1 X145.350 Y73.704 E0.09982
G1 F8640.000
G1 X142.613 Y72.079 E-0.73513
G1 X142.516 Y72.032 E-0.02487
G1 E-0.04000 F2100.00000
G1 Z0.800 F10800.000
G1 X146.251 Y74.340
G1 Z0.200
G1 E0.80000 F2100.00000
G1 F1200.000
G1 X148.079 Y75.664 E0.07075
G1 X151.120 Y75.664 E0.09536
G1 F8640.000
G1 X148.079 Y75.664 E-0.70228
G1 X147.876 Y75.517 E-0.05772
G1 E-0.04000 F2100.00000
G1 Z0.800 F10800.000
G1 X152.558 Y75.664
G1 Z0.200
G1 E0.80000 F2100.00000
G1 F1200.000
G1 X159.164 Y75.664 E0.20714
G1 X160.160 Y75.863 E0.03183
G1 X161.258 Y76.430 E0.03875
G1 X162.142 Y77.264 E0.03812
G1 X164.723 Y81.143 E0.14608
G1 X166.793 Y84.989 E0.13692
G1 X168.382 Y88.719 E0.12713
G1 X169.639 Y92.573 E0.12712
G1 X170.610 Y96.828 E0.13685
G1 X171.150 Y100.847 E0.12714
G1 X171.336 Y104.915 E0.12767
G1 X171.140 Y109.257 E0.13629
G1 X170.588 Y113.291 E0.12765
G1 X169.689 Y117.245 E0.12716
G1 X168.345 Y121.379 E0.13627
G1 X166.740 Y125.121 E0.12767
G1 X164.812 Y128.708 E0.12769
G1 X162.143 Y132.735 E0.15148
G1 X161.258 Y133.571 E0.03815
G1 X160.209 Y134.120 E0.03713
G1 X159.164 Y134.336 E0.03346
G1 X152.556 Y134.336 E0.20717
G1 F8640.000
G1 X155.848 Y134.336 E-0.76000
G1 E-0.04000 F2100.00000
G1 Z0.800 F10800.000
G1 X151.119 Y134.336
G1 Z0.200
G1 E0.80000 F2100.00000
G1 F1200.000
G1 X148.079 Y134.336 E0.09532
G1 X146.252 Y135.659 E0.07073
G1 F8640.000
G1 X148.079 Y134.336 E-0.52085
G1 X149.115 Y134.336 E-0.23915
G1 E-0.04000 F2100.00000
G1 Z0.800 F10800.000
G1 X145.351 Y136.295
G1 Z0.200
G1 E0.80000 F2100.00000
G1 F1200.000
G1 X142.613 Y137.921 E0.09985
G1 X139.593 Y139.366 E0.10497
G1 X136.504 Y140.520 E0.10337
G1 X133.308 Y141.400 E0.10394
G1 X130.065 Y141.991 E0.10337
G1 X126.782 Y142.294 E0.10338
G1 X123.395 Y142.302 E0.10618
G1 X120.022 Y142.003 E0.10618
G1 X116.690 Y141.400 E0.10616
G1 X113.425 Y140.497 E0.10622
G1 X110.275 Y139.309 E0.10557
G1 X107.258 Y137.852 E0.10505
G1 X104.677 Y136.304 E0.09436
G1 F8640.000
G1 X107.258 Y137.852 E-0.69492
G1 X107.512 Y137.975 E-0.06508
G1 E-0.04000 F2100.00000
G1 Z0.800 F10800.000
G1 X103.744 Y135.660
G1 Z0.200
G1 E0.80000 F2100.00000
G1 F1200.000
G1 X101.935 Y134.336 E0.07030
G1 X98.869 Y134.336 E0.09613
G1 F8640.000
G1 X101.935 Y134.336 E-0.70797
G1 X102.117 Y134.469 E-0.05203
G1 E-0.04000 F2100.00000
G1 Z0.800 F10800.000
G1 X97.430 Y134.336
G1 Z0.200
G1 E0.80000 F2100.00000
G1 F1200.000
G1 X90.735 Y134.336 E0.20992
G1 X88.986 Y133.747 E0.05785
G1 X88.413 Y133.298 E0.02283
G1 X87.687 Y132.518 E0.03341
G1 X87.431 Y132.101 E0.01533
G1 X85.170 Y128.678 E0.12863
G1 X83.252 Y125.104 E0.12717
G1 X81.655 Y121.379 E0.12709
G1 X80.362 Y117.429 E0.13031
G1 X79.427 Y113.377 E0.13040
G1 X78.841 Y109.050 E0.13690
G1 X78.664 Y104.947 E0.12876
G1 X78.850 Y100.846 E0.12873
G1 X79.399 Y96.778 E0.12870
G1 X80.306 Y92.773 E0.12877
G1 X81.655 Y88.621 E0.13686
G1 X83.260 Y84.879 E0.12768
G1 X85.188 Y81.291 E0.12770
G1 X87.894 Y77.222 E0.15322
G1 X88.822 Y76.374 E0.03941
G1 X89.953 Y75.825 E0.03944
G1 X90.855 Y75.664 E0.02873
G1 X97.436 Y75.664 E0.20633
G1 X97.486 Y76.041 F10800.000
G1 F1200.000
G1 X102.058 Y76.041 E0.14335
G1 X104.587 Y74.189 E0.09828
G1 X104.822 Y74.048 E0.00860
G1 F8640.000
G1 X104.587 Y74.189 E-0.06335
G1 X102.153 Y75.971 E-0.69665
G1 E-0.04000 F2100.00000
G1 Z0.800 F10800.000
G1 X106.013 Y73.334
G1 Z0.200
G1 E0.80000 F2100.00000
G1 F1200.000
G1 X107.430 Y72.484 E0.05181
G1 X110.416 Y71.040 E0.10399
G1 X113.534 Y69.864 E0.10449
G1 X116.748 Y68.973 E0.10458
G1 X120.028 Y68.377 E0.10453
G1 X123.349 Y68.077 E0.10454
G1 X126.668 Y68.078 E0.10406
G1 X129.970 Y68.377 E0.10395
G1 X133.214 Y68.965 E0.10339
G1 X136.379 Y69.836 E0.10291
G1 X139.452 Y70.984 E0.10287
G1 X142.442 Y72.415 E0.10393
G1 X143.990 Y73.335 E0.05645
G1 F8640.000
G1 X142.442 Y72.415 E-0.41568
G1 X141.097 Y71.771 E-0.34432
G1 E-0.04000 F2100.00000
G1 Z0.800 F10800.000
G1 X145.202 Y74.055
G1 Z0.200
G1 E0.80000 F2100.00000
G1 F1200.000
G1 X147.957 Y76.041 E0.10648
G1 X152.508 Y76.041 E0.14269
G1 F8640.000
G1 X149.216 Y76.041 E-0.76000
G1 E-0.04000 F2100.00000
G1 Z0.800 F10800.000
G1 X153.945 Y76.041
G1 Z0.200
G1 E0.80000 F2100.00000
G1 F1200.000
G1 X159.145 Y76.041 E0.16304
G1 X160.058 Y76.227 E0.02920
G1 X161.059 Y76.751 E0.03544
G1 X161.866 Y77.522 E0.03500
G1 X164.404 Y81.345 E0.14387
G1 X166.449 Y85.144 E0.13530
G1 X168.026 Y88.844 E0.12608
G1 X169.277 Y92.682 E0.12659
G1 X170.237 Y96.887 E0.13524
G1 X170.775 Y100.889 E0.12661
G1 X170.959 Y104.923 E0.12662
G1 X170.766 Y109.215 E0.13469
G1 X170.219 Y113.215 E0.12660
G1 X169.323 Y117.153 E0.12663
G1 X167.995 Y121.238 E0.13467
G1 X166.404 Y124.950 E0.12663
G1 X164.484 Y128.522 E0.12716
G1 X161.866 Y132.478 E0.14871
G1 X161.059 Y133.249 E0.03501
G1 X160.058 Y133.773 E0.03544
G1 X159.145 Y133.959 E0.02920
G1 X153.944 Y133.959 E0.16309
G1 F8640.000
G1 X157.235 Y133.959 E-0.76000
G1 E-0.04000 F2100.00000
G1 Z0.800 F10800.000
G1 X152.506 Y133.959
G1 Z0.200
G1 E0.80000 F2100.00000
G1 F1200.000
G1 X147.957 Y133.959 E0.14265
G1 X145.202 Y135.945 E0.10645
G1 F8640.000
G1 X147.873 Y134.020 E-0.76000
M73 Q2 S50
G1 E-0.04000 F2100.00000
G1 Z0.800 F10800.000
G1 X143.991 Y136.665
G1 Z0.200
G1 E0.80000 F2100.00000
M73 P2 R50
G1 F1200.000
G1 X142.442 Y137.585 E0.05647
G1 X139.438 Y139.022 E0.10444
G1 X136.380 Y140.164 E0.10232
G1 X133.233 Y141.031 E0.10237
G1 X130.006 Y141.618 E0.10284
G1 X126.756 Y141.918 E0.10233
G1 X123.403 Y141.925 E0.10512
G1 X120.064 Y141.628 E0.10511
G1 X116.766 Y141.031 E0.10509
G1 X113.534 Y140.136 E0.10515
G1 X110.416 Y138.960 E0.10450
G1 X107.430 Y137.516 E0.10399
G1 X106.016 Y136.668 E0.05170
G1 F8640.000
G1 X107.430 Y137.516 E-0.38070
G1 X108.909 Y138.231 E-0.37930
G1 E-0.04000 F2100.00000
G1 Z0.800 F10800.000
G1 X104.826 Y135.954
G1 Z0.200
G1 E0.80000 F2100.00000
G1 F1200.000
G1 X104.587 Y135.811 E0.00873
G1 X102.058 Y133.959 E0.09828
G1 X97.480 Y133.959 E0.14354
G1 F8640.000
G1 X100.771 Y133.959 E-0.76000
G1 E-0.04000 F2100.00000
G1 Z0.800 F10800.000
G1 X96.041 Y133.959
G1 Z0.200
G1 E0.80000 F2100.00000
G1 F1200.000
G1 X90.765 Y133.959 E0.16542
G1 X89.193 Y133.430 E0.05203
G1 X88.679 Y133.029 E0.02042
G1 X87.977 Y132.276 E0.03230
G1 X87.751 Y131.901 E0.01374
G1 X85.498 Y128.492 E0.12809
G1 X83.596 Y124.948 E0.12612
G1 X82.005 Y121.238 E0.12657
G1 X80.723 Y117.320 E0.12925
G1 X79.797 Y113.300 E0.12934
G1 X79.217 Y109.025 E0.13528
G1 X79.041 Y104.956 E0.12770
G1 X79.227 Y100.872 E0.12820
G1 X79.772 Y96.837 E0.12765
G1 X80.672 Y92.864 E0.12771
G1 X82.005 Y88.762 E0.13524
G1 X83.596 Y85.050 E0.12663
G1 X85.516 Y81.478 E0.12717
G1 X88.167 Y77.483 E0.15031
G1 X89.012 Y76.701 E0.03610
G1 X90.094 Y76.176 E0.03771
G1 X90.871 Y76.041 E0.02474
G1 X96.048 Y76.041 E0.16230
G1 X96.098 Y76.418 F10800.000
G1 F1200.000
G1 X102.181 Y76.418 E0.19074
G1 X104.788 Y74.508 E0.10133
G1 X106.161 Y73.684 E0.05018
G1 F8640.000
G1 X104.788 Y74.508 E-0.36952
G1 X103.424 Y75.507 E-0.39048
G1 E-0.04000 F2100.00000
G1 Z0.800 F10800.000
G1 X107.350 Y72.971
G1 Z0.200
G1 E0.80000 F2100.00000
G1 F1200.000
G1 X107.602 Y72.820 E0.00920
G1 X110.557 Y71.390 E0.10293
G1 X113.643 Y70.225 E0.10343
G1 X116.824 Y69.343 E0.10351
G1 X120.071 Y68.752 E0.10346
G1 X123.357 Y68.455 E0.10348
G1 X126.659 Y68.455 E0.10352
G1 X129.911 Y68.749 E0.10237
G1 X133.122 Y69.331 E0.10234
G1 X136.255 Y70.192 E0.10186
G1 X139.297 Y71.328 E0.10182
G1 X142.257 Y72.744 E0.10287
G1 X142.630 Y72.965 E0.01359
G1 F8640.000
G1 X142.257 Y72.744 E-0.10009
G1 X139.679 Y71.510 E-0.65991
G1 E-0.04000 F2100.00000
G1 Z0.800 F10800.000
G1 X143.841 Y73.685
G1 Z0.200
G1 E0.80000 F2100.00000
G1 F1200.000
G1 X145.080 Y74.421 E0.04516
G1 X147.834 Y76.418 E0.10667
G1 X153.895 Y76.418 E0.19003
G1 F8640.000
G1 X150.604 Y76.418 E-0.76000
G1 E-0.04000 F2100.00000
G1 Z0.800 F10800.000
G1 X155.333 Y76.418
G1 Z0.200
G1 E0.80000 F2100.00000
G1 F1200.000
G1 X159.127 Y76.418 E0.11897
G1 X159.909 Y76.574 E0.02502
G1 X160.819 Y77.042 E0.03207
G1 X161.590 Y77.780 E0.03347
G1 X164.085 Y81.546 E0.14163
G1 X166.106 Y85.300 E0.13369
G1 X167.676 Y88.984 E0.12555
G1 X168.916 Y92.791 E0.12554
G1 X169.865 Y96.946 E0.13363
G1 X170.399 Y100.915 E0.12556
G1 X170.582 Y104.932 E0.12609
G1 X170.391 Y109.172 E0.13308
G1 X169.846 Y113.156 E0.12607
G1 X168.957 Y117.061 E0.12559
G1 X167.645 Y121.097 E0.13306
