; generated by PrusaSlicer 2.2.0+win64 on 2020-09-20 at 23:44:40 UTC

; 

; external perimeters extrusion width = 0.45mm
; perimeters extrusion width = 0.45mm
; infill extrusion width = 0.45mm
; solid infill extrusion width = 0.45mm
; top infill extrusion width = 0.40mm
; first layer extrusion width = 0.42mm

M73 P0 R119
M73 Q0 S120
M201 X1000 Y1000 Z200 E5000 ; sets maximum accelerations, mm/sec^2
M203 X200 Y200 Z12 E120 ; sets maximum feedrates, mm/sec
M204 P1250 R1250 T1250 ; sets acceleration (P, T) and retract acceleration (R), mm/sec^2
M205 X8.00 Y8.00 Z0.40 E4.50 ; sets the jerk limits, mm/sec
M205 S0 T0 ; sets the minimum extruding and travel feed rate, mm/sec
M107
M862.3 P "MK3S" ; printer model check
M862.1 P0.4 ; nozzle diameter check
M115 U3.9.0 ; tell printer latest fw version
G90 ; use absolute coordinates
M83 ; extruder relative mode
M104 S215 ; set extruder temp
M140 S60 ; set bed temp
M190 S60 ; wait for bed temp
M109 S215 ; wait for extruder temp
G28 W ; home all without mesh bed level
G80 ; mesh bed leveling
G1 Y-3.0 F1000.0 ; go outside print area
G92 E0.0
G1 X60.0 E9.0 F1000.0 ; intro line
M73 Q0 S120
M73 P0 R119
G1 X100.0 E12.5 F1000.0 ; intro line
G92 E0.0
M221 S95

; Don't change E values below. Excessive value can damage the printer.

M907 E538 ; set extruder motor current
G21 ; set units to millimeters
G90 ; use absolute coordinates
M83 ; use relative distances for extrusion
M900 K0.06 ; Filament gcode LA 1.5
M900 K30 ; Filament gcode LA 1.0
;BEFORE_LAYER_CHANGE
G92 E0.0
;0.2


G1 E-0.80000 F2100.00000
G1 Z0.600 F10800.000
;AFTER_LAYER_CHANGE
;0.2
G1 X94.678 Y81.247
G1 Z0.200
G1 E0.80000 F2100.00000
M204 S1000
G1 F1200.000
G1 X95.452 Y80.392 E0.03616
G1 X96.552 Y79.535 E0.04371
G1 X97.858 Y78.875 E0.04590
G1 X99.266 Y78.486 E0.04578
G1 X100.677 Y78.383 E0.04436
G1 X102.030 Y78.540 E0.04270
G1 X148.747 Y88.395 E1.49700
G1 X149.772 Y88.718 E0.03370
G1 X150.950 Y89.314 E0.04141
G1 X151.815 Y89.944 E0.03354
G1 X152.568 Y90.681 E0.03306
G1 X153.353 Y91.746 E0.04146
G1 X153.847 Y92.713 E0.03407
G1 X154.257 Y94.018 E0.04290
G1 X154.410 Y95.132 E0.03525
G1 X154.421 Y132.706 E1.17809
G1 X154.256 Y134.225 E0.04790
G1 X154.017 Y135.084 E0.02796
G1 X153.666 Y135.921 E0.02846
G1 X152.852 Y137.218 E0.04801
G1 X151.825 Y138.286 E0.04646
G1 X151.041 Y138.868 E0.03061
G1 X150.235 Y139.317 E0.02894
G1 X148.739 Y139.845 E0.04973
G1 X101.720 Y149.958 E1.50797
G1 X100.751 Y150.053 E0.03051
G1 X99.779 Y150.020 E0.03052
G1 X98.812 Y149.858 E0.03075
G1 X97.938 Y149.592 E0.02865
G1 X96.476 Y148.853 E0.05136
G1 X95.729 Y148.295 E0.02922
G1 X94.997 Y147.576 E0.03218
G1 X94.211 Y146.510 E0.04153
G1 X93.712 Y145.534 E0.03435
G1 X93.299 Y144.207 E0.04359
G1 X93.150 Y143.067 E0.03604
G1 X93.158 Y85.225 E1.81360
G1 X93.400 Y83.811 E0.04499
G1 X93.904 Y82.485 E0.04448
G1 X94.646 Y81.298 E0.04390
G1 F8640.000
G1 X95.452 Y80.392 E-0.27992
G1 X96.552 Y79.535 E-0.32189
G1 X97.163 Y79.226 E-0.15819
G1 E-0.04000 F2100.00000
G1 Z0.800 F10800.000
G1 X91.788 Y81.492
G1 Z0.200
G1 E0.80000 F2100.00000
G1 F1200.000
G1 X92.579 Y80.155 E0.04870
G1 X93.221 Y79.343 E0.03246
G1 X93.912 Y78.634 E0.03107
G1 X94.675 Y77.996 E0.03117
G1 X95.492 Y77.444 E0.03092
G1 X96.426 Y76.946 E0.03319
G1 X97.449 Y76.541 E0.03450
G1 X98.439 Y76.269 E0.03219
G1 X99.439 Y76.104 E0.03177
G1 X100.373 Y76.046 E0.02935
G1 X101.313 Y76.077 E0.02948
G1 X102.457 Y76.243 E0.03625
G1 X149.260 Y86.115 E1.49977
G1 X150.113 Y86.357 E0.02779
G1 X150.946 Y86.678 E0.02800
G1 X151.823 Y87.115 E0.03072
G1 X152.455 Y87.506 E0.02331
G1 X153.218 Y88.073 E0.02980
G1 X153.815 Y88.606 E0.02509
G1 X154.372 Y89.195 E0.02542
G1 X154.928 Y89.897 E0.02808
G1 X155.413 Y90.638 E0.02778
G1 X155.803 Y91.371 E0.02605
G1 X156.164 Y92.225 E0.02907
G1 X156.445 Y93.120 E0.02938
G1 X156.639 Y94.053 E0.02991
G1 X156.744 Y95.031 E0.03083
G1 X156.757 Y132.721 E1.18174
G1 X156.732 Y133.411 E0.02167
G1 X156.648 Y134.131 E0.02271
G1 X156.390 Y135.321 E0.03819
G1 X155.986 Y136.466 E0.03807
G1 X155.623 Y137.224 E0.02635
G1 X155.007 Y138.232 E0.03704
G1 X154.374 Y139.041 E0.03220
G1 X153.623 Y139.813 E0.03377
G1 X152.737 Y140.538 E0.03590
G1 X151.725 Y141.178 E0.03754
G1 X150.990 Y141.541 E0.02570
G1 X150.132 Y141.874 E0.02885
G1 X149.263 Y142.123 E0.02833
G1 X102.115 Y152.260 E1.51210
G1 X100.903 Y152.385 E0.03821
G1 X99.706 Y152.360 E0.03753
G1 X98.454 Y152.171 E0.03970
G1 X97.431 Y151.890 E0.03325
G1 X96.415 Y151.487 E0.03429
G1 X95.844 Y151.197 E0.02007
G1 X95.277 Y150.861 E0.02067
G1 X94.171 Y150.036 E0.04325
G1 X93.197 Y149.069 E0.04303
G1 X92.509 Y148.181 E0.03521
G1 X91.929 Y147.222 E0.03516
G1 X91.412 Y146.063 E0.03979
G1 X91.124 Y145.159 E0.02976
G1 X90.925 Y144.212 E0.03033
G1 X90.833 Y143.457 E0.02384
G1 X90.806 Y142.802 E0.02056
G1 X90.825 Y85.075 E1.81001
G1 X90.903 Y84.360 E0.02255
G1 X91.054 Y83.568 E0.02528
G1 X91.361 Y82.510 E0.03454
G1 X91.764 Y81.547 E0.03272
G1 X92.111 Y81.692 F10800.000
G1 F1200.000
G1 X92.897 Y80.358 E0.04853
G1 X93.497 Y79.600 E0.03035
G1 X94.175 Y78.904 E0.03046
G1 X94.909 Y78.291 E0.02996
G1 X95.678 Y77.772 E0.02910
G1 X96.594 Y77.284 E0.03255
G1 X97.559 Y76.902 E0.03254
G1 X98.511 Y76.639 E0.03094
G1 X99.491 Y76.477 E0.03114
G1 X100.387 Y76.423 E0.02815
G1 X101.290 Y76.453 E0.02832
G1 X102.385 Y76.613 E0.03470
G1 X149.164 Y86.480 E1.49899
G1 X149.986 Y86.713 E0.02679
G1 X150.803 Y87.026 E0.02744
G1 X151.632 Y87.440 E0.02907
G1 X152.237 Y87.814 E0.02229
G1 X152.974 Y88.360 E0.02875
G1 X153.547 Y88.871 E0.02407
G1 X154.082 Y89.435 E0.02439
G1 X154.627 Y90.124 E0.02754
G1 X155.093 Y90.837 E0.02670
G1 X155.459 Y91.526 E0.02447
G1 X155.814 Y92.364 E0.02852
G1 X156.082 Y93.223 E0.02823
G1 X156.268 Y94.121 E0.02875
G1 X156.368 Y95.061 E0.02964
G1 X156.380 Y132.711 E1.18049
G1 X156.356 Y133.375 E0.02085
G1 X156.274 Y134.078 E0.02218
G1 X156.024 Y135.229 E0.03694
G1 X155.634 Y136.331 E0.03663
G1 X155.287 Y137.052 E0.02509
G1 X154.691 Y138.026 E0.03581
G1 X154.084 Y138.800 E0.03085
G1 X153.376 Y139.528 E0.03183
G1 X152.507 Y140.239 E0.03520
G1 X151.532 Y140.854 E0.03614
G1 X150.831 Y141.199 E0.02450
G1 X150.004 Y141.520 E0.02780
G1 X149.178 Y141.755 E0.02694
G1 X102.065 Y151.886 E1.51095
G1 X100.899 Y152.008 E0.03678
G1 X99.726 Y151.983 E0.03677
G1 X98.521 Y151.800 E0.03821
G1 X97.560 Y151.536 E0.03125
G1 X96.577 Y151.146 E0.03316
G1 X96.031 Y150.869 E0.01921
G1 X95.478 Y150.541 E0.02016
G1 X94.427 Y149.759 E0.04108
G1 X93.487 Y148.828 E0.04147
G1 X92.826 Y147.977 E0.03379
G1 X92.257 Y147.037 E0.03443
G1 X91.761 Y145.920 E0.03834
G1 X91.487 Y145.054 E0.02847
G1 X91.296 Y144.143 E0.02919
G1 X91.209 Y143.420 E0.02284
G1 X91.183 Y142.791 E0.01973
G1 X91.203 Y85.085 E1.80932
G1 X91.277 Y84.409 E0.02135
G1 X91.419 Y83.664 E0.02378
G1 X91.713 Y82.645 E0.03325
G1 X92.088 Y81.747 E0.03049
G1 X92.436 Y81.893 F10800.000
G1 F1200.000
G1 X93.200 Y80.583 E0.04756
G1 X93.787 Y79.841 E0.02964
G1 X94.425 Y79.187 E0.02865
G1 X95.128 Y78.598 E0.02876
G1 X95.865 Y78.100 E0.02787
G1 X96.762 Y77.621 E0.03190
G1 X97.688 Y77.256 E0.03121
G1 X98.601 Y77.006 E0.02967
G1 X99.542 Y76.851 E0.02991
G1 X100.400 Y76.800 E0.02696
G1 X101.266 Y76.830 E0.02716
G1 X102.313 Y76.983 E0.03317
G1 X149.079 Y86.847 E1.49860
G1 X149.874 Y87.073 E0.02591
G1 X150.659 Y87.375 E0.02635
G1 X151.442 Y87.766 E0.02744
G1 X152.019 Y88.122 E0.02127
G1 X152.730 Y88.647 E0.02771
G1 X153.279 Y89.136 E0.02306
G1 X153.791 Y89.676 E0.02334
G1 X154.326 Y90.351 E0.02701
G1 X154.764 Y91.022 E0.02511
G1 X155.115 Y91.681 E0.02341
G1 X155.463 Y92.502 E0.02796
G1 X155.719 Y93.326 E0.02706
G1 X155.897 Y94.188 E0.02759
G1 X155.992 Y95.091 E0.02846
G1 X156.003 Y132.701 E1.17924
G1 X155.981 Y133.339 E0.02004
G1 X155.901 Y134.025 E0.02165
G1 X155.658 Y135.137 E0.03568
G1 X155.283 Y136.195 E0.03518
G1 X154.952 Y136.879 E0.02384
G1 X154.376 Y137.820 E0.03458
G1 X153.794 Y138.559 E0.02951
G1 X153.129 Y139.243 E0.02990
G1 X152.277 Y139.939 E0.03450
G1 X151.340 Y140.530 E0.03473
G1 X150.673 Y140.857 E0.02331
G1 X149.877 Y141.165 E0.02676
G1 X149.093 Y141.388 E0.02555
G1 X102.016 Y151.512 E1.50980
G1 X100.872 Y151.632 E0.03608
G1 X99.747 Y151.606 E0.03526
G1 X98.589 Y151.429 E0.03673
G1 X97.689 Y151.181 E0.02926
G1 X96.740 Y150.806 E0.03203
G1 X96.217 Y150.542 E0.01836
G1 X95.694 Y150.233 E0.01904
G1 X94.682 Y149.481 E0.03952
G1 X93.778 Y148.586 E0.03990
G1 X93.131 Y147.754 E0.03305
G1 X92.586 Y146.853 E0.03302
G1 X92.110 Y145.777 E0.03689
G1 X91.849 Y144.950 E0.02718
G1 X91.667 Y144.074 E0.02805
G1 X91.584 Y143.382 E0.02185
G1 X91.560 Y142.780 E0.01891
G1 X91.579 Y85.116 E1.80801
G1 X91.649 Y84.471 E0.02034
G1 X91.784 Y83.759 E0.02272
G1 X92.065 Y82.780 E0.03195
G1 X92.412 Y81.948 E0.02827
G1 X92.760 Y82.094 F10800.000
G1 F1200.000
G1 X92.804 Y81.988 E0.00360
G1 X93.504 Y80.806 E0.04305
G1 X94.064 Y80.097 E0.02834
G1 X94.675 Y79.470 E0.02745
G1 X95.348 Y78.905 E0.02756
G1 X96.051 Y78.428 E0.02664
G1 X96.911 Y77.968 E0.03056
G1 X97.817 Y77.611 E0.03054
G1 X98.690 Y77.372 E0.02839
G1 X99.593 Y77.225 E0.02868
G1 X100.396 Y77.177 E0.02522
G1 X101.242 Y77.206 E0.02655
G1 X102.240 Y77.353 E0.03163
G1 X148.995 Y87.215 E1.49822
G1 X149.747 Y87.428 E0.02449
G1 X150.515 Y87.724 E0.02580
G1 X151.251 Y88.091 E0.02581
G1 X151.802 Y88.430 E0.02026
G1 X152.486 Y88.935 E0.02666
G1 X153.011 Y89.402 E0.02204
G1 X153.501 Y89.917 E0.02229
G1 X154.025 Y90.579 E0.02646
G1 X154.444 Y91.221 E0.02403
G1 X154.771 Y91.835 E0.02183
G1 X155.112 Y92.640 E0.02740
G1 X155.356 Y93.429 E0.02589
G1 X155.526 Y94.254 E0.02643
G1 X155.616 Y95.120 E0.02729
G1 X155.626 Y132.691 E1.17802
G1 X155.605 Y133.304 E0.01921
G1 X155.527 Y133.972 E0.02111
G1 X155.293 Y135.045 E0.03442
G1 X154.931 Y136.058 E0.03373
G1 X154.617 Y136.706 E0.02258
G1 X154.060 Y137.613 E0.03336
G1 X153.504 Y138.318 E0.02817
G1 X152.882 Y138.958 E0.02797
G1 X152.048 Y139.640 E0.03379
G1 X151.148 Y140.205 E0.03330
G1 X150.515 Y140.515 E0.02212
G1 X149.749 Y140.810 E0.02572
G1 X149.008 Y141.021 E0.02417
G1 X101.966 Y151.138 E1.50867
M73 Q0 S119
M73 P0 R118
G1 X100.868 Y151.255 E0.03463
G1 X99.768 Y151.229 E0.03449
G1 X98.658 Y151.058 E0.03523
G1 X97.818 Y150.827 E0.02730
G1 X96.902 Y150.465 E0.03090
G1 X96.403 Y150.213 E0.01752
G1 X95.910 Y149.924 E0.01791
G1 X94.938 Y149.203 E0.03796
G1 X94.067 Y148.345 E0.03832
G1 X93.448 Y147.549 E0.03161
G1 X92.915 Y146.668 E0.03228
G1 X92.459 Y145.634 E0.03543
G1 X92.212 Y144.846 E0.02589
G1 X92.038 Y144.006 E0.02691
G1 X91.959 Y143.346 E0.02086
G1 X91.937 Y142.769 E0.01809
G1 X91.954 Y85.147 E1.80671
G1 X92.021 Y84.534 E0.01934
G1 X92.149 Y83.855 E0.02166
G1 X92.424 Y82.895 E0.03132
G1 X92.737 Y82.149 E0.02535
G1 X93.085 Y82.295 F10800.000
G1 F1200.000
G1 X93.147 Y82.145 E0.00507
G1 X93.808 Y81.030 E0.04065
G1 X94.342 Y80.353 E0.02703
G1 X94.925 Y79.752 E0.02625
G1 X95.568 Y79.211 E0.02635
G1 X96.239 Y78.756 E0.02542
G1 X97.060 Y78.315 E0.02921
G1 X97.946 Y77.965 E0.02986
G1 X98.761 Y77.743 E0.02650
G1 X99.644 Y77.599 E0.02806
G1 X100.392 Y77.554 E0.02348
G1 X101.219 Y77.583 E0.02594
G1 X102.168 Y77.723 E0.03009
G1 X148.911 Y87.583 E1.49784
G1 X149.619 Y87.783 E0.02307
G1 X150.371 Y88.072 E0.02525
G1 X151.061 Y88.417 E0.02420
G1 X151.585 Y88.738 E0.01925
G1 X152.242 Y89.223 E0.02561
G1 X152.744 Y89.668 E0.02103
G1 X153.211 Y90.158 E0.02123
G1 X153.724 Y90.806 E0.02592
G1 X154.115 Y91.406 E0.02245
G1 X154.427 Y91.990 E0.02077
G1 X154.761 Y92.778 E0.02683
G1 X154.993 Y93.531 E0.02471
G1 X155.155 Y94.321 E0.02527
G1 X155.239 Y95.130 E0.02551
G1 X155.249 Y132.688 E1.17762
G1 X155.230 Y133.268 E0.01820
G1 X155.157 Y133.902 E0.01999
G1 X154.933 Y134.930 E0.03299
G1 X154.587 Y135.903 E0.03239
G1 X154.290 Y136.517 E0.02138
G1 X153.757 Y137.388 E0.03203
G1 X153.226 Y138.063 E0.02690
G1 X152.634 Y138.673 E0.02666
G1 X151.837 Y139.327 E0.03234
G1 X150.973 Y139.871 E0.03200
G1 X150.371 Y140.166 E0.02102
G1 X149.622 Y140.455 E0.02519
G1 X148.922 Y140.653 E0.02279
G1 X101.916 Y150.765 E1.50756
G1 X100.864 Y150.877 E0.03317
G1 X99.789 Y150.853 E0.03371
G1 X98.727 Y150.687 E0.03372
G1 X97.947 Y150.472 E0.02536
G1 X97.063 Y150.124 E0.02978
G1 X96.588 Y149.885 E0.01669
G1 X96.126 Y149.614 E0.01679
G1 X95.192 Y148.925 E0.03639
G1 X94.357 Y148.103 E0.03673
G1 X93.752 Y147.327 E0.03086
G1 X93.245 Y146.484 E0.03084
G1 X92.808 Y145.492 E0.03397
G1 X92.575 Y144.743 E0.02461
G1 X92.409 Y143.938 E0.02577
G1 X92.335 Y143.309 E0.01986
G1 X92.314 Y142.759 E0.01727
G1 X92.330 Y85.177 E1.80543
G1 X92.393 Y84.595 E0.01835
G1 X92.514 Y83.950 E0.02059
G1 X92.777 Y83.030 E0.02999
G1 X93.062 Y82.350 E0.02312
G1 X93.490 Y82.304 F10800.000
G1 F1200.000
G1 X94.112 Y81.253 E0.03827
G1 X94.632 Y80.594 E0.02634
G1 X95.175 Y80.034 E0.02446
G1 X95.789 Y79.517 E0.02516
G1 X96.426 Y79.083 E0.02418
G1 X97.228 Y78.652 E0.02855
G1 X98.074 Y78.320 E0.02850
G1 X98.831 Y78.113 E0.02462
G1 X99.695 Y77.972 E0.02745
G1 X100.388 Y77.931 E0.02174
G1 X101.195 Y77.959 E0.02533
G1 X102.096 Y78.093 E0.02856
G1 X148.827 Y87.950 E1.49747
G1 X149.492 Y88.138 E0.02166
G1 X150.227 Y88.421 E0.02469
G1 X150.872 Y88.743 E0.02259
G1 X151.368 Y89.046 E0.01824
G1 X151.999 Y89.511 E0.02457
G1 X152.477 Y89.934 E0.02002
G1 X152.921 Y90.399 E0.02016
G1 X153.423 Y91.033 E0.02536
G1 X153.795 Y91.604 E0.02137
G1 X154.083 Y92.145 E0.01921
G1 X154.410 Y92.916 E0.02626
G1 X154.626 Y93.616 E0.02295
G1 X154.783 Y94.387 E0.02469
G1 X154.862 Y95.140 E0.02372
G1 X154.872 Y132.685 E1.17721
G1 X154.854 Y133.234 E0.01720
G1 X154.786 Y133.832 E0.01887
G1 X154.574 Y134.815 E0.03156
G1 X154.243 Y135.749 E0.03106
G1 X153.963 Y136.329 E0.02018
G1 X153.454 Y137.164 E0.03068
G1 X152.936 Y137.822 E0.02624
G1 X152.386 Y138.389 E0.02476
G1 X151.625 Y139.015 E0.03089
G1 X150.798 Y139.537 E0.03069
G1 X150.228 Y139.817 E0.01991
G1 X149.494 Y140.100 E0.02465
G1 X148.837 Y140.286 E0.02141
G1 X101.847 Y150.394 E1.50705
G1 X100.837 Y150.501 E0.03184
G1 X99.811 Y150.476 E0.03216
G1 X98.796 Y150.316 E0.03222
G1 X98.076 Y150.118 E0.02343
G1 X97.225 Y149.784 E0.02864
G1 X96.763 Y149.551 E0.01622
G1 X96.326 Y149.294 E0.01591
G1 X95.427 Y148.629 E0.03504
G1 X94.647 Y147.861 E0.03434
G1 X94.069 Y147.122 E0.02940
G1 X93.574 Y146.300 E0.03010
G1 X93.158 Y145.351 E0.03249
G1 X92.938 Y144.641 E0.02332
G1 X92.780 Y143.871 E0.02464
G1 X92.710 Y143.273 E0.01887
G1 X92.691 Y142.748 E0.01645
G1 X92.706 Y85.207 E1.80417
G1 X92.765 Y84.657 E0.01736
G1 X92.879 Y84.044 E0.01952
G1 X93.136 Y83.145 E0.02934
G1 X93.466 Y82.359 E0.02673
G1 X94.162 Y82.651 F10800.000
G1 F1200.000
G1 X94.719 Y81.701 E0.03456
G1 X95.212 Y81.076 E0.02494
G1 X95.675 Y80.599 E0.02086
G1 X96.260 Y80.106 E0.02396
G1 X96.801 Y79.738 E0.02053
G1 X97.545 Y79.337 E0.02651
G1 X98.330 Y79.030 E0.02643
G1 X98.972 Y78.854 E0.02087
G1 X99.798 Y78.720 E0.02622
G1 X100.379 Y78.686 E0.01827
G1 X101.147 Y78.712 E0.02409
G1 X101.951 Y78.834 E0.02548
G1 X148.660 Y88.686 E1.49675
G1 X149.237 Y88.848 E0.01882
G1 X149.939 Y89.118 E0.02356
G1 X150.493 Y89.395 E0.01942
G1 X150.934 Y89.664 E0.01619
G1 X151.537 Y90.108 E0.02350
G1 X151.954 Y90.477 E0.01745
G1 X152.341 Y90.881 E0.01754
G1 X152.821 Y91.487 E0.02424
G1 X153.145 Y91.988 E0.01871
G1 X153.396 Y92.454 E0.01659
G1 X153.707 Y93.192 E0.02512
G1 X153.890 Y93.785 E0.01944
G1 X154.041 Y94.520 E0.02354
G1 X154.108 Y95.160 E0.02015
G1 X154.118 Y132.680 E1.17641
G1 X154.103 Y133.166 E0.01525
G1 X154.045 Y133.693 E0.01664
G1 X153.854 Y134.588 E0.02869
G1 X153.554 Y135.442 E0.02839
G1 X153.309 Y135.954 E0.01779
G1 X152.847 Y136.716 E0.02795
G1 X152.355 Y137.340 E0.02491
G1 X151.889 Y137.821 E0.02099
G1 X151.201 Y138.391 E0.02801
G1 X150.445 Y138.870 E0.02807
G1 X149.940 Y139.120 E0.01767
G1 X149.239 Y139.390 E0.02355
G1 X148.667 Y139.551 E0.01864
G1 X101.708 Y149.652 E1.50604
G1 X100.784 Y149.748 E0.02915
G1 X99.857 Y149.723 E0.02906
G1 X98.936 Y149.575 E0.02924
G1 X98.332 Y149.408 E0.01966
G1 X97.548 Y149.102 E0.02638
G1 X97.124 Y148.889 E0.01489
G1 X96.725 Y148.654 E0.01452
G1 X95.936 Y148.072 E0.03073
G1 X95.225 Y147.377 E0.03118
G1 X94.691 Y146.695 E0.02715
G1 X94.234 Y145.933 E0.02786
G1 X93.858 Y145.069 E0.02954
G1 X93.673 Y144.471 E0.01963
G1 X93.522 Y143.736 E0.02353
