; generated by PrusaSlicer 2.2.0+win64 on 2020-10-15 at 16:07:48 UTC

; 

; external perimeters extrusion width = 0.45mm
; perimeters extrusion width = 0.45mm
; infill extrusion width = 0.45mm
; solid infill extrusion width = 0.45mm
; top infill extrusion width = 0.40mm
; first layer extrusion width = 0.42mm

M73 P0 R156
M73 Q0 S157
M201 X1000 Y1000 Z200 E5000 ; sets maximum accelerations, mm/sec^2
M203 X200 Y200 Z12 E120 ; sets maximum feedrates, mm/sec
M204 P1250 R1250 T1250 ; sets acceleration (P, T) and retract acceleration (R), mm/sec^2
M205 X8.00 Y8.00 Z0.40 E4.50 ; sets the jerk limits, mm/sec
M205 S0 T0 ; sets the minimum extruding and travel feed rate, mm/sec
M107
; M862.3 P "MK3S" ; printer model check
M862.1 P0.4 ; nozzle diameter check
M115 U3.9.0 ; tell printer latest fw version
G90 ; use absolute coordinates
M83 ; extruder relative mode
M104 S240 ; set extruder temp
M140 S85 ; set bed temp
M190 S85 ; wait for bed temp
M109 S240 ; wait for extruder temp
G28 W ; home all without mesh bed level
G80 ; mesh bed leveling
G1 Y-3.0 F1000.0 ; go outside print area
G92 E0.0
G1 X60.0 E9.0 F1000.0 ; intro line
M73 Q0 S157
M73 P0 R156
G1 X100.0 E12.5 F1000.0 ; intro line
G92 E0.0
M221 S95
G21 ; set units to millimeters
G90 ; use absolute coordinates
M83 ; use relative distances for extrusion
M900 K0.08 ; Filament gcode LA 1.5
M900 K45 ; Filament gcode LA 1.0
;BEFORE_LAYER_CHANGE
G92 E0.0
;0.2


G1 E-1.40000 F2100.00000
G1 Z0.200 F10800.000
;AFTER_LAYER_CHANGE
;0.2
G1 Z0.400
G1 X31.224 Y91.344
G1 Z0.200
G1 E1.40000 F2100.00000
M204 S1000
G1 F1200.000
G1 X31.812 Y91.004 E0.02130
G1 X74.960 Y73.849 E1.45588
G1 X183.093 Y63.212 E3.40681
G1 X183.967 Y63.380 E0.02790
G1 X226.668 Y80.406 E1.44135
G1 X227.121 Y80.647 E0.01609
G1 X227.702 Y81.208 E0.02532
G1 X245.377 Y105.585 E0.94411
G1 X245.568 Y106.102 E0.01728
G1 X245.635 Y106.649 E0.01728
G1 X245.811 Y183.113 E2.39747
G1 X245.749 Y183.641 E0.01668
G1 X245.570 Y184.142 E0.01669
G1 X245.285 Y184.591 E0.01668
G1 X244.906 Y184.966 E0.01669
G1 X244.339 Y185.297 E0.02060
G1 X243.707 Y185.460 E0.02048
G1 X136.517 Y197.455 E3.38184
G1 X96.225 Y197.548 E1.26333
G1 X16.045 Y197.458 E2.51399
G1 X15.517 Y197.395 E0.01668
G1 X15.019 Y197.217 E0.01657
G1 X14.570 Y196.932 E0.01669
G1 X14.196 Y196.554 E0.01668
G1 X13.823 Y195.880 E0.02414
G1 X13.685 Y195.123 E0.02414
G1 X12.877 Y116.878 E2.45343
G1 X13.028 Y116.348 E0.01728
G1 X13.294 Y115.870 E0.01716
G1 X30.779 Y91.806 E0.93264
G1 X31.183 Y91.388 E0.01824
G1 E-1.40000 F2100.00000
G1 Z0.400 F10800.000
G1 X36.535 Y88.923
G1 Z0.200
G1 E1.40000 F2100.00000
G1 F1200.000
G1 X32.505 Y88.468 E0.12716
G1 X31.265 Y88.655 E0.03932
G1 X30.570 Y88.939 E0.02354
G1 X29.915 Y89.336 E0.02401
G1 X28.500 Y90.971 E0.06780
G1 X28.076 Y92.027 E0.03568
G1 X27.933 Y92.982 E0.03028
G1 X28.011 Y93.930 E0.02982
G1 X28.292 Y94.909 E0.03192
G1 X28.424 Y95.368 F10800.000
G1 F1200.000
G1 X28.594 Y96.020 E0.02113
G1 X28.759 Y97.167 E0.03633
G1 X28.784 Y98.326 E0.03635
G1 X28.736 Y98.934 E0.01913
G1 X28.670 Y99.468 E0.01686
G1 X28.549 Y100.072 E0.01932
G1 X28.418 Y100.593 E0.01686
G1 X28.226 Y101.179 E0.01932
G1 X28.032 Y101.680 E0.01686
G1 X27.771 Y102.239 E0.01932
G1 X27.528 Y102.691 E0.01610
G1 X27.100 Y103.366 E0.02507
G1 X24.412 Y106.355 E0.12605
G1 X23.248 Y107.352 E0.04805
G1 X21.470 Y108.819 E0.07226
G1 X20.195 Y109.664 E0.04795
G1 X18.219 Y110.850 E0.07227
G1 X16.850 Y111.532 E0.04795
G1 X16.606 Y111.633 E0.00831
G1 X15.939 Y111.909 F10800.000
G1 F1200.000
G1 X14.678 Y112.431 E0.04281
G1 X12.791 Y113.150 E0.06329
G1 X11.842 Y113.805 E0.03615
G1 X11.502 Y114.173 E0.01572
G1 X10.730 Y115.453 E0.04688
G1 X10.538 Y116.142 E0.02242
G1 X10.453 Y117.310 E0.03673
G1 X10.751 Y118.896 E0.05060
G1 X11.010 Y119.588 E0.02317
G1 X11.634 Y120.504 E0.03473
G1 X12.490 Y121.264 E0.03591
G1 X12.610 Y121.335 E0.00437
G1 X12.735 Y121.379 E0.00415
G1 X13.114 Y121.513 F10800.000
G1 F1200.000
G1 X14.407 Y121.970 E0.04300
G1 X56.340 Y121.995 E1.31479
G1 X57.056 Y121.782 E0.02341
G1 X58.066 Y121.255 E0.03573
G1 X58.847 Y120.585 E0.03227
G1 X59.469 Y119.768 E0.03221
G1 X59.921 Y118.715 E0.03591
G1 X60.208 Y117.238 E0.04720
G1 X60.433 Y116.509 E0.02392
G1 X60.742 Y115.810 E0.02395
G1 X61.142 Y115.131 E0.02472
G1 X61.318 Y114.884 E0.00948
G1 X61.810 Y114.302 E0.02392
G1 X62.379 Y113.771 E0.02440
G1 X62.985 Y113.324 E0.02358
G1 X63.634 Y112.953 E0.02345
G1 X64.328 Y112.658 E0.02364
G1 X65.053 Y112.444 E0.02372
G1 X65.802 Y112.315 E0.02381
G1 X66.136 Y112.297 E0.01049
G1 X67.650 Y117.943 E0.18327
G1 X68.424 Y119.196 E0.04619
G1 X66.964 Y120.840 E0.06894
G1 X66.111 Y121.615 E0.03615
G1 X65.256 Y122.348 E0.03530
G1 X64.307 Y123.031 E0.03664
G1 X63.369 Y123.653 E0.03530
G1 X62.350 Y124.225 E0.03664
G1 X61.342 Y124.727 E0.03530
G1 X60.265 Y125.180 E0.03664
G1 X59.218 Y125.549 E0.03480
G1 X57.926 Y125.919 E0.04213
G1 X56.881 Y126.148 E0.03354
G1 X54.610 Y126.475 E0.07195
G1 X52.301 Y126.870 E0.07344
G1 X50.159 Y127.262 E0.06828
G1 X47.049 Y127.550 E0.09793
G1 X44.381 Y127.753 E0.08389
G1 X41.697 Y127.704 E0.08419
G1 X38.560 Y127.607 E0.09840
G1 X33.487 Y127.011 E0.16015
G1 X32.116 Y127.187 E0.04336
G1 X30.834 Y127.793 E0.04447
G1 X30.178 Y128.370 E0.02738
G1 X29.301 Y129.499 E0.04480
G1 X28.916 Y130.395 E0.03060
G1 X28.734 Y131.350 E0.03047
G1 X28.813 Y132.540 E0.03740
G1 X29.259 Y134.065 E0.04981
G1 X29.383 Y134.559 E0.01598
G1 X29.550 Y135.720 E0.03676
G1 X29.575 Y136.871 E0.03612
G1 X29.528 Y137.479 E0.01913
G1 X29.462 Y138.013 E0.01686
G1 X29.341 Y138.617 E0.01932
G1 X29.209 Y139.138 E0.01686
G1 X29.017 Y139.724 E0.01932
G1 X28.823 Y140.225 E0.01686
G1 X28.563 Y140.784 E0.01932
G1 X28.320 Y141.236 E0.01610
G1 X27.892 Y141.911 E0.02507
G1 X25.203 Y144.900 E0.12605
G1 X24.039 Y145.897 E0.04805
G1 X22.262 Y147.364 E0.07226
G1 X20.987 Y148.209 E0.04795
G1 X19.011 Y149.396 E0.07227
G1 X17.642 Y150.077 E0.04795
G1 X15.460 Y150.980 E0.07403
G1 X13.617 Y151.683 E0.06185
G1 X13.427 Y151.807 E0.00713
G1 X13.052 Y152.052 F10800.000
G1 F1200.000
G1 X12.761 Y152.242 E0.01089
G1 X12.092 Y152.967 E0.03094
G1 X11.608 Y153.796 E0.03013
G1 X11.251 Y155.119 E0.04295
G1 X11.254 Y155.859 E0.02321
G1 X11.508 Y157.348 E0.04736
G1 X11.958 Y158.417 E0.03635
G1 X12.381 Y158.985 E0.02221
G1 X13.130 Y159.631 E0.03103
G1 X13.511 Y159.947 F10800.000
G1 F1200.000
G1 X14.074 Y160.215 E0.01955
G1 X15.239 Y160.515 E0.03773
G1 X57.026 Y160.555 E1.31020
G1 X57.848 Y160.327 E0.02673
G1 X58.857 Y159.800 E0.03570
G1 X59.639 Y159.131 E0.03227
G1 X60.261 Y158.313 E0.03221
G1 X60.712 Y157.260 E0.03591
G1 X60.999 Y155.783 E0.04720
G1 X61.225 Y155.054 E0.02392
G1 X61.535 Y154.351 E0.02408
G1 X61.931 Y153.679 E0.02446
G1 X62.109 Y153.429 E0.00962
G1 X62.602 Y152.847 E0.02392
G1 X63.170 Y152.316 E0.02440
G1 X63.782 Y151.865 E0.02380
G1 X64.419 Y151.501 E0.02303
G1 X65.119 Y151.203 E0.02385
G1 X65.868 Y150.982 E0.02450
G1 X66.569 Y150.862 E0.02227
G1 X66.927 Y150.842 E0.01127
G1 X68.445 Y156.498 E0.18359
G1 X69.120 Y157.586 E0.04015
G1 X68.554 Y158.392 E0.03088
G1 X67.011 Y160.118 E0.07258
G1 X66.158 Y160.893 E0.03616
G1 X65.302 Y161.625 E0.03530
G1 X64.354 Y162.309 E0.03664
G1 X63.416 Y162.931 E0.03530
G1 X62.397 Y163.503 E0.03664
G1 X61.389 Y164.004 E0.03530
G1 X60.312 Y164.458 E0.03664
G1 X59.265 Y164.827 E0.03480
G1 X57.973 Y165.197 E0.04213
G1 X56.928 Y165.425 E0.03354
G1 X54.657 Y165.753 E0.07195
G1 X52.348 Y166.148 E0.07344
G1 X50.206 Y166.540 E0.06828
G1 X47.096 Y166.828 E0.09793
G1 X44.428 Y167.030 E0.08389
G1 X41.744 Y166.982 E0.08419
G1 X38.607 Y166.885 E0.09840
G1 X33.534 Y166.288 E0.16015
G1 X32.162 Y166.464 E0.04336
G1 X30.880 Y167.071 E0.04448
G1 X30.223 Y167.649 E0.02744
G1 X29.371 Y168.738 E0.04334
G1 X28.977 Y169.631 E0.03061
G1 X28.786 Y170.569 E0.03002
G1 X28.868 Y171.860 E0.04056
G1 X29.307 Y173.344 E0.04854
G1 X29.433 Y173.848 E0.01628
G1 X29.532 Y174.456 E0.01932
G1 X29.597 Y174.984 E0.01668
G1 X29.622 Y176.149 E0.03653
G1 X29.575 Y176.757 E0.01913
G1 X29.509 Y177.291 E0.01686
G1 X29.388 Y177.895 E0.01932
G1 X29.256 Y178.416 E0.01686
G1 X29.064 Y179.002 E0.01932
G1 X28.870 Y179.503 E0.01686
G1 X28.610 Y180.061 E0.01932
G1 X28.367 Y180.514 E0.01610
G1 X27.939 Y181.189 E0.02507
G1 X25.250 Y184.178 E0.12605
G1 X24.086 Y185.175 E0.04805
G1 X22.309 Y186.642 E0.07226
G1 X21.034 Y187.486 E0.04795
G1 X19.058 Y188.673 E0.07227
G1 X17.689 Y189.355 E0.04795
G1 X15.507 Y190.257 E0.07403
G1 X13.830 Y190.905 E0.05636
G1 X13.455 Y191.089 F10800.000
G1 F1200.000
G1 X12.808 Y191.519 E0.02437
G1 X12.164 Y192.211 E0.02964
G1 X11.613 Y193.175 E0.03481
G1 X11.279 Y194.573 E0.04508
G1 X11.302 Y195.143 E0.01787
G1 X11.554 Y196.624 E0.04710
G1 X11.966 Y197.618 E0.03374
G1 X12.261 Y198.082 E0.01724
G1 X13.528 Y199.211 E0.05321
G1 X14.121 Y199.493 E0.02057
G1 X15.286 Y199.792 E0.03773
G1 X57.178 Y199.818 E1.31350
G1 X57.894 Y199.605 E0.02341
G1 X58.904 Y199.078 E0.03573
G1 X59.686 Y198.408 E0.03227
G1 X60.227 Y197.696 E0.02803
G1 X60.424 Y197.320 F10800.000
G1 F1200.000
G1 X60.759 Y196.538 E0.02667
G1 X61.046 Y195.060 E0.04720
G1 X61.272 Y194.331 E0.02392
G1 X61.582 Y193.629 E0.02408
G1 X61.978 Y192.957 E0.02446
G1 X62.156 Y192.707 E0.00962
G1 X62.649 Y192.125 E0.02392
G1 X63.217 Y191.594 E0.02440
G1 X63.829 Y191.143 E0.02380
G1 X64.466 Y190.779 E0.02303
G1 X65.166 Y190.481 E0.02385
G1 X65.915 Y190.260 E0.02450
G1 X66.616 Y190.139 E0.02227
G1 X66.974 Y190.120 E0.01124
G1 X68.484 Y195.754 E0.18288
G1 X69.236 Y196.972 E0.04488
G1 X69.664 Y197.330 E0.01751
G1 X70.116 Y197.708 F10800.000
G1 F1200.000
G1 X70.295 Y197.858 E0.00734
G1 X70.572 Y197.994 E0.00966
G1 X71.901 Y198.419 E0.04377
G1 X73.733 Y198.413 E0.05744
G1 X75.292 Y197.867 E0.05178
G1 X75.481 Y197.714 E0.00764
G1 X75.947 Y197.337 F10800.000
G1 F1200.000
G1 X76.228 Y197.110 E0.01131
G1 X76.499 Y197.338 E0.01109
G1 X76.950 Y197.715 F10800.000
G1 F1200.000
G1 X77.020 Y197.775 E0.00290
G1 X78.046 Y198.264 E0.03563
G1 X78.561 Y198.382 E0.01657
G1 X80.317 Y198.451 E0.05508
G1 X82.041 Y197.918 E0.05660
G1 X82.229 Y197.818 E0.00667
G1 X82.346 Y197.721 E0.00476
G1 X82.800 Y197.345 F10800.000
G1 F1200.000
G1 X83.147 Y197.057 E0.01411
G1 X83.832 Y196.073 E0.03762
G1 X85.474 Y190.117 E0.19371
G1 X86.043 Y190.165 E0.01788
G1 X86.727 Y190.305 E0.02191
G1 X87.512 Y190.563 E0.02589
G1 X87.791 Y190.682 E0.00952
G1 X88.456 Y191.035 E0.02361
G1 X89.101 Y191.480 E0.02458
G1 X89.665 Y191.976 E0.02353
G1 X90.170 Y192.536 E0.02367
G1 X90.389 Y192.843 E0.01181
G1 X90.602 Y193.144 E0.01156
G1 X90.964 Y193.805 E0.02365
G1 X91.261 Y194.535 E0.02471
G1 X91.455 Y195.241 E0.02296
G1 X91.716 Y196.600 E0.04339
G1 X92.041 Y197.355 E0.02576
G1 X92.264 Y197.732 F10800.000
G1 F1200.000
G1 X92.729 Y198.361 E0.02451
G1 X93.510 Y199.048 E0.03263
G1 X94.534 Y199.594 E0.03640
G1 X95.262 Y199.816 E0.02385
G1 X137.199 Y199.792 E1.31490
M73 Q0 S156
M73 P0 R155
G1 X138.633 Y199.371 E0.04687
G1 X139.770 Y198.552 E0.04394
G1 X140.269 Y197.961 E0.02422
G1 X140.665 Y197.181 E0.02745
G1 X140.864 Y196.779 F10800.000
G1 F1200.000
G1 X141.168 Y194.913 E0.05930
G1 X141.104 Y194.028 E0.02782
G1 X140.739 Y192.937 E0.03605
G1 X139.929 Y191.767 E0.04462
G1 X139.555 Y191.430 E0.01579
G1 X138.784 Y190.937 E0.02869
G1 X137.760 Y190.568 E0.03413
G1 X134.058 Y189.022 E0.12578
G1 X132.473 Y188.103 E0.05745
G1 X132.548 Y187.824 E0.00907
G1 X164.216 Y187.836 E0.99293
G1 X164.931 Y187.623 E0.02341
G1 X165.942 Y187.096 E0.03573
G1 X166.723 Y186.426 E0.03227
G1 X167.345 Y185.608 E0.03221
G1 X167.797 Y184.556 E0.03591
G1 X168.084 Y183.078 E0.04720
G1 X168.309 Y182.349 E0.02392
G1 X168.618 Y181.650 E0.02395
G1 X169.018 Y180.971 E0.02472
G1 X169.193 Y180.725 E0.00948
G1 X169.686 Y180.143 E0.02392
G1 X170.255 Y179.611 E0.02440
G1 X170.861 Y179.165 E0.02361
G1 X171.509 Y178.794 E0.02340
G1 X172.203 Y178.498 E0.02367
G1 X172.933 Y178.283 E0.02386
G1 X174.016 Y178.114 E0.03437
G1 X175.665 Y184.090 E0.19438
G1 X176.350 Y185.075 E0.03762
G1 X177.267 Y185.836 E0.03737
G1 X177.455 Y185.936 E0.00667
G1 X179.180 Y186.469 E0.05660
G1 X180.935 Y186.399 E0.05508
G1 X181.450 Y186.281 E0.01657
G1 X182.476 Y185.793 E0.03563
G1 X183.268 Y185.128 E0.03242
G1 X184.205 Y185.884 E0.03774
G1 X185.763 Y186.431 E0.05178
G1 X187.595 Y186.437 E0.05744
G1 X188.925 Y186.011 E0.04377
G1 X189.201 Y185.875 E0.00967
G1 X190.263 Y184.987 E0.04339
G1 X190.992 Y183.821 E0.04313
G1 X192.518 Y178.135 E0.18457
G1 X193.080 Y178.183 E0.01769
G1 X193.765 Y178.323 E0.02191
G1 X194.549 Y178.580 E0.02589
G1 X194.828 Y178.700 E0.00952
G1 X195.493 Y179.053 E0.02361
G1 X196.138 Y179.498 E0.02458
G1 X196.702 Y179.993 E0.02353
G1 X197.208 Y180.554 E0.02367
G1 X197.426 Y180.861 E0.01181
G1 X197.639 Y181.162 E0.01156
G1 X198.002 Y181.823 E0.02365
G1 X198.298 Y182.553 E0.02471
G1 X198.492 Y183.259 E0.02296
G1 X198.754 Y184.618 E0.04339
G1 X199.156 Y185.554 E0.03195
G1 X199.766 Y186.379 E0.03216
G1 X200.547 Y187.066 E0.03263
G1 X201.572 Y187.612 E0.03640
G1 X202.300 Y187.833 E0.02385
G1 X220.899 Y187.823 E0.58316
G1 E-1.40000 F2100.00000
G1 Z0.400 F10800.000
G1 X224.306 Y187.821
G1 Z0.200
G1 E1.40000 F2100.00000
G1 F1200.000
G1 X244.262 Y187.810 E0.62568
G1 X245.997 Y187.204 E0.05763
G1 X246.211 Y187.077 E0.00780
G1 X247.058 Y186.312 E0.03579
G1 X247.678 Y185.379 E0.03514
G1 X247.931 Y184.675 E0.02344
G1 X248.207 Y183.062 E0.05130
G1 X248.099 Y181.882 E0.03716
G1 X247.893 Y181.200 E0.02233
G1 X247.135 Y179.978 E0.04509
G1 X246.727 Y179.557 E0.01839
G1 X245.991 Y179.066 E0.02776
G1 X245.613 Y178.883 F10800.000
G1 F1200.000
G1 X244.798 Y178.586 E0.02721
G1 X241.095 Y177.040 E0.12580
G1 X239.763 Y176.271 E0.04823
G1 X237.788 Y175.084 E0.07226
G1 X236.567 Y174.162 E0.04795
G1 X234.789 Y172.696 E0.07227
G1 X233.691 Y171.631 E0.04795
G1 X232.118 Y169.881 E0.07379
G1 X231.588 Y169.250 E0.02583
G1 X231.010 Y168.317 E0.03441
G1 X230.525 Y167.271 E0.03617
G1 X230.170 Y166.173 E0.03617
G1 X229.950 Y165.040 E0.03617
G1 X229.869 Y163.889 E0.03617
G1 X229.928 Y162.737 E0.03617
G1 X230.128 Y161.584 E0.03669
G1 X230.635 Y159.837 E0.05704
G1 X230.720 Y158.714 E0.03531
G1 X230.540 Y157.717 E0.03178
G1 X230.137 Y156.775 E0.03213
G1 X229.279 Y155.674 E0.04375
G1 X228.620 Y155.092 E0.02759
G1 X227.397 Y154.501 E0.04259
G1 X226.020 Y154.307 E0.04358
G1 X222.427 Y154.712 E0.11340
G1 X219.294 Y155.002 E0.09863
G1 X216.649 Y155.050 E0.08296
G1 X213.500 Y154.953 E0.09879
G1 X210.869 Y154.754 E0.08274
G1 X207.097 Y154.157 E0.11971
G1 X204.820 Y153.767 E0.07243
G1 X201.834 Y153.294 E0.09479
G1 X200.833 Y153.009 E0.03264
G1 X199.330 Y152.534 E0.04943
G1 X198.362 Y152.124 E0.03296
G1 X196.942 Y151.438 E0.04943
G1 X196.032 Y150.912 E0.03297
G1 X194.726 Y150.028 E0.04943
G1 X193.887 Y149.395 E0.03296
G1 X192.722 Y148.332 E0.04943
G1 X191.974 Y147.606 E0.03270
G1 X190.551 Y145.857 E0.07068
G1 X190.850 Y145.333 E0.01892
G1 X192.315 Y139.791 E0.17974
G1 X192.865 Y139.838 E0.01731
G1 X193.571 Y139.982 E0.02259
G1 X194.345 Y140.236 E0.02555
G1 X194.624 Y140.356 E0.00952
G1 X195.289 Y140.708 E0.02361
G1 X195.934 Y141.154 E0.02458
G1 X196.498 Y141.649 E0.02353
G1 X197.002 Y142.209 E0.02362
G1 X197.436 Y142.818 E0.02346
G1 X197.798 Y143.478 E0.02360
G1 X198.094 Y144.209 E0.02471
G1 X198.288 Y144.915 E0.02296
G1 X198.550 Y146.274 E0.04339
G1 X198.952 Y147.210 E0.03195
G1 X199.562 Y148.034 E0.03214
G1 X200.379 Y148.746 E0.03398
G1 X201.376 Y149.273 E0.03537
G1 X202.274 Y149.514 E0.02914
G1 X244.054 Y149.466 E1.30998
G1 X245.544 Y148.976 E0.04919
G1 X245.921 Y148.774 F10800.000
G1 F1200.000
G1 X246.048 Y148.698 E0.00464
G1 X246.962 Y147.841 E0.03927
G1 X247.428 Y147.125 E0.02679
G1 X247.675 Y146.523 E0.02042
G1 X248.000 Y144.774 E0.05577
G1 X247.893 Y143.526 E0.03928
G1 X247.574 Y142.616 E0.03022
G1 X247.002 Y141.725 E0.03320
G1 X246.433 Y141.138 E0.02563
G1 X245.902 Y140.795 E0.01982
G1 X245.525 Y140.579 F10800.000
G1 F1200.000
G1 X244.593 Y140.241 E0.03106
G1 X240.891 Y138.695 E0.12578
G1 X239.559 Y137.926 E0.04823
G1 X237.583 Y136.740 E0.07226
G1 X236.363 Y135.818 E0.04795
G1 X234.585 Y134.351 E0.07227
G1 X233.487 Y133.287 E0.04795
G1 X231.914 Y131.537 E0.07379
G1 X231.384 Y130.906 E0.02583
