; generated by PrusaSlicer 2.2.0+win64 on 2020-10-16 at 22:57:22 UTC

; 

; external perimeters extrusion width = 0.45mm
; perimeters extrusion width = 0.45mm
; infill extrusion width = 0.45mm
; solid infill extrusion width = 0.45mm
; top infill extrusion width = 0.40mm
; first layer extrusion width = 0.42mm

M73 P0 R115
M73 Q0 S116
M201 X1000 Y1000 Z200 E5000 ; sets maximum accelerations, mm/sec^2
M203 X200 Y200 Z12 E120 ; sets maximum feedrates, mm/sec
M204 P1250 R1250 T1250 ; sets acceleration (P, T) and retract acceleration (R), mm/sec^2
M205 X8.00 Y8.00 Z0.40 E4.50 ; sets the jerk limits, mm/sec
M205 S0 T0 ; sets the minimum extruding and travel feed rate, mm/sec
M107
M862.3 P "MK3S" ; printer model check
M862.1 P0.4 ; nozzle diameter check
M115 U3.9.1 ; tell printer latest fw version
G90 ; use absolute coordinates
M83 ; extruder relative mode
M104 S240 ; set extruder temp
M140 S85 ; set bed temp
M190 S85 ; wait for bed temp
M109 S240 ; wait for extruder temp
G28 W ; home all without mesh bed level
G80 ; mesh bed leveling
G1 Y-3.0 F1000.0 ; go outside print area
G92 E0.0
G1 X60.0 E9.0 F1000.0 ; intro line
M73 Q0 S116
M73 P0 R115
G1 X100.0 E12.5 F1000.0 ; intro line
G92 E0.0
M221 S95

; Don't change E values below. Excessive value can damage the printer.

M907 E538 ; set extruder motor current
G21 ; set units to millimeters
G90 ; use absolute coordinates
M83 ; use relative distances for extrusion
M900 K0.08 ; Filament gcode LA 1.5
M900 K45 ; Filament gcode LA 1.0
;BEFORE_LAYER_CHANGE
G92 E0.0
;0.2


G1 E-1.40000 F2100.00000
G1 Z0.200 F10800.000
;AFTER_LAYER_CHANGE
;0.2
G1 Z0.400
G1 X70.325 Y62.020
G1 Z0.200
G1 E1.40000 F2100.00000
M204 S1000
G1 F1200.000
G1 X71.734 Y60.510 E0.06474
G1 X73.506 Y59.086 E0.07129
G1 X75.175 Y58.077 E0.06116
G1 X76.952 Y57.299 E0.06080
G1 X79.111 Y56.677 E0.07045
G1 X81.263 Y56.386 E0.06808
G1 X168.641 Y56.384 E2.73969
G1 X170.877 Y56.675 E0.07069
G1 X173.037 Y57.295 E0.07045
G1 X174.827 Y58.078 E0.06128
G1 X176.490 Y59.083 E0.06092
G1 X178.240 Y60.486 E0.07033
G1 X179.771 Y62.147 E0.07081
G1 X180.892 Y63.743 E0.06116
G1 X181.789 Y65.463 E0.06081
G1 X182.557 Y67.574 E0.07045
G1 X182.992 Y69.678 E0.06737
G1 X183.130 Y71.727 E0.06439
G1 X183.128 Y143.071 E2.23693
G1 X182.964 Y144.822 E0.05514
G1 X182.610 Y146.268 E0.04669
G1 X182.044 Y147.654 E0.04693
G1 X181.109 Y149.219 E0.05716
G1 X179.976 Y150.540 E0.05456
G1 X178.723 Y151.601 E0.05146
G1 X177.156 Y152.533 E0.05716
G1 X175.785 Y153.093 E0.04645
G1 X174.335 Y153.449 E0.04681
G1 X172.572 Y153.612 E0.05550
G1 X77.500 Y153.613 E2.98093
G1 X75.673 Y153.450 E0.05752
G1 X74.215 Y153.093 E0.04705
G1 X72.837 Y152.530 E0.04669
G1 X71.267 Y151.594 E0.05728
G1 X69.944 Y150.459 E0.05468
G1 X68.882 Y149.207 E0.05147
G1 X67.952 Y147.643 E0.05704
G1 X67.390 Y146.268 E0.04657
G1 X67.036 Y144.822 E0.04669
G1 X66.872 Y143.075 E0.05502
G1 X66.870 Y71.688 E2.23829
G1 X67.012 Y69.645 E0.06419
G1 X67.403 Y67.738 E0.06104
G1 X68.144 Y65.605 E0.07081
G1 X69.198 Y63.606 E0.07084
G1 X70.291 Y62.069 E0.05913
G1 F8640.000
G1 X71.734 Y60.510 E-0.49053
G1 X73.506 Y59.086 E-0.52497
G1 X74.672 Y58.381 E-0.31450
G1 E-0.07000 F2100.00000
G1 Z0.400 F10800.000
G1 X83.442 Y54.946
G1 Z0.200
G1 E1.40000 F2100.00000
G1 F1200.000
G1 X85.766 Y55.275 E0.07361
G1 X87.897 Y55.880 E0.06943
G1 X88.630 Y56.197 E0.02504
G1 X89.500 Y56.574 F10800.000
G1 F1200.000
G1 X89.952 Y56.770 E0.01545
G1 X91.921 Y57.960 E0.07212
G1 X93.789 Y59.483 E0.07557
G1 X95.350 Y61.169 E0.07205
G1 X96.636 Y63.000 E0.07014
G1 X97.657 Y64.963 E0.06940
G1 X98.444 Y67.151 E0.07290
G1 X98.928 Y69.483 E0.07466
G1 X99.079 Y71.727 E0.07054
G1 X98.958 Y73.060 E0.04196
G1 X98.642 Y74.227 E0.03791
G1 X98.173 Y75.263 E0.03566
G1 X97.539 Y76.228 E0.03620
G1 X96.682 Y77.155 E0.03959
G1 X95.666 Y77.928 E0.04002
G1 X94.590 Y78.490 E0.03808
G1 X93.403 Y78.874 E0.03911
G1 X92.342 Y79.039 E0.03367
G1 X91.295 Y79.049 E0.03282
G1 X90.088 Y78.872 E0.03826
G1 X88.847 Y78.463 E0.04097
G1 X87.752 Y77.876 E0.03893
G1 X86.774 Y77.115 E0.03887
G1 X85.986 Y76.261 E0.03642
G1 X85.319 Y75.249 E0.03802
G1 X84.834 Y74.159 E0.03739
G1 X84.529 Y72.990 E0.03788
G1 X84.377 Y71.388 E0.05044
G1 X84.287 Y71.034 E0.01146
G1 X84.145 Y70.708 E0.01115
G1 X83.950 Y70.410 E0.01116
G1 X83.709 Y70.149 E0.01116
G1 X83.428 Y69.930 E0.01116
G1 X83.115 Y69.761 E0.01115
G1 X82.779 Y69.645 E0.01115
G1 X82.428 Y69.587 E0.01116
G1 X82.072 Y69.587 E0.01116
G1 X81.721 Y69.645 E0.01116
G1 X81.385 Y69.761 E0.01115
G1 X81.072 Y69.930 E0.01115
G1 X80.791 Y70.149 E0.01116
G1 X80.550 Y70.410 E0.01116
G1 X80.355 Y70.708 E0.01116
G1 X80.213 Y71.034 E0.01115
G1 X80.125 Y71.379 E0.01116
G1 X80.080 Y71.928 E0.01729
G1 X80.080 Y81.065 E0.28647
G1 X80.162 Y82.217 E0.03620
G1 X80.372 Y83.180 E0.03090
G1 X80.716 Y84.103 E0.03090
G1 X81.188 Y84.968 E0.03090
G1 X81.779 Y85.757 E0.03090
G1 X82.476 Y86.454 E0.03090
G1 X83.265 Y87.045 E0.03090
G1 X84.130 Y87.517 E0.03090
G1 X85.054 Y87.862 E0.03090
G1 X86.017 Y88.071 E0.03090
G1 X87.168 Y88.154 E0.03620
G1 X101.082 Y88.154 E0.43624
G1 X102.233 Y88.071 E0.03620
G1 X103.196 Y87.862 E0.03090
G1 X104.120 Y87.517 E0.03090
G1 X104.985 Y87.045 E0.03090
G1 X105.774 Y86.454 E0.03090
G1 X106.471 Y85.757 E0.03090
G1 X107.062 Y84.968 E0.03090
G1 X107.534 Y84.103 E0.03090
G1 X107.878 Y83.180 E0.03091
G1 X108.088 Y82.217 E0.03090
G1 X108.170 Y81.065 E0.03620
G1 X108.170 Y71.655 E0.29505
G1 X108.326 Y69.455 E0.06915
G1 X108.789 Y67.215 E0.07172
G1 X109.555 Y65.050 E0.07201
G1 X110.640 Y62.958 E0.07388
G1 X111.987 Y61.061 E0.07295
G1 X113.560 Y59.391 E0.07194
G1 X115.302 Y57.979 E0.07031
G1 X117.222 Y56.809 E0.07050
G1 X117.769 Y56.574 E0.01868
G1 X118.645 Y56.196 F10800.000
G1 F1200.000
G1 X119.506 Y55.826 E0.02937
G1 X121.565 Y55.258 E0.06698
G1 X123.703 Y54.954 E0.06770
G1 X126.187 Y54.946 E0.07791
G1 X128.439 Y55.259 E0.07127
G1 X130.625 Y55.872 E0.07119
G1 X131.369 Y56.196 E0.02544
G1 X132.234 Y56.573 F10800.000
G1 F1200.000
G1 X132.785 Y56.813 E0.01884
G1 X134.831 Y58.074 E0.07534
G1 X136.501 Y59.447 E0.06779
G1 X137.996 Y61.041 E0.06853
G1 X139.396 Y63.017 E0.07594
G1 X140.417 Y64.986 E0.06953
G1 X141.171 Y67.073 E0.06957
G1 X141.659 Y69.343 E0.07279
G1 X141.830 Y71.686 E0.07366
G1 X141.724 Y72.972 E0.04047
G1 X141.389 Y74.235 E0.04095
G1 X140.864 Y75.370 E0.03923
G1 X140.277 Y76.244 E0.03299
G1 X139.553 Y77.042 E0.03380
G1 X138.561 Y77.835 E0.03982
G1 X137.439 Y78.448 E0.04009
G1 X136.273 Y78.845 E0.03861
G1 X135.052 Y79.042 E0.03877
G1 X133.852 Y79.034 E0.03763
G1 X132.651 Y78.826 E0.03822
G1 X131.556 Y78.446 E0.03634
G1 X130.540 Y77.901 E0.03617
G1 X129.607 Y77.191 E0.03675
G1 X128.714 Y76.232 E0.04109
G1 X127.996 Y75.113 E0.04168
G1 X127.513 Y73.947 E0.03957
G1 X127.268 Y72.923 E0.03302
G1 X127.126 Y71.385 E0.04842
G1 X127.037 Y71.034 E0.01136
G1 X126.895 Y70.708 E0.01116
G1 X126.700 Y70.410 E0.01116
G1 X126.459 Y70.149 E0.01116
G1 X126.178 Y69.930 E0.01116
G1 X125.865 Y69.761 E0.01116
G1 X125.529 Y69.645 E0.01115
G1 X125.178 Y69.587 E0.01116
G1 X124.822 Y69.587 E0.01116
G1 X124.471 Y69.645 E0.01115
G1 X124.135 Y69.761 E0.01115
G1 X123.822 Y69.930 E0.01116
G1 X123.541 Y70.149 E0.01115
G1 X123.300 Y70.410 E0.01116
G1 X123.105 Y70.708 E0.01116
G1 X122.963 Y71.034 E0.01115
G1 X122.875 Y71.379 E0.01116
G1 X122.830 Y71.928 E0.01729
G1 X122.830 Y81.065 E0.28648
G1 X122.912 Y82.217 E0.03620
G1 X123.122 Y83.180 E0.03090
G1 X123.466 Y84.103 E0.03090
G1 X123.938 Y84.968 E0.03090
G1 X124.529 Y85.757 E0.03091
G1 X125.226 Y86.454 E0.03090
G1 X126.015 Y87.045 E0.03090
G1 X126.880 Y87.517 E0.03090
G1 X127.804 Y87.862 E0.03090
G1 X128.767 Y88.071 E0.03090
G1 X129.918 Y88.154 E0.03620
G1 X143.832 Y88.154 E0.43624
G1 X144.983 Y88.071 E0.03620
G1 X145.946 Y87.862 E0.03090
G1 X146.870 Y87.517 E0.03090
G1 X147.735 Y87.045 E0.03091
G1 X148.524 Y86.454 E0.03090
G1 X149.221 Y85.757 E0.03090
G1 X149.812 Y84.968 E0.03091
G1 X150.284 Y84.103 E0.03090
G1 X150.628 Y83.180 E0.03090
G1 X150.838 Y82.217 E0.03090
G1 X150.920 Y81.065 E0.03621
G1 X150.923 Y71.571 E0.29766
G1 X151.092 Y69.338 E0.07023
G1 X151.550 Y67.175 E0.06932
G1 X152.296 Y65.070 E0.07004
G1 X153.316 Y63.080 E0.07009
G1 X154.578 Y61.258 E0.06949
G1 X156.270 Y59.428 E0.07817
G1 X158.106 Y57.941 E0.07406
G1 X160.099 Y56.744 E0.07290
G1 X160.497 Y56.572 E0.01359
G1 X161.374 Y56.195 F10800.000
G1 F1200.000
G1 X162.131 Y55.870 E0.02585
G1 X164.287 Y55.264 E0.07019
G1 X166.591 Y54.944 E0.07296
G1 X168.919 Y54.945 E0.07300
G1 X171.085 Y55.238 E0.06851
G1 X173.260 Y55.831 E0.07070
G1 X175.398 Y56.742 E0.07286
G1 X177.468 Y57.993 E0.07583
G1 X179.352 Y59.542 E0.07648
G1 X180.853 Y61.172 E0.06946
G1 X182.139 Y63.005 E0.07020
G1 X183.193 Y65.044 E0.07198
G1 X183.975 Y67.263 E0.07378
G1 X184.440 Y69.568 E0.07373
G1 X184.579 Y71.765 E0.06903
G1 X184.470 Y72.993 E0.03863
G1 X184.171 Y74.146 E0.03737
G1 X183.734 Y75.151 E0.03436
G1 X183.318 Y75.817 E0.02461
G1 X182.941 Y76.316 F10800.000
G1 F1200.000
G1 X182.301 Y77.045 E0.03042
G1 X181.258 Y77.870 E0.04170
G1 X180.214 Y78.437 E0.03722
G1 X179.098 Y78.826 E0.03706
G1 X177.866 Y79.037 E0.03921
G1 X176.605 Y79.034 E0.03954
G1 X175.329 Y78.807 E0.04063
G1 X174.186 Y78.392 E0.03813
G1 X173.167 Y77.820 E0.03664
G1 X172.256 Y77.098 E0.03647
G1 X171.489 Y76.264 E0.03550
G1 X170.860 Y75.324 E0.03548
G1 X170.341 Y74.178 E0.03943
G1 X170.023 Y72.954 E0.03965
G1 X169.878 Y71.393 E0.04915
G1 X169.787 Y71.034 E0.01163
G1 X169.645 Y70.708 E0.01115
G1 X169.450 Y70.410 E0.01116
G1 X169.209 Y70.149 E0.01116
G1 X168.928 Y69.930 E0.01116
G1 X168.615 Y69.761 E0.01115
G1 X168.279 Y69.645 E0.01115
G1 X167.928 Y69.587 E0.01116
G1 X167.572 Y69.587 E0.01116
G1 X167.221 Y69.645 E0.01116
G1 X166.885 Y69.761 E0.01115
G1 X166.572 Y69.930 E0.01115
G1 X166.291 Y70.149 E0.01116
G1 X166.050 Y70.410 E0.01116
G1 X165.855 Y70.708 E0.01115
G1 X165.713 Y71.034 E0.01116
G1 X165.625 Y71.379 E0.01116
G1 X165.580 Y71.928 E0.01729
G1 X165.580 Y81.065 E0.28648
G1 X165.662 Y82.217 E0.03620
G1 X165.872 Y83.180 E0.03090
G1 X166.216 Y84.103 E0.03090
G1 X166.688 Y84.968 E0.03090
G1 X167.279 Y85.757 E0.03090
G1 X167.976 Y86.454 E0.03090
G1 X168.765 Y87.045 E0.03090
G1 X169.630 Y87.517 E0.03090
G1 X170.554 Y87.862 E0.03090
G1 X171.533 Y88.075 E0.03142
G1 X174.421 Y88.308 E0.09086
G1 X176.332 Y88.778 E0.06171
G1 X178.012 Y89.485 E0.05712
G1 X179.519 Y90.403 E0.05535
G1 X180.433 Y91.153 E0.03708
G1 X181.160 Y91.812 E0.03074
G1 X182.260 Y93.116 E0.05350
G1 X182.941 Y94.224 E0.04078
G1 X183.318 Y94.887 F10800.000
G1 F1200.000
G1 X183.998 Y96.530 E0.05576
G1 X184.425 Y98.309 E0.05736
G1 X184.580 Y100.144 E0.05771
G1 X184.572 Y143.245 E1.35142
G1 X184.398 Y145.066 E0.05735
G1 X183.925 Y146.905 E0.05955
G1 X183.160 Y148.666 E0.06019
G1 X182.222 Y150.152 E0.05510
G1 X181.073 Y151.493 E0.05538
G1 X179.555 Y152.788 E0.06256
G1 X177.824 Y153.826 E0.06328
G1 X176.247 Y154.467 E0.05338
G1 X174.569 Y154.884 E0.05421
G1 X172.595 Y155.063 E0.06216
G1 X77.405 Y155.063 E2.98459
G1 X75.450 Y154.887 E0.06156
G1 X73.579 Y154.408 E0.06057
G1 X71.818 Y153.643 E0.06019
G1 X70.332 Y152.706 E0.05510
G1 X68.990 Y151.556 E0.05538
G1 X67.695 Y150.039 E0.06256
G1 X66.657 Y148.308 E0.06328
G1 X66.008 Y146.705 E0.05422
G1 X65.599 Y145.053 E0.05337
G1 X65.420 Y143.078 E0.06217
G1 X65.420 Y71.655 E2.23942
G1 X65.583 Y69.399 E0.07092
G1 X66.057 Y67.151 E0.07204
G1 X66.809 Y65.039 E0.07030
G1 X67.833 Y63.051 E0.07010
G1 X69.112 Y61.215 E0.07016
G1 X70.627 Y59.562 E0.07030
G1 X72.525 Y57.998 E0.07711
G1 X74.417 Y56.838 E0.06958
G1 X76.439 Y55.939 E0.06940
G1 X78.752 Y55.272 E0.07548
G1 X81.115 Y54.942 E0.07479
G1 X83.442 Y54.946 E0.07297
G1 F8640.000
G1 X81.115 Y54.942 E-0.53737
G1 X78.752 Y55.272 E-0.55075
G1 X77.746 Y55.562 E-0.24188
G1 E-0.07000 F2100.00000
G1 Z0.400 F10800.000
G1 X81.153 Y55.318
G1 Z0.200
G1 E1.40000 F2100.00000
G1 F1200.000
G1 X83.428 Y55.323 E0.07132
G1 X85.676 Y55.642 E0.07118
G1 X87.634 Y56.197 E0.06383
G1 X88.554 Y56.574 F10800.000
G1 F1200.000
G1 X89.790 Y57.111 E0.04226
G1 X91.693 Y58.261 E0.06969
G1 X93.541 Y59.767 E0.07474
G1 X95.049 Y61.396 E0.06962
G1 X96.307 Y63.185 E0.06857
G1 X97.317 Y65.126 E0.06861
G1 X98.077 Y67.241 E0.07048
G1 X98.553 Y69.521 E0.07302
G1 X98.702 Y71.738 E0.06967
G1 X98.590 Y72.978 E0.03904
G1 X98.292 Y74.086 E0.03596
G1 X97.836 Y75.094 E0.03470
G1 X97.233 Y76.007 E0.03431
G1 X96.417 Y76.887 E0.03763
G1 X95.477 Y77.602 E0.03702
G1 X94.458 Y78.136 E0.03608
G1 X93.301 Y78.511 E0.03813
G1 X92.324 Y78.662 E0.03101
G1 X91.335 Y78.674 E0.03101
G1 X90.159 Y78.501 E0.03726
G1 X88.981 Y78.110 E0.03892
G1 X87.971 Y77.569 E0.03594
G1 X87.040 Y76.847 E0.03693
G1 X86.292 Y76.040 E0.03450
G1 X85.657 Y75.081 E0.03606
G1 X85.185 Y74.020 E0.03640
G1 X84.898 Y72.910 E0.03594
G1 X84.750 Y71.324 E0.04995
G1 X84.645 Y70.911 E0.01336
G1 X84.477 Y70.528 E0.01311
G1 X84.249 Y70.178 E0.01311
G1 X83.965 Y69.870 E0.01311
G1 X83.635 Y69.613 E0.01311
G1 X83.267 Y69.414 E0.01311
G1 X82.872 Y69.278 E0.01311
G1 X82.459 Y69.210 E0.01311
G1 X82.041 Y69.210 E0.01311
G1 X81.628 Y69.278 E0.01311
G1 X81.233 Y69.414 E0.01311
G1 X80.865 Y69.613 E0.01311
G1 X80.535 Y69.870 E0.01311
G1 X80.251 Y70.178 E0.01311
G1 X80.023 Y70.528 E0.01311
G1 X79.855 Y70.911 E0.01311
G1 X79.752 Y71.317 E0.01311
G1 X79.703 Y71.913 E0.01876
G1 X79.703 Y81.079 E0.28739
M73 Q0 S115
G1 X79.788 Y82.270 E0.03746
G1 X80.009 Y83.286 E0.03260
M73 P0 R114
G1 X80.372 Y84.260 E0.03260
G1 X80.870 Y85.173 E0.03260
G1 X81.493 Y86.005 E0.03260
G1 X82.228 Y86.740 E0.03260
G1 X83.061 Y87.363 E0.03260
G1 X83.973 Y87.861 E0.03260
G1 X84.947 Y88.225 E0.03260
G1 X85.963 Y88.446 E0.03260
G1 X87.155 Y88.531 E0.03746
G1 X101.095 Y88.531 E0.43709
G1 X102.287 Y88.446 E0.03746
G1 X103.303 Y88.225 E0.03260
G1 X104.277 Y87.861 E0.03260
G1 X105.189 Y87.363 E0.03260
G1 X106.022 Y86.740 E0.03260
G1 X106.757 Y86.005 E0.03260
G1 X107.380 Y85.173 E0.03260
G1 X107.878 Y84.260 E0.03260
G1 X108.241 Y83.286 E0.03260
G1 X108.462 Y82.270 E0.03260
G1 X108.547 Y81.079 E0.03746
G1 X108.547 Y71.662 E0.29526
G1 X108.701 Y69.494 E0.06812
G1 X109.155 Y67.304 E0.07014
G1 X109.896 Y65.212 E0.06959
G1 X110.955 Y63.165 E0.07225
G1 X112.271 Y61.310 E0.07132
G1 X113.807 Y59.676 E0.07033
G1 X115.530 Y58.280 E0.06951
G1 X117.407 Y57.138 E0.06890
G1 X118.718 Y56.573 E0.04476
G1 X119.594 Y56.196 F10800.000
G1 F1200.000
G1 X121.653 Y55.625 E0.06701
G1 X123.743 Y55.329 E0.06616
G1 X126.149 Y55.321 E0.07545
G1 X128.350 Y55.626 E0.06966
G1 X130.384 Y56.196 E0.06626
G1 X131.293 Y56.573 F10800.000
G1 F1200.000
G1 X132.622 Y57.153 E0.04547
G1 X134.601 Y58.373 E0.07289
G1 X136.252 Y59.730 E0.06700
G1 X137.712 Y61.289 E0.06698
G1 X139.068 Y63.202 E0.07352
G1 X140.077 Y65.148 E0.06873
G1 X140.812 Y67.189 E0.06800
G1 X141.287 Y69.409 E0.07119
G1 X141.452 Y71.698 E0.07197
G1 X141.349 Y72.924 E0.03858
G1 X141.040 Y74.092 E0.03788
G1 X140.542 Y75.173 E0.03733
G1 X139.988 Y76.001 E0.03124
G1 X139.305 Y76.758 E0.03195
G1 X138.365 Y77.512 E0.03780
G1 X137.301 Y78.096 E0.03806
G1 X136.196 Y78.475 E0.03661
G1 X135.038 Y78.665 E0.03680
G1 X133.900 Y78.660 E0.03567
G1 X132.760 Y78.464 E0.03627
G1 X131.695 Y78.094 E0.03537
G1 X130.732 Y77.576 E0.03429
G1 X129.872 Y76.922 E0.03386
G1 X129.002 Y75.988 E0.04004
G1 X128.323 Y74.924 E0.03954
G1 X127.867 Y73.818 E0.03753
G1 X127.638 Y72.849 E0.03120
G1 X127.499 Y71.321 E0.04811
G1 X127.395 Y70.911 E0.01327
G1 X127.227 Y70.528 E0.01311
G1 X126.999 Y70.178 E0.01311
G1 X126.715 Y69.870 E0.01311
G1 X126.385 Y69.613 E0.01311
G1 X126.017 Y69.414 E0.01311
G1 X125.622 Y69.278 E0.01311
G1 X125.209 Y69.210 E0.01311
G1 X124.791 Y69.210 E0.01311
G1 X124.378 Y69.278 E0.01311
G1 X123.983 Y69.414 E0.01311
G1 X123.615 Y69.613 E0.01311
G1 X123.285 Y69.870 E0.01311
G1 X123.001 Y70.178 E0.01311
G1 X122.773 Y70.528 E0.01311
G1 X122.605 Y70.911 E0.01311
G1 X122.502 Y71.317 E0.01311
G1 X122.453 Y71.913 E0.01876
G1 X122.453 Y81.079 E0.28739
G1 X122.538 Y82.270 E0.03746
G1 X122.759 Y83.286 E0.03260
G1 X123.122 Y84.260 E0.03260
G1 X123.620 Y85.173 E0.03260
G1 X124.243 Y86.005 E0.03260
G1 X124.978 Y86.740 E0.03260
G1 X125.811 Y87.363 E0.03260
G1 X126.723 Y87.861 E0.03260
