; generated by PrusaSlicer 2.2.0+win64 on 2020-09-27 at 15:47:35 UTC

; 

; external perimeters extrusion width = 0.45mm
; perimeters extrusion width = 0.45mm
; infill extrusion width = 0.45mm
; solid infill extrusion width = 0.45mm
; top infill extrusion width = 0.40mm
; first layer extrusion width = 0.42mm

M73 P0 R148
M73 Q0 S148
M201 X1000 Y1000 Z200 E5000 ; sets maximum accelerations, mm/sec^2
M203 X200 Y200 Z12 E120 ; sets maximum feedrates, mm/sec
M204 P1250 R1250 T1250 ; sets acceleration (P, T) and retract acceleration (R), mm/sec^2
M205 X8.00 Y8.00 Z0.40 E4.50 ; sets the jerk limits, mm/sec
M205 S0 T0 ; sets the minimum extruding and travel feed rate, mm/sec
M107
M862.3 P "MK3S" ; printer model check
M862.1 P0.4 ; nozzle diameter check
M115 U3.9.0 ; tell printer latest fw version
G90 ; use absolute coordinates
M83 ; extruder relative mode
M104 S215 ; set extruder temp
M140 S60 ; set bed temp
M190 S60 ; wait for bed temp
M109 S215 ; wait for extruder temp
G28 W ; home all without mesh bed level
G80 ; mesh bed leveling
G1 Y-3.0 F1000.0 ; go outside print area
G92 E0.0
G1 X60.0 E9.0 F1000.0 ; intro line
M73 Q0 S148
M73 P0 R148
G1 X100.0 E12.5 F1000.0 ; intro line
G92 E0.0
M221 S95

; Don't change E values below. Excessive value can damage the printer.

M907 E538 ; set extruder motor current
G21 ; set units to millimeters
G90 ; use absolute coordinates
M83 ; use relative distances for extrusion
M900 K0.05 ; Filament gcode LA 1.5
M900 K30 ; Filament gcode LA 1.0
;BEFORE_LAYER_CHANGE
G92 E0.0
;0.2


G1 E-0.80000 F2100.00000
G1 Z0.600 F10800.000
;AFTER_LAYER_CHANGE
;0.2
G1 X76.654 Y24.959
G1 Z0.200
G1 E0.80000 F2100.00000
M204 S1000
G1 F1200.000
G1 X77.291 Y23.907 E0.03857
G1 X78.266 Y22.943 E0.04299
G1 X79.444 Y22.261 E0.04266
G1 X80.682 Y21.912 E0.04034
G1 X116.647 Y17.176 E1.13739
G1 X178.888 Y17.120 E1.95153
G1 X203.564 Y17.188 E0.77369
G1 X239.431 Y21.915 E1.13433
G1 X240.670 Y22.270 E0.04041
G1 X241.897 Y22.997 E0.04472
G1 X242.865 Y23.987 E0.04338
G1 X243.590 Y25.306 E0.04721
G1 X243.919 Y26.794 E0.04777
G1 X245.129 Y137.342 E3.46636
G1 X243.492 Y175.542 E1.19885
G1 X240.730 Y196.539 E0.66400
G1 X240.276 Y198.071 E0.05010
G1 X239.625 Y199.139 E0.03923
G1 X238.586 Y200.142 E0.04527
G1 X237.376 Y200.812 E0.04337
G1 X236.318 Y201.103 E0.03440
G1 X235.835 Y201.161 E0.01526
G1 X83.453 Y201.161 E4.77785
G1 X82.869 Y201.086 E0.01846
G1 X81.592 Y200.683 E0.04199
G1 X80.543 Y200.049 E0.03842
G1 X79.587 Y199.085 E0.04255
G1 X78.901 Y197.910 E0.04266
G1 X78.561 Y196.738 E0.03826
G1 X75.756 Y175.421 E0.67416
G1 X75.346 Y61.927 E3.55852
G1 X76.177 Y26.744 E1.10345
G1 X76.257 Y26.211 E0.01692
G1 X76.636 Y25.017 E0.03928
G1 F8640.000
G1 X77.291 Y23.907 E-0.29751
G1 X78.266 Y22.943 E-0.31659
G1 X78.813 Y22.627 E-0.14589
G1 E-0.04000 F2100.00000
G1 Z0.800 F10800.000
G1 X75.923 Y169.354
G1 Z0.200
G1 E0.80000 F2100.00000
G1 F1200.000
G1 X76.577 Y168.720 E0.02854
G1 X78.480 Y167.709 E0.06758
G1 X80.394 Y167.283 E0.06147
G1 X82.322 Y167.346 E0.06051
G1 X84.147 Y167.875 E0.05957
G1 X85.842 Y168.875 E0.06171
G1 X86.432 Y169.453 E0.02589
G1 X86.901 Y168.680 E0.02834
G1 X88.378 Y167.224 E0.06501
G1 X90.046 Y166.274 E0.06020
G1 X91.879 Y165.765 E0.05963
G1 X93.865 Y165.731 E0.06229
G1 X95.809 Y166.211 E0.06277
G1 X97.664 Y167.250 E0.06667
G1 X98.331 Y167.891 E0.02901
G1 X98.867 Y167.028 E0.03183
G1 X100.190 Y165.723 E0.05828
G1 X102.015 Y164.678 E0.06595
G1 X103.924 Y164.180 E0.06185
G1 X106.057 Y164.204 E0.06688
G1 X107.941 Y164.741 E0.06143
G1 X109.584 Y165.701 E0.05966
G1 X110.228 Y166.327 E0.02817
G1 X110.743 Y165.489 E0.03084
G1 X112.156 Y164.105 E0.06202
G1 X113.924 Y163.106 E0.06365
G1 X115.870 Y162.607 E0.06298
G1 X117.749 Y162.609 E0.05893
G1 X119.705 Y163.119 E0.06337
G1 X121.488 Y164.139 E0.06442
G1 X122.893 Y165.534 E0.06206
G1 X123.897 Y167.245 E0.06221
G1 X124.303 Y168.709 E0.04764
G1 X133.621 Y167.486 E0.29467
G1 X134.095 Y166.418 E0.03664
G1 X135.486 Y164.641 E0.07073
G1 X137.268 Y163.375 E0.06856
G1 X138.726 Y162.808 E0.04906
G1 X140.292 Y162.552 E0.04976
G1 X178.929 Y162.549 E1.21142
G1 X180.483 Y162.796 E0.04934
G1 X181.980 Y163.372 E0.05029
G1 X183.716 Y164.591 E0.06651
G1 X185.154 Y166.408 E0.07266
G1 X185.633 Y167.486 E0.03698
G1 X194.928 Y168.706 E0.29393
G1 X195.350 Y167.263 E0.04715
G1 X196.404 Y165.480 E0.06492
G1 X197.825 Y164.095 E0.06223
G1 X199.638 Y163.084 E0.06507
G1 X201.747 Y162.583 E0.06798
G1 X203.691 Y162.651 E0.06100
G1 X205.546 Y163.196 E0.06062
G1 X207.142 Y164.138 E0.05809
G1 X208.593 Y165.593 E0.06443
G1 X209.035 Y166.326 E0.02682
G1 X209.827 Y165.584 E0.03403
G1 X211.534 Y164.651 E0.06100
G1 X213.493 Y164.166 E0.06328
G1 X215.483 Y164.200 E0.06238
G1 X217.317 Y164.710 E0.05968
G1 X218.960 Y165.643 E0.05924
G1 X220.461 Y167.122 E0.06607
G1 X220.929 Y167.899 E0.02844
G1 X221.657 Y167.200 E0.03165
G1 X223.348 Y166.250 E0.06081
G1 X225.528 Y165.717 E0.07037
G1 X227.495 Y165.783 E0.06170
G1 X229.345 Y166.331 E0.06050
G1 X230.936 Y167.270 E0.05793
G1 X232.390 Y168.728 E0.06455
G1 X232.827 Y169.452 E0.02652
G1 X233.547 Y168.772 E0.03107
G1 X235.196 Y167.837 E0.05945
G1 X237.123 Y167.319 E0.06254
G1 X239.256 Y167.331 E0.06690
G1 X241.442 Y167.987 E0.07156
G1 X243.126 Y169.070 E0.06276
G1 X243.560 Y169.548 E0.02025
G1 X243.920 Y169.944 F10800.000
G1 F1200.000
G1 X244.484 Y170.564 E0.02625
G1 X245.388 Y172.303 E0.06146
G1 X245.797 Y173.969 E0.05379
G1 X245.833 Y175.530 E0.04897
G1 X243.029 Y196.985 E0.67842
G1 X242.363 Y199.141 E0.07075
G1 X241.485 Y200.553 E0.05214
G1 X240.323 Y201.754 E0.05238
G1 X238.299 Y202.957 E0.07382
G1 X236.501 Y203.444 E0.05841
G1 X234.626 Y203.486 E0.05880
G1 X232.325 Y202.881 E0.07461
G1 X230.618 Y201.859 E0.06239
G1 X230.119 Y201.349 E0.02236
G1 X229.749 Y200.972 F10800.000
G1 F1200.000
G1 X229.261 Y200.473 E0.02190
G1 X228.832 Y199.746 E0.02648
G1 X228.161 Y200.392 E0.02921
G1 X227.122 Y200.972 E0.03730
G1 X226.446 Y201.349 F10800.000
G1 F1200.000
G1 X226.291 Y201.436 E0.00557
G1 X224.490 Y201.893 E0.05825
G1 X222.636 Y201.907 E0.05814
G1 X220.775 Y201.458 E0.06003
G1 X220.577 Y201.349 E0.00706
G1 X219.888 Y200.972 F10800.000
G1 F1200.000
G1 X218.910 Y200.437 E0.03497
G1 X217.520 Y199.108 E0.06031
G1 X216.935 Y198.172 E0.03459
G1 X216.121 Y198.931 E0.03490
G1 X214.370 Y199.879 E0.06243
G1 X212.301 Y200.359 E0.06659
G1 X210.359 Y200.289 E0.06094
G1 X208.500 Y199.736 E0.06081
G1 X206.816 Y198.720 E0.06165
G1 X205.403 Y197.259 E0.06375
G1 X205.033 Y196.618 E0.02318
G1 X204.329 Y197.287 E0.03047
G1 X202.441 Y198.325 E0.06755
G1 X200.395 Y198.792 E0.06579
G1 X198.337 Y198.702 E0.06458
G1 X196.602 Y198.170 E0.05690
G1 X195.065 Y197.269 E0.05588
G1 X193.540 Y195.738 E0.06774
G1 X192.570 Y194.026 E0.06169
G1 X192.080 Y192.241 E0.05805
G1 X192.041 Y190.352 E0.05925
G1 X187.189 Y189.715 E0.15343
G1 X186.703 Y190.092 E0.01928
G1 X185.625 Y190.668 E0.03832
G1 X184.487 Y191.035 E0.03750
G1 X183.511 Y191.200 E0.03101
G1 X182.531 Y191.256 E0.03079
G1 X136.419 Y191.250 E1.44582
G1 X135.076 Y191.100 E0.04237
G1 X133.970 Y190.800 E0.03592
G1 X132.980 Y190.352 E0.03406
G1 X132.033 Y189.719 E0.03573
G1 X127.214 Y190.352 E0.15237
G1 X127.188 Y192.143 E0.05617
G1 X126.647 Y194.119 E0.06425
G1 X125.682 Y195.781 E0.06023
G1 X124.305 Y197.179 E0.06154
G1 X122.563 Y198.209 E0.06347
G1 X120.769 Y198.727 E0.05853
G1 X118.812 Y198.788 E0.06141
G1 X116.770 Y198.308 E0.06576
G1 X114.926 Y197.287 E0.06610
G1 X114.222 Y196.615 E0.03050
G1 X113.826 Y197.293 E0.02463
G1 X112.274 Y198.848 E0.06887
G1 X110.737 Y199.744 E0.05580
G1 X108.973 Y200.277 E0.05778
G1 X107.021 Y200.365 E0.06127
G1 X104.825 Y199.856 E0.07067
G1 X103.071 Y198.886 E0.06285
G1 X102.322 Y198.174 E0.03240
G1 X101.770 Y199.065 E0.03286
G1 X100.352 Y200.432 E0.06175
G1 X99.373 Y200.973 E0.03507
G1 X98.690 Y201.350 F10800.000
G1 F1200.000
G1 X98.531 Y201.438 E0.00570
G1 X96.569 Y201.913 E0.06331
G1 X94.756 Y201.892 E0.05684
G1 X92.957 Y201.433 E0.05822
G1 X92.807 Y201.350 E0.00537
G1 X92.133 Y200.973 F10800.000
G1 F1200.000
G1 X91.092 Y200.391 E0.03739
G1 X90.429 Y199.752 E0.02885
G1 X90.054 Y200.393 E0.02329
G1 X89.498 Y200.973 E0.02518
G1 X89.136 Y201.350 F10800.000
G1 F1200.000
G1 X88.683 Y201.822 E0.02052
G1 X86.918 Y202.887 E0.06465
G1 X84.987 Y203.438 E0.06295
G1 X83.009 Y203.476 E0.06204
G1 X80.828 Y202.905 E0.07068
G1 X78.871 Y201.702 E0.07204
G1 X77.523 Y200.218 E0.06287
G1 X76.617 Y198.490 E0.06117
G1 X76.228 Y196.987 E0.04868
G1 X73.430 Y175.680 E0.67379
M73 Q0 S147
M73 P0 R147
G1 X73.440 Y174.114 E0.04909
G1 X73.971 Y172.038 E0.06720
G1 X75.017 Y170.231 E0.06544
G1 X75.547 Y169.718 E0.02316
G1 X75.925 Y169.872 F10800.000
G1 F1200.000
G1 X76.779 Y169.040 E0.03739
G1 X78.588 Y168.071 E0.06437
G1 X80.407 Y167.660 E0.05845
G1 X82.242 Y167.715 E0.05756
G1 X83.977 Y168.212 E0.05658
G1 X85.629 Y169.187 E0.06017
G1 X86.509 Y170.065 E0.03896
G1 X87.185 Y168.930 E0.04143
G1 X88.587 Y167.540 E0.06191
G1 X90.212 Y166.613 E0.05866
G1 X91.955 Y166.135 E0.05665
G1 X93.845 Y166.108 E0.05928
G1 X95.692 Y166.570 E0.05969
G1 X97.456 Y167.566 E0.06352
G1 X98.407 Y168.494 E0.04165
G1 X99.148 Y167.280 E0.04461
G1 X100.437 Y166.008 E0.05677
G1 X102.136 Y165.036 E0.06137
G1 X103.947 Y164.557 E0.05873
G1 X105.979 Y164.573 E0.06373
G1 X107.772 Y165.079 E0.05840
G1 X109.373 Y166.014 E0.05813
G1 X110.304 Y166.935 E0.04108
G1 X111.024 Y165.741 E0.04374
G1 X112.402 Y164.392 E0.06045
G1 X114.086 Y163.448 E0.06054
G1 X115.938 Y162.979 E0.05991
G1 X117.723 Y162.986 E0.05596
G1 X119.585 Y163.477 E0.06036
G1 X121.241 Y164.425 E0.05984
G1 X122.580 Y165.746 E0.05898
G1 X123.559 Y167.414 E0.06063
G1 X124.025 Y169.126 E0.05563
G1 X133.882 Y167.832 E0.31171
G1 X134.408 Y166.630 E0.04114
G1 X135.728 Y164.932 E0.06743
G1 X137.427 Y163.718 E0.06548
G1 X138.844 Y163.167 E0.04768
G1 X140.337 Y162.926 E0.04742
G1 X178.884 Y162.924 E1.20861
G1 X180.404 Y163.165 E0.04824
G1 X181.822 Y163.715 E0.04768
G1 X183.476 Y164.882 E0.06349
G1 X184.842 Y166.622 E0.06934
G1 X185.373 Y167.832 E0.04143
G1 X195.201 Y169.122 E0.31082
G1 X195.687 Y167.434 E0.05510
G1 X196.716 Y165.694 E0.06335
G1 X198.070 Y164.383 E0.05910
G1 X199.751 Y163.444 E0.06038
G1 X201.761 Y162.961 E0.06481
G1 X203.609 Y163.020 E0.05799
G1 X205.376 Y163.534 E0.05770
G1 X206.892 Y164.422 E0.05508
G1 X208.308 Y165.842 E0.06289
G1 X208.950 Y166.928 E0.03955
G1 X210.031 Y165.902 E0.04672
G1 X211.650 Y165.010 E0.05796
G1 X213.512 Y164.543 E0.06019
G1 X215.452 Y164.576 E0.06083
G1 X217.192 Y165.066 E0.05667
G1 X218.751 Y165.957 E0.05630
G1 X220.177 Y167.371 E0.06298
G1 X220.848 Y168.507 E0.04135
G1 X221.864 Y167.516 E0.04450
G1 X223.510 Y166.591 E0.05920
G1 X225.542 Y166.095 E0.06559
G1 X227.412 Y166.152 E0.05866
G1 X229.175 Y166.668 E0.05758
G1 X230.687 Y167.553 E0.05492
G1 X232.105 Y168.977 E0.06301
G1 X232.743 Y170.057 E0.03933
G1 X233.754 Y169.088 E0.04390
G1 X235.361 Y168.177 E0.05793
G1 X237.195 Y167.690 E0.05949
G1 X239.175 Y167.700 E0.06208
G1 X241.261 Y168.319 E0.06822
G1 X242.900 Y169.374 E0.06112
G1 X243.537 Y170.078 E0.02979
G1 X243.898 Y170.477 F10800.000
G1 F1200.000
G1 X244.187 Y170.798 E0.01355
G1 X245.043 Y172.455 E0.05848
G1 X245.420 Y173.999 E0.04981
G1 X245.457 Y175.496 E0.04697
G1 X242.657 Y196.921 E0.67747
G1 X242.030 Y198.963 E0.06699
G1 X241.175 Y200.337 E0.05073
G1 X240.071 Y201.473 E0.04968
G1 X238.130 Y202.619 E0.07066
G1 X236.427 Y203.074 E0.05529
G1 X234.646 Y203.108 E0.05584
G1 X232.448 Y202.524 E0.07130
G1 X230.834 Y201.549 E0.05913
G1 X230.640 Y201.349 E0.00873
G1 X230.273 Y200.972 F10800.000
G1 F1200.000
G1 X229.548 Y200.228 E0.03257
G1 X228.915 Y199.132 E0.03967
G1 X227.954 Y200.076 E0.04223
G1 X226.348 Y200.972 E0.05767
G1 F8640.000
G1 X227.954 Y200.076 E-0.42467
G1 X228.915 Y199.132 E-0.31102
G1 X228.968 Y199.224 E-0.02431
G1 E-0.04000 F2100.00000
G1 Z0.800 F10800.000
G1 X225.110 Y201.349
G1 Z0.200
G1 E0.80000 F2100.00000
G1 F1200.000
G1 X224.421 Y201.522 E0.02226
G1 X222.658 Y201.530 E0.05530
G1 X221.919 Y201.349 E0.02383
G1 F8640.000
G1 X222.658 Y201.530 E-0.17549
G1 X224.421 Y201.522 E-0.40723
G1 X225.110 Y201.349 E-0.16395
G1 E-0.05333 F2100.00000
G1 Z0.800 F10800.000
G1 X220.660 Y200.972
G1 Z0.200
G1 E0.80000 F2100.00000
G1 F1200.000
G1 X219.153 Y200.147 E0.05388
G1 X217.798 Y198.852 E0.05875
G1 X217.014 Y197.577 E0.04696
G1 X215.919 Y198.611 E0.04722
G1 X214.213 Y199.535 E0.06084
G1 X212.289 Y199.982 E0.06192
G1 X210.442 Y199.920 E0.05795
G1 X208.673 Y199.400 E0.05783
G1 X207.070 Y198.440 E0.05857
G1 X205.692 Y197.015 E0.06216
G1 X205.124 Y196.003 E0.03636
G1 X204.123 Y196.970 E0.04363
G1 X202.329 Y197.964 E0.06431
G1 X200.386 Y198.414 E0.06256
G1 X198.378 Y198.326 E0.06300
G1 X196.736 Y197.816 E0.05394
G1 X195.278 Y196.956 E0.05307
G1 X193.826 Y195.491 E0.06469
G1 X192.927 Y193.904 E0.05717
G1 X192.450 Y192.164 E0.05657
G1 X192.417 Y190.308 E0.05821
G1 X192.468 Y190.027 E0.00894
G1 X187.080 Y189.320 E0.17039
G1 X186.510 Y189.768 E0.02273
G1 X185.492 Y190.315 E0.03621
G1 X184.410 Y190.666 E0.03568
G1 X183.479 Y190.824 E0.02959
G1 X182.526 Y190.879 E0.02995
G1 X136.429 Y190.873 E1.44532
G1 X135.133 Y190.727 E0.04091
G1 X134.084 Y190.440 E0.03409
G1 X133.175 Y190.029 E0.03127
G1 X132.358 Y189.488 E0.03075
G1 X132.170 Y189.321 E0.00788
G1 X126.787 Y190.027 E0.17024
G1 X126.837 Y190.306 E0.00887
G1 X126.818 Y192.067 E0.05522
G1 X126.290 Y193.995 E0.06269
G1 X125.369 Y195.570 E0.05718
G1 X124.091 Y196.867 E0.05710
G1 X122.434 Y197.854 E0.06048
G1 X120.732 Y198.351 E0.05558
G1 X118.872 Y198.415 E0.05836
G1 X116.929 Y197.965 E0.06252
G1 X115.131 Y196.970 E0.06445
G1 X114.134 Y196.001 E0.04359
G1 X113.541 Y197.046 E0.03768
G1 X112.025 Y198.563 E0.06725
G1 X110.567 Y199.407 E0.05280
G1 X108.932 Y199.901 E0.05356
G1 X107.029 Y199.987 E0.05973
G1 X104.985 Y199.513 E0.06581
G1 X103.276 Y198.568 E0.06122
G1 X102.245 Y197.573 E0.04492
G1 X101.489 Y198.811 E0.04549
G1 X100.146 Y200.115 E0.05868
G1 X98.605 Y200.973 E0.05532
G1 F8640.000
G1 X100.146 Y200.115 E-0.40737
G1 X101.242 Y199.051 E-0.35263
G1 E-0.04000 F2100.00000
G1 Z0.800 F10800.000
G1 X97.306 Y201.350
G1 Z0.200
G1 E0.80000 F2100.00000
G1 F1200.000
G1 X96.549 Y201.535 E0.02446
G1 X94.783 Y201.515 E0.05537
G1 X94.142 Y201.350 E0.02076
G1 F8640.000
G1 X94.783 Y201.515 E-0.15291
G1 X96.549 Y201.535 E-0.40773
G1 X97.306 Y201.350 E-0.18011
G1 E-0.05925 F2100.00000
G1 Z0.800 F10800.000
G1 X92.894 Y200.973
G1 Z0.200
G1 E0.80000 F2100.00000
G1 F1200.000
G1 X91.299 Y200.075 E0.05738
G1 X90.344 Y199.137 E0.04200
G1 X89.764 Y200.151 E0.03662
G1 X88.981 Y200.973 E0.03561
G1 X88.621 Y201.350 F10800.000
G1 F1200.000
G1 X88.466 Y201.513 E0.00707
G1 X86.789 Y202.532 E0.06153
G1 X84.954 Y203.062 E0.05988
G1 X83.077 Y203.104 E0.05886
G1 X81.000 Y202.568 E0.06725
G1 X79.131 Y201.427 E0.06867
G1 X77.845 Y200.020 E0.05978
G1 X76.976 Y198.374 E0.05837
G1 X76.600 Y196.926 E0.04689
G1 X73.806 Y175.644 E0.67302
G1 X73.817 Y174.140 E0.04716
G1 X74.310 Y172.203 E0.06267
G1 X75.299 Y170.483 E0.06221
G1 X75.549 Y170.239 E0.01095
G1 X75.927 Y170.395 F10800.000
G1 F1200.000
G1 X76.981 Y169.359 E0.04635
G1 X78.698 Y168.433 E0.06116
G1 X80.421 Y168.038 E0.05542
G1 X82.162 Y168.085 E0.05462
G1 X83.806 Y168.549 E0.05356
G1 X85.416 Y169.499 E0.05861
G1 X86.585 Y170.681 E0.05213
G1 X87.469 Y169.179 E0.05463
G1 X88.796 Y167.855 E0.05879
G1 X90.378 Y166.953 E0.05710
G1 X92.030 Y166.506 E0.05365
G1 X93.824 Y166.486 E0.05628
G1 X95.574 Y166.929 E0.05660
G1 X97.248 Y167.881 E0.06036
G1 X98.482 Y169.100 E0.05440
G1 X99.430 Y167.532 E0.05747
G1 X100.685 Y166.294 E0.05525
G1 X102.258 Y165.394 E0.05682
G1 X103.971 Y164.934 E0.05562
G1 X105.903 Y164.944 E0.06059
G1 X107.603 Y165.417 E0.05533
G1 X109.161 Y166.327 E0.05658
G1 X110.380 Y167.547 E0.05407
G1 X111.306 Y165.993 E0.05672
G1 X112.648 Y164.679 E0.05887
G1 X114.247 Y163.790 E0.05739
G1 X116.006 Y163.350 E0.05684
G1 X117.696 Y163.363 E0.05298
G1 X119.463 Y163.835 E0.05737
G1 X120.995 Y164.711 E0.05531
G1 X122.268 Y165.959 E0.05589
G1 X123.221 Y167.583 E0.05903
G1 X123.745 Y169.543 E0.06363
G1 X134.144 Y168.178 E0.32883
G1 X134.721 Y166.841 E0.04566
G1 X135.970 Y165.222 E0.06412
