; generated by PrusaSlicer 2.2.0+win64 on 2020-09-20 at 14:23:23 UTC

; 

; external perimeters extrusion width = 0.45mm
; perimeters extrusion width = 0.45mm
; infill extrusion width = 0.45mm
; solid infill extrusion width = 0.45mm
; top infill extrusion width = 0.40mm
; first layer extrusion width = 0.42mm

M73 P0 R105
M73 Q0 S105
M201 X1000 Y1000 Z200 E5000 ; sets maximum accelerations, mm/sec^2
M203 X200 Y200 Z12 E120 ; sets maximum feedrates, mm/sec
M204 P1250 R1250 T1250 ; sets acceleration (P, T) and retract acceleration (R), mm/sec^2
M205 X8.00 Y8.00 Z0.40 E4.50 ; sets the jerk limits, mm/sec
M205 S0 T0 ; sets the minimum extruding and travel feed rate, mm/sec
M107
M862.3 P "MK3S" ; printer model check
M862.1 P0.4 ; nozzle diameter check
M115 U3.9.0 ; tell printer latest fw version
G90 ; use absolute coordinates
M83 ; extruder relative mode
M104 S215 ; set extruder temp
M140 S60 ; set bed temp
M190 S60 ; wait for bed temp
M109 S215 ; wait for extruder temp
G28 W ; home all without mesh bed level
G80 ; mesh bed leveling
G1 Y-3.0 F1000.0 ; go outside print area
G92 E0.0
G1 X60.0 E9.0 F1000.0 ; intro line
M73 Q0 S105
M73 P0 R105
G1 X100.0 E12.5 F1000.0 ; intro line
G92 E0.0
M221 S95

; Don't change E values below. Excessive value can damage the printer.

M907 E538 ; set extruder motor current
G21 ; set units to millimeters
G90 ; use absolute coordinates
M83 ; use relative distances for extrusion
M900 K0.06 ; Filament gcode LA 1.5
M900 K30 ; Filament gcode LA 1.0
;BEFORE_LAYER_CHANGE
G92 E0.0
;0.2


G1 E-0.80000 F2100.00000
G1 Z0.600 F10800.000
;AFTER_LAYER_CHANGE
;0.2
G1 X157.224 Y94.947
G1 Z0.200
G1 E0.80000 F2100.00000
M204 S1000
G1 F1200.000
G1 X157.869 Y95.408 E0.02487
G1 X158.479 Y96.136 E0.02977
G1 X158.881 Y97.025 E0.03058
G1 X159.045 Y97.900 E0.02792
G1 X159.052 Y111.961 E0.44085
G1 X158.927 Y112.813 E0.02700
G1 X158.612 Y113.633 E0.02755
G1 X158.236 Y114.207 E0.02153
G1 X157.763 Y114.687 E0.02110
G1 X157.261 Y115.033 E0.01914
G1 X156.614 Y115.308 E0.02202
G1 X150.277 Y116.233 E0.20080
G1 X141.576 Y117.331 E0.27500
G1 X132.841 Y118.255 E0.27539
G1 X124.143 Y118.934 E0.27357
G1 X117.836 Y119.195 E0.19791
G1 X114.014 Y119.207 E0.11984
G1 X110.241 Y119.063 E0.11837
G1 X107.104 Y118.773 E0.09879
G1 X103.945 Y118.258 E0.10035
G1 X101.646 Y117.683 E0.07433
G1 X99.211 Y116.798 E0.08121
G1 X97.217 Y115.759 E0.07050
G1 X95.752 Y114.717 E0.05639
G1 X94.808 Y113.857 E0.04005
G1 X93.981 Y112.923 E0.03911
G1 X93.380 Y112.092 E0.03215
G1 X92.749 Y111.008 E0.03933
G1 X92.148 Y109.620 E0.04744
G1 X91.793 Y108.479 E0.03745
G1 X91.379 Y106.149 E0.07421
G1 X91.305 Y104.985 E0.03658
G1 X91.393 Y103.716 E0.03988
G1 X91.586 Y102.428 E0.04083
G1 X91.889 Y101.172 E0.04052
G1 X92.296 Y99.989 E0.03922
G1 X92.826 Y98.845 E0.03953
G1 X93.310 Y98.015 E0.03012
G1 X94.070 Y96.966 E0.04062
G1 X94.703 Y96.250 E0.02996
G1 X95.622 Y95.391 E0.03946
G1 X97.357 Y94.156 E0.06676
G1 X98.610 Y93.479 E0.04465
G1 X99.724 Y92.986 E0.03819
G1 X101.947 Y92.229 E0.07365
G1 X104.680 Y91.597 E0.08796
G1 X107.695 Y91.159 E0.09552
G1 X111.176 Y90.883 E0.10947
G1 X114.992 Y90.783 E0.11969
G1 X118.600 Y90.823 E0.11315
G1 X123.368 Y91.021 E0.14961
G1 X129.123 Y91.419 E0.18087
G1 X134.854 Y91.940 E0.18045
G1 X142.470 Y92.774 E0.24021
G1 X150.062 Y93.737 E0.23995
G1 X156.187 Y94.593 E0.19392
G1 X157.167 Y94.928 E0.03246
G1 F8640.000
G1 X157.869 Y95.408 E-0.19649
G1 X158.479 Y96.136 E-0.21926
G1 X158.881 Y97.025 E-0.22521
G1 X158.976 Y97.532 E-0.11904
G1 E-0.04000 F2100.00000
G1 Z0.800 F10800.000
G1 X158.248 Y93.588
G1 Z0.200
G1 E0.80000 F2100.00000
G1 F1200.000
G1 X159.284 Y94.384 E0.04096
G1 X160.082 Y95.383 E0.04008
G1 X160.615 Y96.552 E0.04030
G1 X160.854 Y97.833 E0.04085
G1 X160.872 Y111.928 E0.44195
G1 X160.690 Y113.191 E0.04000
G1 X160.210 Y114.391 E0.04054
G1 X158.929 Y115.943 E0.06308
G1 X157.910 Y116.590 E0.03785
G1 X156.798 Y116.974 E0.03688
G1 X150.508 Y117.876 E0.19923
G1 X146.135 Y118.448 E0.13830
G1 X141.749 Y118.981 E0.13850
G1 X135.217 Y119.691 E0.20603
G1 X130.517 Y120.129 E0.14800
G1 X127.984 Y120.334 E0.07968
G1 X124.245 Y120.590 E0.11750
G1 X121.718 Y120.725 E0.07934
G1 X119.153 Y120.822 E0.08048
G1 X116.577 Y120.872 E0.08078
G1 X114.016 Y120.866 E0.08032
G1 X111.418 Y120.789 E0.08148
G1 X108.868 Y120.623 E0.08012
G1 X107.520 Y120.491 E0.04247
G1 X105.625 Y120.244 E0.05992
G1 X104.231 Y120.006 E0.04436
G1 X102.849 Y119.715 E0.04426
G1 X101.266 Y119.301 E0.05131
G1 X99.702 Y118.783 E0.05165
G1 X98.605 Y118.343 E0.03708
G1 X97.909 Y118.024 E0.02401
G1 X96.943 Y117.522 E0.03411
G1 X96.258 Y117.115 E0.02500
G1 X95.222 Y116.408 E0.03933
G1 X94.589 Y115.907 E0.02530
G1 X93.902 Y115.293 E0.02888
G1 X93.385 Y114.770 E0.02307
G1 X92.902 Y114.225 E0.02283
G1 X92.451 Y113.655 E0.02277
G1 X92.033 Y113.063 E0.02275
G1 X91.637 Y112.430 E0.02339
G1 X91.278 Y111.774 E0.02344
G1 X90.840 Y110.830 E0.03263
G1 X90.561 Y110.108 E0.02428
G1 X90.207 Y108.968 E0.03743
G1 X90.000 Y108.094 E0.02815
G1 X89.818 Y107.053 E0.03315
G1 X89.728 Y106.317 E0.02325
G1 X89.649 Y104.994 E0.04155
G1 X89.743 Y103.545 E0.04551
G1 X89.966 Y102.075 E0.04664
G1 X90.307 Y100.674 E0.04521
G1 X90.769 Y99.341 E0.04421
G1 X91.367 Y98.055 E0.04447
G1 X91.852 Y97.217 E0.03036
G1 X92.187 Y96.710 E0.01907
G1 X92.809 Y95.887 E0.03234
G1 X93.422 Y95.191 E0.02910
G1 X93.925 Y94.686 E0.02235
G1 X94.971 Y93.784 E0.04329
G1 X96.101 Y92.984 E0.04342
G1 X97.288 Y92.290 E0.04310
G1 X98.518 Y91.695 E0.04285
G1 X99.677 Y91.226 E0.03919
G1 X100.382 Y90.977 E0.02345
G1 X101.602 Y90.603 E0.04003
G1 X103.232 Y90.198 E0.05266
G1 X104.901 Y89.873 E0.05331
G1 X106.593 Y89.620 E0.05364
G1 X108.400 Y89.419 E0.05701
G1 X110.201 Y89.278 E0.05664
G1 X112.856 Y89.158 E0.08333
G1 X114.996 Y89.124 E0.06709
G1 X117.395 Y89.139 E0.07522
G1 X119.854 Y89.201 E0.07713
G1 X122.237 Y89.300 E0.07480
G1 X125.409 Y89.483 E0.09960
G1 X129.271 Y89.767 E0.12141
G1 X133.098 Y90.103 E0.12047
G1 X136.934 Y90.485 E0.12087
G1 X140.758 Y90.905 E0.12060
G1 X144.573 Y91.357 E0.12046
G1 X148.397 Y91.842 E0.12087
G1 X156.578 Y92.974 E0.25894
G1 X158.192 Y93.568 E0.05391
G1 X158.043 Y93.906 F10800.000
G1 F1200.000
G1 X159.004 Y94.638 E0.03789
G1 X159.773 Y95.599 E0.03858
G1 X160.262 Y96.685 E0.03734
G1 X160.480 Y97.883 E0.03818
G1 X160.495 Y111.915 E0.43997
G1 X160.331 Y113.075 E0.03671
G1 X159.899 Y114.176 E0.03710
G1 X158.700 Y115.642 E0.05937
G1 X157.764 Y116.241 E0.03484
G1 X156.726 Y116.603 E0.03446
G1 X150.456 Y117.503 E0.19861
G1 X146.088 Y118.074 E0.13811
G1 X141.707 Y118.606 E0.13837
G1 X135.177 Y119.316 E0.20595
G1 X130.483 Y119.754 E0.14783
G1 X127.957 Y119.958 E0.07946
G1 X124.224 Y120.213 E0.11733
G1 X121.700 Y120.348 E0.07925
G1 X119.144 Y120.445 E0.08017
G1 X116.576 Y120.495 E0.08054
G1 X114.019 Y120.489 E0.08017
G1 X111.440 Y120.413 E0.08092
G1 X108.896 Y120.247 E0.07992
G1 X107.560 Y120.116 E0.04208
G1 X105.678 Y119.870 E0.05953
G1 X104.305 Y119.636 E0.04367
G1 X102.941 Y119.349 E0.04371
G1 X101.368 Y118.937 E0.05098
G1 X99.826 Y118.427 E0.05091
G1 X98.749 Y117.995 E0.03639
G1 X98.078 Y117.687 E0.02314
G1 X97.122 Y117.190 E0.03380
G1 X96.455 Y116.794 E0.02432
G1 X95.440 Y116.100 E0.03855
G1 X94.836 Y115.622 E0.02415
G1 X94.166 Y115.024 E0.02815
G1 X93.664 Y114.516 E0.02240
G1 X93.195 Y113.986 E0.02219
G1 X92.756 Y113.433 E0.02212
G1 X92.349 Y112.858 E0.02208
G1 X91.960 Y112.235 E0.02305
G1 X91.612 Y111.599 E0.02273
G1 X91.185 Y110.677 E0.03185
G1 X90.915 Y109.978 E0.02350
G1 X90.569 Y108.862 E0.03663
G1 X90.370 Y108.024 E0.02701
G1 X90.191 Y106.993 E0.03282
G1 X90.104 Y106.288 E0.02227
G1 X90.026 Y105.006 E0.04026
G1 X90.119 Y103.578 E0.04488
G1 X90.337 Y102.139 E0.04562
G1 X90.666 Y100.789 E0.04359
G1 X91.115 Y99.492 E0.04304
G1 X91.698 Y98.237 E0.04337
G1 X92.175 Y97.411 E0.02991
G1 X92.498 Y96.923 E0.01835
G1 X93.096 Y96.131 E0.03112
G1 X93.701 Y95.444 E0.02869
G1 X94.177 Y94.966 E0.02114
G1 X95.196 Y94.086 E0.04222
G1 X96.299 Y93.305 E0.04236
G1 X97.459 Y92.627 E0.04215
G1 X98.665 Y92.042 E0.04202
G1 X99.806 Y91.580 E0.03860
G1 X100.496 Y91.336 E0.02295
G1 X101.698 Y90.968 E0.03942
G1 X103.309 Y90.567 E0.05204
G1 X104.969 Y90.244 E0.05302
G1 X106.638 Y89.994 E0.05292
G1 X108.433 Y89.795 E0.05661
G1 X110.221 Y89.654 E0.05625
G1 X112.871 Y89.534 E0.08315
G1 X114.996 Y89.501 E0.06664
G1 X117.391 Y89.516 E0.07510
G1 X119.840 Y89.577 E0.07682
G1 X122.220 Y89.677 E0.07470
G1 X125.383 Y89.859 E0.09932
G1 X129.239 Y90.143 E0.12124
G1 X133.064 Y90.478 E0.12039
G1 X136.894 Y90.860 E0.12068
G1 X140.716 Y91.279 E0.12054
G1 X144.526 Y91.731 E0.12031
G1 X148.347 Y92.216 E0.12075
G1 X156.507 Y93.345 E0.25829
G1 X157.986 Y93.885 E0.04939
G1 X157.839 Y94.224 F10800.000
G1 F1200.000
G1 X158.726 Y94.894 E0.03485
G1 X159.439 Y95.777 E0.03558
G1 X159.908 Y96.818 E0.03583
G1 X160.106 Y97.932 E0.03548
G1 X160.118 Y111.903 E0.43803
G1 X159.971 Y112.961 E0.03349
G1 X159.587 Y113.963 E0.03366
G1 X158.469 Y115.342 E0.05564
G1 X157.617 Y115.893 E0.03183
G1 X156.654 Y116.233 E0.03202
G1 X150.403 Y117.129 E0.19799
G1 X146.042 Y117.700 E0.13792
G1 X141.666 Y118.231 E0.13823
G1 X135.138 Y118.941 E0.20587
G1 X130.449 Y119.378 E0.14766
G1 X127.930 Y119.582 E0.07924
G1 X124.202 Y119.837 E0.11717
G1 X121.681 Y119.972 E0.07916
G1 X119.135 Y120.068 E0.07987
G1 X116.575 Y120.118 E0.08029
G1 X114.023 Y120.112 E0.08003
G1 X111.461 Y120.036 E0.08037
G1 X108.924 Y119.871 E0.07972
G1 X107.600 Y119.741 E0.04170
G1 X105.730 Y119.497 E0.05913
G1 X104.379 Y119.267 E0.04298
G1 X103.032 Y118.983 E0.04317
G1 X101.469 Y118.574 E0.05065
G1 X99.951 Y118.071 E0.05016
G1 X98.894 Y117.646 E0.03570
G1 X98.248 Y117.351 E0.02227
G1 X97.301 Y116.857 E0.03348
G1 X96.653 Y116.473 E0.02363
G1 X95.658 Y115.793 E0.03778
G1 X95.083 Y115.337 E0.02300
G1 X94.430 Y114.755 E0.02743
G1 X93.942 Y114.262 E0.02174
G1 X93.487 Y113.748 E0.02155
G1 X93.061 Y113.211 E0.02148
G1 X92.666 Y112.654 E0.02141
G1 X92.288 Y112.049 E0.02237
G1 X91.946 Y111.423 E0.02236
G1 X91.529 Y110.525 E0.03105
G1 X91.269 Y109.849 E0.02272
G1 X90.931 Y108.757 E0.03583
G1 X90.741 Y107.954 E0.02588
G1 X90.563 Y106.933 E0.03249
G1 X90.480 Y106.259 E0.02129
G1 X90.403 Y105.019 E0.03896
G1 X90.495 Y103.610 E0.04425
G1 X90.709 Y102.204 E0.04460
G1 X91.026 Y100.903 E0.04199
G1 X91.461 Y99.641 E0.04186
G1 X92.029 Y98.418 E0.04227
G1 X92.499 Y97.605 E0.02946
G1 X92.809 Y97.136 E0.01763
G1 X93.384 Y96.375 E0.02991
G1 X93.980 Y95.698 E0.02829
G1 X94.429 Y95.247 E0.01994
G1 X95.422 Y94.389 E0.04115
G1 X96.497 Y93.627 E0.04131
G1 X97.630 Y92.963 E0.04120
G1 X98.812 Y92.389 E0.04119
G1 X99.936 Y91.934 E0.03801
G1 X100.611 Y91.696 E0.02244
G1 X101.794 Y91.332 E0.03882
G1 X103.386 Y90.936 E0.05143
G1 X105.037 Y90.615 E0.05274
G1 X106.683 Y90.369 E0.05219
G1 X108.465 Y90.171 E0.05622
G1 X110.242 Y90.031 E0.05586
G1 X112.885 Y89.911 E0.08296
G1 X114.995 Y89.878 E0.06618
G1 X117.386 Y89.893 E0.07497
G1 X119.826 Y89.954 E0.07650
G1 X122.203 Y90.053 E0.07461
G1 X125.357 Y90.235 E0.09904
G1 X129.208 Y90.518 E0.12107
G1 X133.030 Y90.854 E0.12032
G1 X136.854 Y91.235 E0.12049
G1 X140.674 Y91.654 E0.12049
G1 X144.480 Y92.106 E0.12016
G1 X148.296 Y92.589 E0.12062
G1 X156.436 Y93.716 E0.25764
G1 X157.782 Y94.204 E0.04491
G1 X157.634 Y94.542 F10800.000
G1 F1200.000
G1 X158.479 Y95.180 E0.03319
G1 X159.129 Y95.992 E0.03260
G1 X159.554 Y96.949 E0.03283
G1 X159.732 Y97.980 E0.03280
G1 X159.741 Y111.890 E0.43615
G1 X159.610 Y112.849 E0.03035
G1 X159.273 Y113.752 E0.03020
G1 X158.237 Y115.043 E0.05190
G1 X157.469 Y115.546 E0.02880
G1 X156.581 Y115.862 E0.02953
G1 X150.351 Y116.756 E0.19735
G1 X145.996 Y117.326 E0.13773
G1 X141.624 Y117.857 E0.13809
G1 X135.102 Y118.566 E0.20569
G1 X130.418 Y119.003 E0.14750
G1 X127.903 Y119.206 E0.07909
G1 X124.178 Y119.460 E0.11709
G1 X121.662 Y119.595 E0.07899
G1 X119.123 Y119.692 E0.07968
G1 X116.570 Y119.741 E0.08006
G1 X114.026 Y119.735 E0.07975
G1 X111.475 Y119.659 E0.08002
G1 X108.957 Y119.495 E0.07912
G1 X107.646 Y119.367 E0.04132
G1 X105.790 Y119.125 E0.05868
G1 X104.453 Y118.897 E0.04252
G1 X103.123 Y118.617 E0.04262
G1 X101.570 Y118.211 E0.05031
G1 X100.075 Y117.715 E0.04941
G1 X99.039 Y117.298 E0.03501
G1 X98.418 Y117.014 E0.02141
G1 X97.480 Y116.525 E0.03317
G1 X96.861 Y116.158 E0.02258
G1 X95.887 Y115.493 E0.03698
G1 X95.330 Y115.052 E0.02226
G1 X94.686 Y114.477 E0.02707
G1 X94.214 Y114.001 E0.02102
G1 X93.772 Y113.502 E0.02090
G1 X93.360 Y112.981 E0.02083
G1 X92.977 Y112.441 E0.02076
G1 X92.611 Y111.854 E0.02169
G1 X92.280 Y111.248 E0.02165
G1 X91.879 Y110.383 E0.02989
G1 X91.627 Y109.731 E0.02191
G1 X91.293 Y108.652 E0.03543
G1 X91.111 Y107.883 E0.02475
G1 X90.935 Y106.873 E0.03216
G1 X90.855 Y106.219 E0.02066
G1 X90.780 Y105.008 E0.03805
G1 X90.871 Y103.644 E0.04286
G1 X91.080 Y102.269 E0.04358
G1 X91.390 Y101.001 E0.04093
G1 X91.815 Y99.774 E0.04073
G1 X92.367 Y98.585 E0.04111
G1 X92.816 Y97.808 E0.02814
G1 X93.114 Y97.358 E0.01690
G1 X93.681 Y96.608 E0.02950
G1 X94.259 Y95.951 E0.02744
G1 X94.681 Y95.528 E0.01874
G1 X95.647 Y94.691 E0.04007
G1 X96.708 Y93.939 E0.04076
G1 X97.814 Y93.292 E0.04019
G1 X98.971 Y92.731 E0.04030
G1 X100.074 Y92.285 E0.03728
G1 X100.725 Y92.055 E0.02168
G1 X101.890 Y91.697 E0.03821
G1 X103.463 Y91.306 E0.05081
G1 X105.105 Y90.986 E0.05246
G1 X106.729 Y90.743 E0.05147
G1 X108.498 Y90.546 E0.05582
G1 X110.262 Y90.407 E0.05547
G1 X112.899 Y90.288 E0.08278
G1 X114.995 Y90.255 E0.06573
G1 X117.382 Y90.270 E0.07485
G1 X119.811 Y90.331 E0.07619
G1 X122.186 Y90.430 E0.07451
G1 X125.330 Y90.612 E0.09876
G1 X129.176 Y90.894 E0.12090
G1 X132.996 Y91.229 E0.12024
G1 X136.814 Y91.610 E0.12030
G1 X140.632 Y92.029 E0.12043
G1 X144.433 Y92.480 E0.12001
G1 X148.245 Y92.963 E0.12050
G1 X156.365 Y94.087 E0.25700
G1 X157.578 Y94.522 E0.04041
G1 F8640.000
G1 X158.479 Y95.180 E-0.25769
G1 X159.129 Y95.992 E-0.24010
G1 X159.554 Y96.949 E-0.24176
G1 X159.569 Y97.036 E-0.02045
G1 E-0.04000 F2100.00000
G1 Z0.800 F10800.000
G1 X91.408 Y107.392
G1 Z0.200
G1 E0.80000 F2100.00000
G1 F1200.000
G1 X91.488 Y107.839 E0.01423
G1 F8640.000
G1 X91.408 Y107.392 E-0.10481
G1 E-0.69519 F2100.00000
G1 Z0.800 F10800.000
G1 X100.174 Y117.349
G1 Z0.200
G1 E0.80000 F2100.00000
G1 F1200.000
G1 X100.230 Y117.369 E0.00187
G1 F8640.000
G1 X100.174 Y117.349 E-0.01379
G1 E-0.78621 F2100.00000
G1 Z0.800 F10800.000
G1 X157.909 Y114.808
G1 Z0.200
G1 E0.80000 F2100.00000
G1 F1200.000
G1 X158.005 Y114.745 E0.00361
G1 X158.146 Y114.567 E0.00710
G1 X158.604 Y113.990 F10800.000
G1 F1200.000
G1 X158.958 Y113.543 E0.01788
G1 X159.248 Y112.741 E0.02673
G1 X159.364 Y111.878 E0.02730
G1 X159.357 Y98.026 E0.43432
G1 X159.199 Y97.080 E0.03008
G1 X158.794 Y96.169 E0.03127
G1 X158.202 Y95.436 E0.02953
G1 X158.034 Y95.311 E0.00656
G1 X157.513 Y94.922 F10800.000
G1 F1200.000
G1 X157.425 Y94.859 E0.00339
G1 X157.226 Y95.180 F10800.000
G1 F1200.000
G1 X156.224 Y94.829 E0.03327
G1 X148.144 Y93.710 E0.25576
G1 X144.340 Y93.228 E0.12025
G1 X140.548 Y92.778 E0.11971
G1 X136.734 Y92.360 E0.12032
G1 X132.928 Y91.980 E0.11991
G1 X129.113 Y91.646 E0.12009
G1 X125.278 Y91.364 E0.12055
G1 X122.151 Y91.184 E0.09820
G1 X119.783 Y91.085 E0.07432
G1 X117.374 Y91.024 E0.07555
G1 X114.995 Y91.009 E0.07461
G1 X112.916 Y91.042 E0.06517
G1 X110.315 Y91.160 E0.08166
G1 X108.575 Y91.297 E0.05471
G1 X106.833 Y91.490 E0.05496
G1 X105.241 Y91.728 E0.05047
G1 X103.636 Y92.040 E0.05128
G1 X102.083 Y92.426 E0.05018
G1 X100.969 Y92.769 E0.03652
G1 X100.348 Y92.988 E0.02065
G1 X99.266 Y93.426 E0.03662
G1 X98.157 Y93.964 E0.03864
G1 X97.104 Y94.581 E0.03828
G1 X96.099 Y95.295 E0.03863
G1 X95.186 Y96.088 E0.03792
G1 X94.810 Y96.467 E0.01674
G1 X94.274 Y97.074 E0.02539
G1 X93.723 Y97.803 E0.02866
G1 X93.452 Y98.214 E0.01543
G1 X93.043 Y98.919 E0.02554
G1 X92.521 Y100.039 E0.03876
G1 X92.113 Y101.214 E0.03899
G1 X91.817 Y102.432 E0.03929
G1 X91.622 Y103.711 E0.04056
G1 X91.535 Y104.986 E0.04008
G1 X91.606 Y106.139 E0.03623
G1 X91.680 Y106.753 E0.01940
G1 X91.780 Y107.327 E0.01826
G1 X91.858 Y107.769 F10800.000
G1 F1200.000
G1 X92.017 Y108.441 E0.02165
G1 X92.344 Y109.495 E0.03461
G1 X92.578 Y110.099 E0.02030
G1 X92.947 Y110.897 E0.02759
