; generated by PrusaSlicer 2.2.0+win64 on 2022-01-15 at 13:04:03 UTC

; 

; external perimeters extrusion width = 0.60mm
; perimeters extrusion width = 0.50mm
; infill extrusion width = 0.50mm
; solid infill extrusion width = 0.50mm
; top infill extrusion width = 0.45mm
; first layer extrusion width = 0.42mm

; external perimeters extrusion width = 0.60mm
; perimeters extrusion width = 0.50mm
; infill extrusion width = 0.50mm
; solid infill extrusion width = 0.50mm
; top infill extrusion width = 0.45mm
; first layer extrusion width = 0.42mm

; external perimeters extrusion width = 0.60mm
; perimeters extrusion width = 0.50mm
; infill extrusion width = 0.50mm
; solid infill extrusion width = 0.50mm
; top infill extrusion width = 0.45mm
; first layer extrusion width = 0.42mm

M73 P0 R30
M73 Q0 S34
M201 X2000 Y2000 Z1000 E5000 ; sets maximum accelerations, mm/sec^2
M203 X200 Y200 Z12 E120 ; sets maximum feedrates, mm/sec
M204 P2000 R2000 T2000 ; sets acceleration (P, T) and retract acceleration (R), mm/sec^2
M205 X8.00 Y8.00 Z0.40 E4.50 ; sets the jerk limits, mm/sec
M205 S0 T0 ; sets the minimum extruding and travel feed rate, mm/sec
M107
M862.3 P "MK3S" ; printer model check
M862.1 P0.4 ; nozzle diameter check
M115 U3.10.0 ; tell printer latest fw version
G90 ; use absolute coordinates
M83 ; extruder relative mode
M104 S225 ; set extruder temp
M140 S80 ; set bed temp
M190 S80 ; wait for bed temp
M109 S225 ; wait for extruder temp
G28 W ; home all without mesh bed level
G80 ; mesh bed leveling
G1 Y-3.0 F1000.0 ; go outside print area
G92 E0.0
G1 X60.0 E9.0 F1000.0 ; intro line
M73 Q0 S34
M73 P0 R30
G1 X100.0 E12.5 F1000.0 ; intro line
G92 E0.0
M221 S95

; Don't change E values below. Excessive value can damage the printer.

M907 E538 ; set extruder motor current
G21 ; set units to millimeters
G90 ; use absolute coordinates
M83 ; use relative distances for extrusion
M900 K0.05 ; Filament gcode LA 1.5
M900 K30 ; Filament gcode LA 1.0
;BEFORE_LAYER_CHANGE
G92 E0.0
;0.2


G1 E-0.60000 F3600.00000
G1 Z0.200 F10800.000
;AFTER_LAYER_CHANGE
;0.2
G1 X107.874 Y74.372
G1 E0.60000 F3600.00000
M204 S1000
G1 X109.284 Y72.582 E0.07144
G1 X110.979 Y70.915 E0.07454
G1 X129.642 Y55.657 E0.75582
G1 X130.323 Y55.200 E0.02573
G1 X130.975 Y54.905 E0.02244
G1 X131.779 Y54.698 E0.02604
G1 X132.491 Y54.643 E0.02239
G1 X133.237 Y54.712 E0.02348
G1 X134.057 Y54.939 E0.02668
G1 X134.823 Y55.320 E0.02681
G1 X135.431 Y55.768 E0.02369
G1 X143.203 Y64.120 E0.35772
G1 X143.568 Y64.705 E0.02161
G1 X143.871 Y65.420 E0.02437
G1 X144.033 Y66.086 E0.02146
G1 X144.090 Y66.745 E0.02076
G1 X144.048 Y67.403 E0.02068
G1 X143.899 Y68.076 E0.02159
G1 X143.629 Y68.754 E0.02289
G1 X143.261 Y69.372 E0.02255
G1 X126.445 Y87.273 E0.77009
G1 X124.696 Y88.846 E0.07375
G1 X122.819 Y90.149 E0.07165
G1 X121.038 Y91.101 E0.06333
G1 X119.059 Y91.890 E0.06680
G1 X116.939 Y92.458 E0.06881
G1 X114.766 Y92.772 E0.06884
G1 X112.455 Y92.821 E0.07247
G1 X110.382 Y92.616 E0.06532
G1 X107.836 Y92.032 E0.08190
G1 X107.227 Y91.790 E0.02055
G1 X106.664 Y91.458 E0.02049
G1 X106.123 Y91.001 E0.02222
G1 X105.672 Y90.459 E0.02210
G1 X105.323 Y89.847 E0.02209
G1 X105.078 Y89.174 E0.02246
G1 X104.816 Y87.875 E0.04154
G1 X104.640 Y86.450 E0.04504
G1 X104.576 Y85.061 E0.04359
G1 X104.618 Y83.639 E0.04460
G1 X104.954 Y81.186 E0.07762
G1 X105.584 Y78.887 E0.07474
G1 X106.584 Y76.531 E0.08025
G1 X107.843 Y74.423 E0.07698
M204 S2000
G1 F8640.000
G1 X108.731 Y73.289 E-0.57000
G1 E-0.03000 F3600.00000
G1 X143.713 Y66.748 F10800.000
G1 E0.60000 F3600.00000
M204 S1000
G1 X143.539 Y67.965 E0.03856
G1 X143.288 Y68.592 E0.02115
G1 X142.946 Y69.164 E0.02092
G1 X126.176 Y87.009 E0.76779
G1 X124.465 Y88.548 E0.07216
G1 X122.633 Y89.821 E0.06996
G1 X120.880 Y90.759 E0.06233
G1 X118.945 Y91.531 E0.06533
G1 X116.863 Y92.089 E0.06758
G1 X114.741 Y92.395 E0.06722
G1 X112.594 Y92.448 E0.06732
G1 X110.449 Y92.245 E0.06757
G1 X107.956 Y91.674 E0.08017
G1 X106.869 Y91.140 E0.03800
G1 X106.375 Y90.719 E0.02034
G1 X105.956 Y90.205 E0.02080
G1 X105.613 Y89.572 E0.02257
G1 X105.411 Y88.952 E0.02045
G1 X105.141 Y87.508 E0.04605
G1 X104.993 Y86.124 E0.04364
G1 X104.953 Y84.751 E0.04308
G1 X105.018 Y83.367 E0.04345
G1 X105.390 Y80.952 E0.07662
G1 X106.087 Y78.602 E0.07684
G1 X107.004 Y76.539 E0.07079
G1 X108.278 Y74.452 E0.07666
G1 X109.659 Y72.730 E0.06923
G1 X111.225 Y71.201 E0.06863
G1 X129.876 Y55.953 E0.75532
G1 X130.506 Y55.530 E0.02381
G1 X131.102 Y55.260 E0.02050
G1 X131.844 Y55.070 E0.02402
G1 X132.491 Y55.020 E0.02037
G1 X133.167 Y55.082 E0.02127
G1 X133.924 Y55.292 E0.02464
G1 X134.632 Y55.645 E0.02481
G1 X135.193 Y56.060 E0.02185
G1 X142.893 Y64.334 E0.35441
G1 X143.231 Y64.874 E0.01995
G1 X143.512 Y65.538 E0.02263
G1 X143.703 Y66.689 E0.03658
M204 S2000
; printing object 3DBenchy.stl id:1 copy 0
G1 F8640.000
G1 X143.539 Y67.965 E-0.50948
G1 X143.482 Y68.107 E-0.06052
G1 E-0.03000 F3600.00000
G1 X118.559 Y76.983 F10800.000
G1 E0.60000 F3600.00000
M204 S1000
G1 X118.249 Y76.790 E0.01145
G1 X118.032 Y76.539 E0.01041
G1 X117.756 Y76.144 E0.01510
G1 X117.641 Y75.941 E0.00732
G1 X117.576 Y75.696 E0.00793
G1 X117.569 Y75.444 E0.00792
G1 X117.612 Y75.210 E0.00744
G1 X117.713 Y74.961 E0.00843
G1 X117.857 Y74.753 E0.00796
G1 X118.035 Y74.576 E0.00786
G1 X118.242 Y74.435 E0.00785
G1 X118.474 Y74.336 E0.00790
G1 X118.722 Y74.279 E0.00799
G1 X118.977 Y74.280 E0.00801
G1 X119.225 Y74.331 E0.00794
G1 X119.452 Y74.439 E0.00789
G1 X119.656 Y74.594 E0.00801
G1 X119.996 Y75.103 E0.01920
G1 X120.080 Y75.302 E0.00676
G1 X120.128 Y75.514 E0.00684
G1 X120.127 Y76.122 E0.01906
G1 X120.010 Y76.470 E0.01150
G1 X119.856 Y76.679 E0.00815
G1 X119.667 Y76.848 E0.00794
G1 X119.443 Y76.971 E0.00802
G1 X119.194 Y77.044 E0.00813
G1 X118.941 Y77.058 E0.00795
G1 X118.617 Y76.999 E0.01031
M204 S2000
G1 F8640.000
G1 X118.249 Y76.790 E-0.16747
G1 X118.032 Y76.539 E-0.13147
G1 X117.756 Y76.144 E-0.19068
G1 X117.656 Y75.967 E-0.08037
G1 E-0.03000 F3600.00000
G1 X118.611 Y81.812 F10800.000
G1 E0.60000 F3600.00000
M204 S1000
G1 X118.451 Y81.932 E0.00626
G1 X118.209 Y82.015 E0.00803
G1 X117.896 Y82.023 E0.00982
G1 X117.694 Y81.944 E0.00679
G1 X117.446 Y81.741 E0.01004
G1 X117.237 Y81.449 E0.01126
G1 X117.058 Y80.809 E0.02084
G1 X116.912 Y80.107 E0.02248
G1 X116.863 Y79.972 E0.00451
G1 X116.803 Y79.885 E0.00331
G1 X116.684 Y79.814 E0.00434
G1 X115.435 Y79.456 E0.04073
G1 X115.162 Y79.350 E0.00919
G1 X114.989 Y79.244 E0.00635
G1 X114.780 Y79.045 E0.00905
G1 X114.670 Y78.875 E0.00634
G1 X114.602 Y78.684 E0.00636
G1 X114.590 Y78.417 E0.00839
G1 X114.639 Y78.233 E0.00596
G1 X114.723 Y78.066 E0.00586
G1 X114.836 Y77.920 E0.00579
G1 X114.994 Y77.785 E0.00650
G1 X115.251 Y77.674 E0.00879
G1 X115.516 Y77.665 E0.00830
G1 X115.781 Y77.735 E0.00858
G1 X116.099 Y77.911 E0.01143
G1 X116.235 Y78.022 E0.00548
G1 X116.307 Y78.047 E0.00239
G1 X116.513 Y77.964 E0.00698
G1 X116.539 Y77.975 E0.00086
G1 X116.597 Y77.839 E0.00466
G1 X116.566 Y77.733 E0.00346
G1 X116.501 Y77.643 E0.00347
G1 X116.362 Y77.339 E0.01047
G1 X116.302 Y77.108 E0.00747
G1 X116.289 Y76.831 E0.00872
G1 X116.376 Y76.583 E0.00823
G1 X116.513 Y76.422 E0.00665
G1 X116.729 Y76.295 E0.00784
G1 X116.914 Y76.245 E0.00601
G1 X117.200 Y76.261 E0.00899
G1 X117.464 Y76.427 E0.00978
G1 X117.656 Y76.668 E0.00964
G1 X117.881 Y77.052 E0.01397
G1 X118.138 Y77.782 E0.02425
G1 X118.197 Y78.029 E0.00797
G1 X118.253 Y78.477 E0.01416
G1 X118.658 Y78.577 E0.01308
G1 X119.775 Y78.939 E0.03680
G1 X120.034 Y79.080 E0.00926
G1 X120.181 Y79.200 E0.00592
G1 X120.331 Y79.397 E0.00780
G1 X120.401 Y79.589 E0.00639
G1 X120.413 Y79.850 E0.00819
G1 X120.364 Y80.038 E0.00610
G1 X120.283 Y80.215 E0.00609
G1 X120.105 Y80.431 E0.00879
G1 X119.941 Y80.529 E0.00598
G1 X119.775 Y80.583 E0.00546
G1 X119.591 Y80.601 E0.00580
G1 X119.329 Y80.558 E0.00833
G1 X119.120 Y80.480 E0.00698
G1 X118.935 Y80.348 E0.00712
G1 X118.751 Y80.273 E0.00623
G1 X118.618 Y80.315 E0.00437
G1 X118.678 Y80.480 E0.00551
G1 X118.546 Y80.501 E0.00421
G1 X118.591 Y80.633 E0.00437
G1 X118.741 Y80.894 E0.00944
G1 X118.794 Y81.126 E0.00746
G1 X118.788 Y81.404 E0.00873
G1 X118.717 Y81.649 E0.00800
G1 X118.644 Y81.762 E0.00421
M204 S2000
G1 F8640.000
G1 X118.451 Y81.932 E-0.10162
G1 X118.209 Y82.015 E-0.10142
G1 X117.896 Y82.023 E-0.12397
G1 X117.694 Y81.944 E-0.08569
G1 X117.446 Y81.741 E-0.12669
G1 X117.401 Y81.678 E-0.03061
G1 E-0.03000 F3600.00000
G1 X117.444 Y82.391 F10800.000
G1 E0.60000 F3600.00000
M204 S1000
G1 X117.469 Y82.588 E0.00622
G1 X117.434 Y82.775 E0.00596
G1 X117.318 Y82.995 E0.00779
G1 X117.192 Y83.142 E0.00607
G1 X117.033 Y83.261 E0.00623
G1 X116.808 Y83.364 E0.00775
G1 X116.617 Y83.408 E0.00616
G1 X116.424 Y83.412 E0.00606
G1 X116.164 Y83.349 E0.00838
G1 X115.913 Y83.220 E0.00885
G1 X115.422 Y82.875 E0.01882
G1 X114.942 Y82.487 E0.01935
G1 X114.461 Y82.246 E0.01687
G1 X114.427 Y82.268 E0.00126
G1 X114.405 Y82.334 E0.00218
G1 X114.608 Y82.740 E0.01424
G1 X115.013 Y83.287 E0.02133
G1 X115.200 Y83.606 E0.01160
G1 X115.369 Y84.060 E0.01518
G1 X115.412 Y84.457 E0.01252
G1 X115.364 Y84.724 E0.00850
G1 X115.277 Y84.884 E0.00572
G1 X115.153 Y85.018 E0.00572
G1 X114.923 Y85.136 E0.00811
G1 X114.661 Y85.163 E0.00825
G1 X114.478 Y85.130 E0.00583
G1 X114.300 Y85.048 E0.00613
G1 X114.029 Y84.831 E0.01092
G1 X113.746 Y84.475 E0.01425
G1 X113.169 Y83.272 E0.04181
G1 X112.203 Y81.034 E0.07644
G1 X111.659 Y79.691 E0.04546
G1 X111.479 Y79.174 E0.01715
G1 X111.391 Y78.810 E0.01175
G1 X111.363 Y78.493 E0.00998
G1 X111.397 Y78.181 E0.00982
G1 X111.494 Y77.870 E0.01024
G1 X111.717 Y77.448 E0.01494
G1 X111.912 Y77.193 E0.01006
G1 X112.192 Y76.966 E0.01131
G1 X112.504 Y76.863 E0.01030
G1 X112.837 Y76.885 E0.01045
G1 X113.185 Y77.038 E0.01191
G1 X113.394 Y77.220 E0.00871
G1 X113.503 Y77.377 E0.00599
G1 X113.566 Y77.547 E0.00567
G1 X113.580 Y77.735 E0.00590
G1 X113.548 Y77.906 E0.00546
G1 X113.483 Y78.064 E0.00536
G1 X113.215 Y78.524 E0.01670
G1 X113.184 Y78.638 E0.00370
G1 X113.179 Y78.761 E0.00385
G1 X113.224 Y78.969 E0.00669
G1 X113.453 Y79.535 E0.01912
G1 X113.601 Y79.993 E0.01510
G1 X113.655 Y80.085 E0.00335
G1 X113.789 Y80.181 E0.00517
G1 X114.402 Y80.446 E0.02093
G1 X116.751 Y81.622 E0.08236
G1 X116.953 Y81.770 E0.00786
G1 X117.214 Y82.041 E0.01179
G1 X117.364 Y82.226 E0.00747
G1 X117.418 Y82.338 E0.00389
M204 S2000
G1 F8640.000
G1 X117.469 Y82.588 E-0.10131
G1 X117.434 Y82.775 E-0.07524
G1 X117.318 Y82.995 E-0.09838
G1 X117.192 Y83.142 E-0.07666
G1 X117.033 Y83.261 E-0.07861
G1 X116.808 Y83.364 E-0.09778
G1 X116.705 Y83.388 E-0.04202
G1 E-0.03000 F3600.00000
G1 X113.217 Y84.795 F10800.000
G1 E0.60000 F3600.00000
M204 S1000
G1 X113.398 Y84.819 E0.00573
G1 X113.594 Y84.939 E0.00720
G1 X113.884 Y85.231 E0.01292
G1 X113.980 Y85.367 E0.00522
G1 X114.055 Y85.539 E0.00587
G1 X114.053 Y85.795 E0.00804
G1 X113.995 Y85.968 E0.00571
G1 X113.865 Y86.194 E0.00818
G1 X113.710 Y86.386 E0.00776
G1 X112.194 Y87.808 E0.06516
G1 X111.966 Y87.972 E0.00881
G1 X111.722 Y88.062 E0.00816
G1 X111.530 Y88.071 E0.00601
G1 X111.344 Y88.033 E0.00597
G1 X111.060 Y87.882 E0.01007
G1 X110.906 Y87.747 E0.00643
G1 X110.776 Y87.589 E0.00640
G1 X110.624 Y87.300 E0.01024
G1 X110.521 Y86.882 E0.01351
G1 X110.379 Y85.802 E0.03415
G1 X110.353 Y85.362 E0.01381
G1 X110.388 Y84.875 E0.01532
G1 X110.264 Y84.751 E0.00550
G1 X110.254 Y84.615 E0.00428
G1 X110.157 Y84.770 E0.00571
G1 X109.964 Y84.775 E0.00604
G1 X109.914 Y84.952 E0.00577
G1 X109.485 Y85.276 E0.01686
G1 X109.221 Y85.372 E0.00881
G1 X108.978 Y85.374 E0.00762
G1 X108.818 Y85.332 E0.00518
G1 X108.654 Y85.231 E0.00603
G1 X108.404 Y84.839 E0.01460
G1 X108.338 Y84.631 E0.00684
G1 X108.349 Y84.443 E0.00591
G1 X108.394 Y84.314 E0.00428
G1 X108.574 Y83.982 E0.01185
G1 X108.801 Y83.638 E0.01290
G1 X109.046 Y83.354 E0.01177
G1 X109.773 Y82.665 E0.03139
G1 X110.190 Y82.238 E0.01873
G1 X110.419 Y82.087 E0.00859
G1 X110.699 Y82.022 E0.00903
G1 X110.857 Y82.030 E0.00494
G1 X111.062 Y82.085 E0.00667
G1 X111.232 Y82.170 E0.00594
G1 X111.391 Y82.286 E0.00619
G1 X111.589 Y82.504 E0.00922
G1 X111.761 Y82.846 E0.01201
G1 X111.862 Y83.292 E0.01432
G1 X111.978 Y84.320 E0.03244
G1 X111.990 Y84.766 E0.01399
G1 X111.927 Y85.395 E0.01985
G1 X111.941 Y85.516 E0.00382
G1 X112.040 Y85.621 E0.00451
G1 X112.219 Y85.589 E0.00570
G1 X112.323 Y85.476 E0.00480
G1 X112.447 Y85.264 E0.00772
G1 X112.645 Y85.054 E0.00902
G1 X112.810 Y84.923 E0.00661
G1 X113.046 Y84.816 E0.00811
G1 X113.158 Y84.802 E0.00354
M204 S2000
G1 F8640.000
G1 X113.398 Y84.819 E-0.09547
G1 X113.594 Y84.939 E-0.09086
G1 X113.884 Y85.231 E-0.16307
G1 X113.980 Y85.367 E-0.06585
G1 X114.055 Y85.539 E-0.07409
G1 X114.053 Y85.743 E-0.08066
G1 E-0.03000 F3600.00000
G1 X122.434 Y71.205 F10800.000
G1 E0.60000 F3600.00000
M204 S1000
G1 X122.570 Y71.184 E0.00433
G1 X122.787 Y71.200 E0.00681
G1 X122.962 Y71.257 E0.00578
G1 X123.197 Y71.396 E0.00857
G1 X123.358 Y71.532 E0.00659
G1 X126.286 Y74.702 E0.13532
G1 X126.690 Y75.073 E0.01721
G1 X126.848 Y75.281 E0.00818
G1 X126.924 Y75.490 E0.00697
G1 X126.928 Y75.755 E0.00832
G1 X126.844 Y76.014 E0.00853
G1 X126.668 Y76.284 E0.01013
G1 X126.451 Y76.503 E0.00964
G1 X125.603 Y77.271 E0.03588
G1 X125.177 Y77.617 E0.01720
G1 X124.692 Y77.928 E0.01809
G1 X124.363 Y78.077 E0.01132
G1 X124.139 Y78.145 E0.00733
G1 X123.906 Y78.189 E0.00744
G1 X123.549 Y78.207 E0.01120
G1 X123.229 Y78.180 E0.01009
G1 X122.971 Y78.128 E0.00824
G1 X122.594 Y78.006 E0.01242
G1 X122.338 Y77.890 E0.00881
G1 X121.970 Y77.676 E0.01334
G1 X121.720 Y77.496 E0.00966
G1 X121.339 Y77.163 E0.01584
G1 X121.085 Y76.897 E0.01155
G1 X120.763 Y76.445 E0.01740
G1 X120.618 Y76.114 E0.01133
G1 X120.540 Y75.824 E0.00943
G1 X120.392 Y75.458 E0.01237
G1 X120.280 Y75.084 E0.01225
G1 X120.229 Y74.744 E0.01077
G1 X120.134 Y74.398 E0.01124
G1 X120.114 Y74.121 E0.00871
G1 X120.142 Y73.858 E0.00831
G1 X120.205 Y73.604 E0.00821
G1 X120.364 Y73.270 E0.01161
G1 X120.589 Y72.939 E0.01252
G1 X120.894 Y72.584 E0.01469
G1 X121.158 Y72.318 E0.01174
G1 X121.755 Y71.774 E0.02533
G1 X122.056 Y71.435 E0.01421
G1 X122.260 Y71.276 E0.00812
G1 X122.378 Y71.227 E0.00400
M204 S2000
G1 F8640.000
G1 X122.570 Y71.184 E-0.07797
G1 X122.787 Y71.200 E-0.08594
G1 X122.962 Y71.257 E-0.07294
G1 X123.197 Y71.396 E-0.10813
G1 X123.358 Y71.532 E-0.08320
G1 X123.601 Y71.795 E-0.14181
G1 E-0.03000 F3600.00000
G1 X129.081 Y71.401 F10800.000
G1 E0.60000 F3600.00000
M204 S1000
G1 X129.266 Y71.359 E0.00595
G1 X129.665 Y71.379 E0.01252
G1 X129.875 Y71.458 E0.00702
G1 X130.167 Y71.742 E0.01280
G1 X130.325 Y72.024 E0.01010
G1 X130.358 Y72.312 E0.00910
G1 X130.297 Y72.713 E0.01272
G1 X130.162 Y73.048 E0.01133
G1 X129.965 Y73.373 E0.01192
G1 X129.686 Y73.706 E0.01361
G1 X129.361 Y74.008 E0.01392
G1 X129.008 Y74.261 E0.01362
G1 X128.596 Y74.466 E0.01441
G1 X128.266 Y74.552 E0.01070
G1 X128.045 Y74.573 E0.00697
G1 X127.822 Y74.565 E0.00698
G1 X127.608 Y74.528 E0.00682
G1 X127.399 Y74.459 E0.00689
G1 X127.134 Y74.313 E0.00950
G1 X126.968 Y74.177 E0.00672
G1 X126.733 Y73.921 E0.01089
G1 X126.466 Y73.457 E0.01678
G1 X126.429 Y73.240 E0.00690
G1 X126.469 Y72.741 E0.01572
G1 X126.562 Y72.455 E0.00942
G1 X126.237 Y72.565 E0.01076
G1 X125.994 Y72.563 E0.00762
G1 X125.851 Y72.594 E0.00457
G1 X125.613 Y72.593 E0.00748
G1 X125.168 Y72.417 E0.01500
G1 X124.826 Y72.199 E0.01271
G1 X124.643 Y72.050 E0.00741
G1 X124.353 Y71.705 E0.01414
G1 X124.131 Y71.277 E0.01512
G1 X123.996 Y70.798 E0.01558
G1 X123.967 Y70.546 E0.00795
G1 X123.976 Y70.185 E0.01132
G1 X124.082 Y69.722 E0.01491
G1 X124.286 Y69.294 E0.01487
G1 X124.507 Y68.991 E0.01175
G1 X124.692 Y68.792 E0.00853
G1 X125.114 Y68.425 E0.01753
G1 X125.339 Y68.274 E0.00850
G1 X125.640 Y68.118 E0.01064
G1 X125.941 Y68.015 E0.00997
G1 X126.170 Y67.980 E0.00727
G1 X126.348 Y67.977 E0.00560
G1 X126.618 Y68.029 E0.00860
G1 X126.876 Y68.151 E0.00895
G1 X127.037 Y68.275 E0.00638
G1 X127.174 Y68.424 E0.00633
G1 X127.305 Y68.671 E0.00876
G1 X127.345 Y68.868 E0.00629
G1 X127.338 Y69.056 E0.00590
G1 X127.258 Y69.302 E0.00811
G1 X127.157 Y69.466 E0.00606
G1 X127.029 Y69.610 E0.00603
G1 X126.870 Y69.738 E0.00640
G1 X126.559 Y69.885 E0.01077
