; generated by PrusaSlicer 2.4.0+win64 on 2022-03-02 at 19:36:00 UTC

; 

; external perimeters extrusion width = 0.60mm
; perimeters extrusion width = 0.50mm
; infill extrusion width = 0.50mm
; solid infill extrusion width = 0.50mm
; top infill extrusion width = 0.45mm
; first layer extrusion width = 0.42mm

; external perimeters extrusion width = 0.60mm
; perimeters extrusion width = 0.50mm
; infill extrusion width = 0.50mm
; solid infill extrusion width = 0.50mm
; top infill extrusion width = 0.45mm
; first layer extrusion width = 0.42mm

M73 P0 R184
M73 Q0 S205
M201 X4000 Y4000 Z1000 E5000 ; sets maximum accelerations, mm/sec^2
M203 X200 Y200 Z12 E120 ; sets maximum feedrates, mm/sec
M204 P2000 R2000 T2000 ; sets acceleration (P, T) and retract acceleration (R), mm/sec^2
M205 X8.00 Y8.00 Z0.40 E4.50 ; sets the jerk limits, mm/sec
M205 S0 T0 ; sets the minimum extruding and travel feed rate, mm/sec
M107
;TYPE:Custom
M862.3 P "MK3S" ; printer model check
M862.1 P0.4 ; nozzle diameter check
M115 U3.10.0 ; tell printer latest fw version
G90 ; use absolute coordinates
M83 ; extruder relative mode
M104 S225 ; set extruder temp
M140 S80 ; set bed temp
M190 S80 ; wait for bed temp
M109 S225 ; wait for extruder temp
G28 W ; home all without mesh bed level
G80 ; mesh bed leveling
G1 Y-3.0 F1000.0 ; go outside print area
G92 E0.0
G1 X60.0 E9.0 F1000.0 ; intro line
G1 X100.0 E12.5 F1000.0 ; intro line
G92 E0.0
M221 S95

; Don't change E values below. Excessive value can damage the printer.

M907 E538 ; set extruder motor current
G21 ; set units to millimeters
G90 ; use absolute coordinates
M83 ; use relative distances for extrusion
M900 K0.05 ; Filament gcode LA 1.5
M900 K30 ; Filament gcode LA 1.0
M107
;LAYER_CHANGE
;Z:0.2
;HEIGHT:0.2
;BEFORE_LAYER_CHANGE
G92 E0.0
;0.2


G1 E-.6 F3600
G1 Z.2 F10800
;AFTER_LAYER_CHANGE
;0.2
G1 X67.339 Y58.562
G1 E.6 F3600
M204 S1000
;TYPE:Skirt/Brim
;WIDTH:0.42
G1 X100.152 Y25.749 E1.45499
G1 X101.833 Y25.052 E.05704
G1 X106.141 Y25.052 E.13507
G1 X107.812 Y25.739 E.05664
G1 X162.6 Y79.89 E2.41532
G1 X204.264 Y121.554 E1.84745
G1 X204.961 Y123.234 E.05704
G1 X204.961 Y127.542 E.13507
G1 X204.264 Y129.223 E.05704
G1 X172.557 Y160.93 E1.40595
G1 X146.117 Y181.686 E1.05394
G1 X144.733 Y182.549 E.05115
G1 X142.873 Y183.557 E.06633
G1 X140.57 Y184.26 E.0755
G1 X139.742 Y184.339 E.02606
G1 X114.539 Y182.309 E.79279
G1 X112.752 Y181.934 E.05726
G1 X110.624 Y181.092 E.07173
G1 X108.517 Y179.856 E.0766
G1 X107.19 Y178.934 E.05067
G1 X49.355 Y121.788 E2.54926
G1 X48.437 Y120.463 E.05056
G1 X47.146 Y118.126 E.0837
G1 X46.49 Y116.485 E.05542
G1 X46.34 Y115.846 E.02059
G1 X44.185 Y92.372 E.73908
G1 X44.26 Y91.525 E.02669
G1 X45.44 Y87.606 E.12833
G1 X46.297 Y85.52 E.0707
G1 X46.622 Y84.963 E.02022
G1 X67.302 Y58.609 E1.05034
M204 S2000
;WIPE_START
G1 F8640
G1 X68.32 Y57.59 E-.57
;WIPE_END
G1 E-.03 F3600
G1 X69.784 Y60.24 F10800
G1 E.6 F3600
M204 S1000
G1 X70.466 Y59.202 E.03895
G1 X100.783 Y28.884 E1.34432
G1 X101.693 Y28.26 E.0346
G1 X102.711 Y27.853 E.03437
G1 X105.008 Y27.797 E.07206
G1 X105.964 Y28.114 E.03155
G1 X107.135 Y28.829 E.04305
G1 X119.571 Y41.265 E.55141
G1 X120.305 Y42.42 E.04292
G1 X120.697 Y43.783 E.04445
G1 X120.688 Y45.184 E.04394
G1 X120.274 Y46.556 E.04493
G1 X119.551 Y47.662 E.04142
G1 X87.114 Y80.099 E1.43833
G1 X86.03 Y80.802 E.04049
M73 Q0 S204
G1 X84.742 Y81.207 E.04234
G1 X83.069 Y81.197 E.05244
G1 X81.713 Y80.754 E.04474
G1 X80.897 Y80.231 E.03038
G1 X80.306 Y79.661 E.02575
G1 X68.7 Y91.267 E.51465
G1 X68.757 Y91.552 E.0091
G1 X68.774 Y92.833 E.04018
G1 X68.567 Y93.774 E.03021
G1 X68.35 Y94.293 E.01763
G1 X68.399 Y94.564 E.00862
G1 X68.422 Y95.466 E.0283
G1 X68.054 Y97.06 E.05129
G1 X67.245 Y98.379 E.04851
G1 X65.04 Y100.583 E.09775
G1 X67.163 Y102.71 E.09423
G1 X67.804 Y103.668 E.03613
G1 X68.186 Y104.693 E.03429
G1 X68.295 Y106.432 E.05465
G1 X68.102 Y107.172 E.02398
G1 X68.61 Y107.033 E.01651
G1 X69.891 Y106.992 E.0402
G1 X71.325 Y107.356 E.04639
G1 X72.612 Y108.152 E.04745
G1 X74.628 Y110.197 E.09003
G1 X77.521 Y107.303 E.12831
G1 X78.946 Y106.437 E.05228
G1 X79.682 Y106.215 E.0241
G1 X80.435 Y106.101 E.02387
G1 X81.239 Y106.151 E.02527
G1 X82.325 Y105.989 E.03442
G1 X83.45 Y106.067 E.03537
G1 X84.191 Y106.292 E.02428
G1 X95.563 Y94.92 E.50424
G1 X94.307 Y93.636 E.05632
G1 X93.722 Y92.667 E.03549
G1 X93.37 Y91.54 E.03701
G1 X93.341 Y89.908 E.05119
G1 X93.729 Y88.595 E.04293
G1 X94.46 Y87.448 E.04265
G1 X126.909 Y54.999 E1.43886
G1 X128.158 Y54.217 E.0462
G1 X129.43 Y53.864 E.04137
G1 X130.753 Y53.86 E.04149
G1 X132.046 Y54.214 E.04205
G1 X133.156 Y54.879 E.04058
G1 X146.355 Y68.049 E.58459
G1 X147.112 Y69.257 E.04472
G1 X147.49 Y70.636 E.04484
G1 X147.449 Y72.11 E.04621
G1 X146.998 Y73.465 E.0448
G1 X146.331 Y74.45 E.03729
G1 X115.916 Y104.865 E1.34865
G1 X104.305 Y110.815 E.40907
G1 X89.875 Y125.231 E.63954
G1 X89.12 Y125.792 E.02948
G1 X87.805 Y126.316 E.04439
G1 X86.436 Y127.133 E.04998
G1 X84.639 Y127.488 E.05745
G1 X61.86 Y125.532 E.71683
G1 X60.265 Y125.529 E.05003
G1 X58.563 Y125.154 E.05464
G1 X56.917 Y124.501 E.05552
G1 X55.124 Y123.436 E.0654
G1 X54.39 Y122.853 E.02939
G1 X53.891 Y122.532 E.0186
G1 X51.448 Y120.114 E.10777
G1 X50.842 Y119.262 E.03278
G1 X50.403 Y118.252 E.03453
G1 X50.036 Y117.634 E.02255
G1 X49.937 Y117.422 E.00732
G1 X49.514 Y116.801 E.02358
G1 X49.007 Y115.436 E.04564
G1 X46.894 Y92.743 E.71459
G1 X47.123 Y91.155 E.05031
G1 X47.367 Y90.585 E.01945
G1 X48.127 Y88.244 E.07716
G1 X48.239 Y87.8 E.01436
G1 X48.468 Y87.237 E.01907
G1 X49.228 Y86.099 E.0429
G1 X66.649 Y68.678 E.77247
G1 X69.374 Y63.241 E.1907
G1 X69.332 Y62.989 E.00801
G1 X69.375 Y61.463 E.04784
G1 X69.763 Y60.296 E.03858
M204 S2000
G1 X70.109 Y60.432 F10800
M204 S1000
G1 F3600
G1 X70.746 Y59.454 E.03659
G1 X101.038 Y29.163 E1.34316
G1 X101.853 Y28.603 E.03103
G1 X102.82 Y28.216 E.03265
G1 X104.922 Y28.166 E.06594
G1 X105.788 Y28.448 E.02854
G1 X106.885 Y29.112 E.04022
G1 X119.289 Y41.516 E.55001
G1 X119.971 Y42.598 E.04008
G1 X120.326 Y43.858 E.04106
G1 X120.312 Y45.152 E.04057
G1 X119.922 Y46.419 E.04156
G1 X119.271 Y47.409 E.03714
G1 X86.861 Y79.818 E1.43709
G1 X85.848 Y80.47 E.03778
G1 X84.659 Y80.838 E.03901
G1 X83.103 Y80.821 E.04881
G1 X81.897 Y80.424 E.03982
G1 X81.118 Y79.924 E.02902
G1 X80.304 Y79.13 E.03566
G1 X68.286 Y91.147 E.53289
G1 X68.38 Y91.579 E.01384
G1 X68.4 Y92.774 E.03749
G1 X68.203 Y93.676 E.02894
G1 X67.958 Y94.251 E.0196
G1 X68.023 Y94.592 E.01088
G1 X68.048 Y95.406 E.02554
G1 X67.694 Y96.945 E.04952
G1 X66.963 Y98.128 E.04358
G1 X64.507 Y100.583 E.10888
G1 X66.884 Y102.964 E.10547
G1 X67.459 Y103.823 E.03243
G1 X67.811 Y104.746 E.03096
G1 X67.917 Y106.422 E.05265
G1 X67.536 Y107.751 E.04335
G1 X68.65 Y107.409 E.03653
G1 X69.877 Y107.37 E.0385
G1 X71.153 Y107.692 E.04126
G1 X72.36 Y108.433 E.04441
G1 X74.626 Y110.732 E.10121
G1 X77.772 Y107.586 E.13952
G1 X79.078 Y106.79 E.04795
G1 X79.752 Y106.586 E.02208
G1 X80.471 Y106.477 E.02278
G1 X81.255 Y106.53 E.02466
G1 X82.32 Y106.367 E.03378
G1 X83.401 Y106.441 E.03398
G1 X84.295 Y106.721 E.02937
G1 X96.094 Y94.922 E.52317
G1 X94.617 Y93.42 E.06605
G1 X94.073 Y92.53 E.03271
G1 X93.746 Y91.504 E.03378
G1 X93.711 Y89.984 E.04765
G1 X94.062 Y88.773 E.03953
G1 X94.742 Y87.699 E.03984
G1 X127.161 Y55.28 E1.43753
G1 X128.286 Y54.573 E.04165
G1 X129.505 Y54.235 E.03968
G1 X130.726 Y54.237 E.03827
G1 X131.919 Y54.57 E.03886
G1 X132.941 Y55.19 E.03747
G1 X146.073 Y68.3 E.5818
G1 X146.777 Y69.432 E.0418
G1 X147.118 Y70.706 E.04136
G1 X147.073 Y72.069 E.04274
G1 X146.649 Y73.319 E.04141
G1 X146.052 Y74.196 E.03325
G1 X115.67 Y104.577 E1.34718
G1 X104.081 Y110.507 E.40817
G1 X89.618 Y124.954 E.64095
G1 X88.916 Y125.473 E.02738
G1 X87.637 Y125.977 E.04311
G1 X86.329 Y126.77 E.04797
G1 X84.644 Y127.11 E.05389
G1 X61.877 Y125.155 E.71647
G1 X60.286 Y125.152 E.04988
G1 X58.66 Y124.79 E.05225
G1 X57.097 Y124.169 E.05272
G1 X55.328 Y123.118 E.06453
G1 X54.61 Y122.546 E.02878
G1 X54.112 Y122.226 E.01857
G1 X51.726 Y119.858 E.10539
G1 X51.162 Y119.061 E.03062
G1 X50.74 Y118.081 E.03345
G1 X50.365 Y117.45 E.02301
G1 X50.266 Y117.236 E.00739
G1 X49.839 Y116.608 E.02383
G1 X49.37 Y115.33 E.0427
G1 X47.272 Y92.731 E.7116
G1 X47.492 Y91.236 E.04738
G1 X47.719 Y90.72 E.01768
G1 X48.489 Y88.349 E.07818
G1 X48.602 Y87.906 E.01432
G1 X48.81 Y87.397 E.01723
G1 X49.508 Y86.352 E.0394
G1 X66.959 Y68.902 E.7738
G1 X69.769 Y63.294 E.19667
G1 X69.709 Y62.975 E.01017
G1 X69.742 Y61.553 E.0446
G1 X70.09 Y60.489 E.03511
M204 S2000
G1 X70.439 Y60.615 F10800
M204 S1000
G1 F3600
G1 X71.027 Y59.707 E.03393
G1 X101.292 Y29.443 E1.34196
G1 X102.048 Y28.926 E.02871
G1 X102.927 Y28.579 E.02965
G1 X104.838 Y28.535 E.05993
G1 X105.613 Y28.783 E.02554
G1 X106.635 Y29.396 E.03736
G1 X119.007 Y41.767 E.54859
G1 X119.636 Y42.774 E.03721
G1 X119.955 Y43.931 E.03765
G1 X119.935 Y45.117 E.03719
G1 X119.57 Y46.28 E.03821
G1 X118.991 Y47.155 E.03291
G1 X86.61 Y79.537 E1.43586
G1 X85.668 Y80.138 E.03504
G1 X84.579 Y80.468 E.03567
G1 X83.139 Y80.444 E.04518
G1 X82.08 Y80.094 E.03495
G1 X81.338 Y79.618 E.02766
G1 X80.303 Y78.598 E.04557
G1 X67.871 Y91.029 E.55123
G1 X68.003 Y91.607 E.0186
G1 X68.027 Y92.716 E.03475
G1 X67.839 Y93.574 E.02756
G1 X67.648 Y94.001 E.01467
G1 X67.571 Y94.237 E.00778
G1 X67.646 Y94.623 E.01233
G1 X67.675 Y95.347 E.02271
G1 X67.333 Y96.83 E.04772
G1 X66.681 Y97.876 E.03865
G1 X63.974 Y100.583 E.12003
G1 X66.604 Y103.217 E.11671
G1 X67.116 Y103.981 E.02882
G1 X67.437 Y104.8 E.02757
G1 X67.538 Y106.411 E.05063
G1 X67.142 Y107.738 E.04342
G1 X66.783 Y108.295 E.02077
G1 X66.994 Y108.51 E.00944
G1 X67.625 Y108.121 E.02325
G1 X68.688 Y107.785 E.03495
G1 X69.863 Y107.748 E.03684
G1 X70.981 Y108.029 E.03616
G1 X72.108 Y108.715 E.04135
G1 X74.194 Y110.831 E.09316
G1 X74.528 Y111.363 E.01972
G1 X78.023 Y107.868 E.15495
G1 X79.211 Y107.144 E.04362
G1 X79.848 Y106.951 E.02089
G1 X80.505 Y106.853 E.02081
G1 X81.271 Y106.909 E.02409
G1 X82.316 Y106.745 E.03317
G1 X83.352 Y106.816 E.03257
G1 X84.399 Y107.151 E.03445
G1 X96.626 Y94.923 E.54217
G1 X94.926 Y93.203 E.07582
G1 X94.426 Y92.393 E.02988
G1 X94.113 Y91.415 E.0322
G1 X94.082 Y90.061 E.04244
G1 X94.417 Y88.904 E.03777
G1 X95.023 Y87.952 E.03539
G1 X127.413 Y55.561 E1.43624
G1 X128.415 Y54.928 E.03717
G1 X129.533 Y54.611 E.03643
G1 X130.652 Y54.608 E.03508
G1 X131.747 Y54.906 E.03558
G1 X132.726 Y55.5 E.03592
G1 X145.791 Y68.552 E.57902
G1 X146.421 Y69.559 E.03724
G1 X146.74 Y70.725 E.03791
G1 X146.707 Y71.977 E.03927
G1 X146.322 Y73.13 E.03811
G1 X145.772 Y73.942 E.03075
G1 X115.425 Y104.29 E1.34568
G1 X103.856 Y110.198 E.40728
G1 X89.362 Y124.677 E.64237
G1 X88.714 Y125.155 E.02525
G1 X87.468 Y125.638 E.04188
G1 X86.219 Y126.408 E.046
G1 X84.648 Y126.732 E.05028
G1 X61.893 Y124.778 E.7161
G1 X60.308 Y124.775 E.04971
G1 X58.757 Y124.425 E.04984
G1 X57.277 Y123.837 E.04995
G1 X55.532 Y122.801 E.06364
G1 X54.83 Y122.24 E.02816
G1 X54.332 Y121.92 E.01856
G1 X52.004 Y119.603 E.103
G1 X51.482 Y118.861 E.02844
G1 X51.078 Y117.91 E.03239
G1 X50.695 Y117.266 E.02349
G1 X50.596 Y117.051 E.00744
G1 X50.164 Y116.416 E.02409
G1 X49.733 Y115.224 E.03973
G1 X47.649 Y92.719 E.70866
G1 X47.847 Y91.365 E.0429
G1 X48.072 Y90.855 E.01748
G1 X48.852 Y88.452 E.07921
G1 X48.956 Y88.036 E.01346
G1 X49.152 Y87.558 E.0162
G1 X49.788 Y86.606 E.03589
G1 X67.269 Y69.125 E.77513
G1 X70.166 Y63.344 E.20274
G1 X70.087 Y62.959 E.01233
G1 X70.11 Y61.641 E.04133
G1 X70.421 Y60.672 E.03191
M204 S2000
G1 X70.77 Y60.797 F10800
M204 S1000
G1 F3600
G1 X71.309 Y59.959 E.03123
G1 X101.545 Y29.722 E1.34074
G1 X102.241 Y29.251 E.02635
G1 X103.033 Y28.942 E.02664
G1 X104.755 Y28.903 E.054
G1 X105.441 Y29.119 E.02255
G1 X106.386 Y29.679 E.03445
G1 X118.725 Y42.018 E.54714
G1 X119.301 Y42.948 E.03428
G1 X119.584 Y44.002 E.03422
G1 X119.559 Y45.08 E.03382
G1 X119.22 Y46.139 E.03486
G1 X118.712 Y46.902 E.02873
G1 X86.358 Y79.255 E1.43461
G1 X85.489 Y79.805 E.03225
G1 X84.501 Y80.098 E.0323
G1 X83.176 Y80.068 E.04156
G1 X82.263 Y79.763 E.03019
G1 X81.588 Y79.335 E.02507
G1 X80.301 Y78.066 E.05667
G1 X67.455 Y90.912 E.5696
G1 X67.627 Y91.636 E.02334
G1 X67.65 Y92.7 E.03336
G1 X67.476 Y93.471 E.02477
G1 X67.296 Y93.863 E.01354
G1 X67.2 Y94.159 E.00977
G1 X67.2 Y94.343 E.00576
G1 X67.271 Y94.661 E.01022
G1 X67.302 Y95.288 E.01969
G1 X66.973 Y96.714 E.04587
G1 X66.4 Y97.624 E.03372
G1 X63.441 Y100.583 E.13121
G1 X66.302 Y103.444 E.12687
G1 X66.773 Y104.138 E.02629
G1 X67.075 Y104.91 E.02599
G1 X67.167 Y106.335 E.04479
G1 X66.789 Y107.602 E.04143
G1 X66.318 Y108.308 E.02662
G1 X65.655 Y108.977 E.02953
G1 X66.223 Y109.202 E.01915
G1 X66.549 Y109.417 E.01224
G1 X67.07 Y108.909 E.02283
G1 X67.765 Y108.472 E.02573
G1 X68.73 Y108.161 E.03179
G1 X69.797 Y108.12 E.0335
G1 X70.861 Y108.388 E.0344
G1 X71.855 Y108.996 E.03653
G1 X73.909 Y111.079 E.09173
G1 X74.455 Y111.97 E.03275
G1 X78.274 Y108.151 E.16935
G1 X79.344 Y107.498 E.03932
G1 X79.918 Y107.322 E.01882
G1 X80.538 Y107.23 E.01966
G1 X81.286 Y107.289 E.02352
G1 X82.314 Y107.122 E.03265
G1 X83.264 Y107.183 E.02984
G1 X84.082 Y107.436 E.02685
G1 X84.441 Y107.641 E.01299
G1 X97.159 Y94.924 E.5639
G1 X95.234 Y92.985 E.08566
G1 X94.777 Y92.255 E.027
G1 X94.481 Y91.325 E.03059
G1 X94.452 Y90.136 E.0373
G1 X94.751 Y89.081 E.03437
G1 X95.304 Y88.203 E.03256
G1 X127.665 Y55.842 E1.43493
G1 X128.547 Y55.282 E.03274
G1 X129.561 Y54.988 E.03312
G1 X130.627 Y54.985 E.03341
G1 X131.619 Y55.262 E.0323
G1 X132.509 Y55.81 E.03278
G1 X145.509 Y68.803 E.57628
G1 X146.085 Y69.733 E.03431
G1 X146.369 Y70.794 E.03444
G1 X146.331 Y71.935 E.0358
G1 X145.974 Y72.983 E.03472
G1 X145.494 Y73.688 E.02673
G1 X115.179 Y104.002 E1.3442
G1 X103.632 Y109.889 E.40638
G1 X89.106 Y124.4 E.64378
G1 X88.512 Y124.835 E.0231
G1 X87.299 Y125.299 E.04071
G1 X86.107 Y126.046 E.04409
G1 X84.653 Y126.354 E.04662
G1 X61.91 Y124.401 E.71571
G1 X60.33 Y124.398 E.04954
G1 X58.856 Y124.061 E.04741
G1 X57.456 Y123.506 E.0472
G1 X55.736 Y122.483 E.06275
G1 X55.051 Y121.934 E.02753
G1 X54.553 Y121.613 E.01855
G1 X52.282 Y119.348 E.10059
G1 X51.803 Y118.662 E.02624
G1 X51.415 Y117.74 E.03134
G1 X51.025 Y117.083 E.02397
G1 X50.926 Y116.864 E.00755
G1 X50.509 Y116.262 E.02295
G1 X50.106 Y115.165 E.03666
G1 X48.027 Y92.706 E.70718
G1 X48.202 Y91.494 E.03841
G1 X48.425 Y90.99 E.01727
G1 X49.215 Y88.556 E.08022
G1 X49.318 Y88.141 E.01342
G1 X49.493 Y87.719 E.0143
G1 X50.068 Y86.859 E.03243
G1 X67.578 Y69.349 E.77646
G1 X70.563 Y63.393 E.20889
G1 X70.464 Y62.94 E.01453
G1 X70.478 Y61.727 E.03805
G1 X70.752 Y60.854 E.02868
M204 S2000
G1 X71.112 Y60.967 F10800
M204 S1000
G1 F3600
G1 X71.589 Y60.211 E.02801
G1 X101.799 Y30.002 E1.33954
M73 P0 R183
G1 X102.433 Y29.576 E.02395
G1 X103.137 Y29.306 E.02364
G1 X104.673 Y29.273 E.04819
G1 X105.27 Y29.456 E.01957
G1 X106.136 Y29.963 E.03148
G1 X118.442 Y42.269 E.54566
G1 X118.965 Y43.12 E.03131
G1 X119.212 Y44.07 E.03076
G1 X119.183 Y45.041 E.03046
G1 X118.87 Y45.996 E.03152
G1 X118.432 Y46.648 E.02462
G1 X86.107 Y78.973 E1.43337
G1 X85.312 Y79.471 E.02941
G1 X84.426 Y79.728 E.02892
G1 X83.217 Y79.692 E.03792
G1 X82.408 Y79.415 E.02682
G1 X81.809 Y79.029 E.02233
G1 X80.3 Y77.534 E.06662
G1 X66.988 Y90.846 E.59026
G1 X67.126 Y91.151 E.0105
G1 X67.25 Y91.665 E.01659
G1 X67.272 Y92.684 E.03195
G1 X67.114 Y93.364 E.02191
G1 X66.945 Y93.723 E.01244
G1 X66.823 Y94.1 E.01241
G1 X66.823 Y94.387 E.00901
G1 X66.896 Y94.701 E.01012
G1 X66.928 Y95.234 E.01672
G1 X66.636 Y96.542 E.04204
G1 X66.118 Y97.373 E.03069
G1 X62.908 Y100.583 E.14235
G1 X66.023 Y103.699 E.13815
G1 X66.43 Y104.295 E.02264
G1 X66.713 Y105.019 E.02437
G1 X66.789 Y106.322 E.04093
G1 X66.438 Y107.462 E.03739
G1 X66.017 Y108.08 E.02344
G1 X65.328 Y108.769 E.03055
G1 X65.527 Y109.332 E.01871
G1 X66.063 Y109.544 E.01808
G1 X66.591 Y109.908 E.02011
G1 X67.289 Y109.217 E.03079
G1 X67.946 Y108.804 E.02433
G1 X68.773 Y108.536 E.02725
G1 X69.733 Y108.493 E.03013
G1 X70.741 Y108.746 E.0326
G1 X71.602 Y109.277 E.03171
G1 X73.625 Y111.328 E.09031
G1 X74.039 Y112.014 E.02514
G1 X74.252 Y112.625 E.0203
G1 X74.632 Y112.326 E.01514
G1 X78.525 Y108.433 E.17262
