; generated by PrusaSlicer 2.4.0+win64 on 2022-03-09 at 00:59:52 UTC

; 

; external perimeters extrusion width = 0.60mm
; perimeters extrusion width = 0.50mm
; infill extrusion width = 0.50mm
; solid infill extrusion width = 0.50mm
; top infill extrusion width = 0.45mm
; first layer extrusion width = 0.42mm

; external perimeters extrusion width = 0.60mm
; perimeters extrusion width = 0.50mm
; infill extrusion width = 0.50mm
; solid infill extrusion width = 0.50mm
; top infill extrusion width = 0.45mm
; first layer extrusion width = 0.42mm

; external perimeters extrusion width = 0.60mm
; perimeters extrusion width = 0.50mm
; infill extrusion width = 0.50mm
; solid infill extrusion width = 0.50mm
; top infill extrusion width = 0.45mm
; first layer extrusion width = 0.42mm

M73 P0 R121
M73 Q0 S136
M201 X4000 Y4000 Z1000 E5000 ; sets maximum accelerations, mm/sec^2
M203 X200 Y200 Z12 E120 ; sets maximum feedrates, mm/sec
M204 P2000 R2000 T2000 ; sets acceleration (P, T) and retract acceleration (R), mm/sec^2
M205 X8.00 Y8.00 Z0.40 E4.50 ; sets the jerk limits, mm/sec
M205 S0 T0 ; sets the minimum extruding and travel feed rate, mm/sec
M107
;TYPE:Custom
M862.3 P "MK3S" ; printer model check
M862.1 P0.4 ; nozzle diameter check
M115 U3.10.0 ; tell printer latest fw version
G90 ; use absolute coordinates
M83 ; extruder relative mode
M104 S225 ; set extruder temp
M140 S80 ; set bed temp
M190 S80 ; wait for bed temp
M109 S225 ; wait for extruder temp
G28 W ; home all without mesh bed level
G80 ; mesh bed leveling
G1 Y-3.0 F1000.0 ; go outside print area
G92 E0.0
G1 X60.0 E9.0 F1000.0 ; intro line
G1 X100.0 E12.5 F1000.0 ; intro line
G92 E0.0
M221 S95

; Don't change E values below. Excessive value can damage the printer.

M907 E538 ; set extruder motor current
G21 ; set units to millimeters
G90 ; use absolute coordinates
M83 ; use relative distances for extrusion
M900 K0.05 ; Filament gcode LA 1.5
M900 K30 ; Filament gcode LA 1.0
M107
;LAYER_CHANGE
;Z:0.2
;HEIGHT:0.2
;BEFORE_LAYER_CHANGE
G92 E0.0
;0.2


G1 E-.6 F3600
G1 Z.2 F10800
;AFTER_LAYER_CHANGE
;0.2
G1 X51.54 Y44.064
G1 E.6 F3600
M204 S1000
;TYPE:Skirt/Brim
;WIDTH:0.42
G1 X52.638 Y42.779 E.053
G1 X53.395 Y42.084 E.03221
G1 X57.777 Y39.198 E.16452
G1 X62.492 Y37.067 E.16225
G1 X64.048 Y36.679 E.05028
G1 X64.547 Y36.626 E.01573
G1 X112.287 Y36.668 E1.49683
G1 X113.714 Y36.992 E.04591
G1 X115.699 Y37.8 E.06717
G1 X188.395 Y69.828 E2.49075
G1 X190.514 Y70.964 E.07539
G1 X192.382 Y72.239 E.07092
G1 X193.547 Y73.182 E.04699
G1 X195.048 Y74.631 E.06542
G1 X196.614 Y76.478 E.07592
G1 X197.836 Y78.249 E.06747
G1 X199.83 Y82.073 E.13522
G1 X200.728 Y84.605 E.08425
G1 X201.746 Y89.86 E.1678
G1 X202.013 Y94.157 E.13501
G1 X202.007 Y116.076 E.68724
G1 X201.729 Y120.278 E.13205
G1 X201.236 Y123.421 E.09975
G1 X200.53 Y126.053 E.08543
G1 X199.771 Y128.06 E.06728
G1 X198.921 Y129.856 E.06229
G1 X198.037 Y131.423 E.05641
G1 X196.761 Y133.325 E.07181
G1 X195.385 Y135.007 E.06815
G1 X192.576 Y137.619 E.12028
G1 X190.777 Y138.874 E.06876
G1 X188.782 Y139.985 E.0716
G1 X115.699 Y172.2 E2.50419
G1 X113.717 Y173.007 E.06712
G1 X111.833 Y173.375 E.06018
G1 X64.546 Y173.373 E1.48263
G1 X64.048 Y173.32 E.01573
G1 X62.492 Y172.932 E.05026
G1 X57.405 Y170.595 E.17554
G1 X53.65 Y168.111 E.14117
G1 X52.864 Y167.448 E.03224
G1 X50.324 Y164.545 E.12094
G1 X49.729 Y163.666 E.03328
G1 X48.449 Y160.953 E.09404
G1 X48.042 Y159.363 E.05148
G1 X47.987 Y158.852 E.01611
G1 X47.987 Y51.147 E3.377
G1 X48.285 Y49.534 E.05146
M73 P0 R120
G1 X48.449 Y49.047 E.0161
G1 X49.568 Y46.624 E.08367
G1 X50.125 Y45.719 E.03334
G1 X51.501 Y44.109 E.06639
M204 S2000
;WIPE_START
G1 F8640
G1 X52.436 Y43.015 E-.57
;WIPE_END
G1 E-.03 F3600
G1 X53.527 Y45.876 F10800
G1 E.6 F3600
M204 S1000
G1 X54.872 Y44.334 E.06415
G1 X59.063 Y41.531 E.15808
G1 X63.408 Y39.588 E.14925
G1 X64.581 Y39.316 E.03775
G1 X111.824 Y39.311 E1.48128
G1 X112.91 Y39.549 E.03485
G1 X114.825 Y40.333 E.06487
G1 X116.602 Y41.306 E.06354
G1 X118.256 Y42.449 E.06301
G1 X119.288 Y43.305 E.04207
G1 X120.582 Y44.571 E.05675
G1 X121.951 Y46.216 E.0671
G1 X123.146 Y48 E.0673
G1 X124.766 Y51.173 E.11171
G1 X125.508 Y53.252 E.06923
G1 X126.468 Y58.207 E.15824
G1 X126.712 Y62.13 E.12323
G1 X126.713 Y77.229 E.47343
G1 X127.506 Y76.335 E.03746
G1 X131.613 Y73.579 E.1551
G1 X136.047 Y71.587 E.15239
G1 X137.464 Y71.29 E.04539
G1 X184.264 Y71.291 E1.46739
G1 X185.544 Y71.548 E.04093
G1 X187.403 Y72.306 E.06295
G1 X189.187 Y73.275 E.06366
G1 X190.931 Y74.479 E.06646
G1 X191.924 Y75.305 E.0405
G1 X193.179 Y76.528 E.05494
G1 X194.551 Y78.168 E.06705
G1 X195.712 Y79.882 E.06489
G1 X197.403 Y83.176 E.11609
G1 X198.167 Y85.34 E.07196
G1 X199.114 Y90.282 E.15779
G1 X199.349 Y94.165 E.12196
G1 X199.347 Y115.908 E.68172
G1 X199.106 Y119.78 E.12167
G1 X198.599 Y123.017 E.10271
G1 X198.079 Y124.978 E.06361
G1 X197.389 Y126.857 E.06277
G1 X196.592 Y128.561 E.05899
G1 X195.655 Y130.215 E.05959
G1 X194.542 Y131.843 E.06184
G1 X193.143 Y133.507 E.06817
G1 X191.188 Y135.316 E.08349
G1 X189.333 Y136.635 E.0714
G1 X187.36 Y137.715 E.07051
G1 X185.524 Y138.459 E.06213
G1 X184.218 Y138.712 E.0417
G1 X137.288 Y138.692 E1.47145
G1 X136.019 Y138.402 E.04082
G1 X131.614 Y136.42 E.15146
G1 X127.482 Y133.642 E.15612
G1 X126.713 Y132.775 E.03632
G1 X126.712 Y147.872 E.47336
G1 X126.466 Y151.816 E.1239
G1 X125.946 Y155.097 E.10416
G1 X125.431 Y157.013 E.06221
G1 X124.752 Y158.858 E.06164
G1 X123.935 Y160.602 E.06039
G1 X122.975 Y162.285 E.06075
G1 X121.86 Y163.904 E.06164
G1 X120.506 Y165.508 E.06579
G1 X118.552 Y167.316 E.08347
G1 X116.639 Y168.672 E.07354
G1 X114.603 Y169.772 E.07256
G1 X112.885 Y170.46 E.05801
G1 X111.582 Y170.712 E.04161
G1 X64.82 Y170.71 E1.46621
G1 X63.386 Y170.403 E.04597
G1 X58.888 Y168.371 E.15474
G1 X54.65 Y165.466 E.16111
G1 X52.082 Y162.396 E.12548
G1 X50.983 Y160.067 E.08077
G1 X50.651 Y158.575 E.04793
G1 X50.674 Y115.216 E1.35948
G1 X50.969 Y113.972 E.0401
G1 X52.111 Y111.556 E.08376
G1 X54.676 Y108.509 E.1249
G1 X58.918 Y105.612 E.16105
G1 X60.263 Y105 E.04635
G1 X58.918 Y104.387 E.04635
G1 X54.651 Y101.468 E.16209
G1 X52.11 Y98.439 E.12396
G1 X50.969 Y96.028 E.08364
G1 X50.674 Y94.783 E.04011
G1 X50.651 Y51.424 E1.35948
G1 X50.986 Y49.924 E.04821
G1 X52.252 Y47.339 E.09025
G1 X53.488 Y45.921 E.05896
M204 S2000
G1 X53.77 Y46.167 F10800
M204 S1000
G1 F3600
G1 X55.103 Y44.633 E.0637
G1 X59.231 Y41.869 E.15579
G1 X63.545 Y39.94 E.14817
G1 X64.644 Y39.688 E.03535
G1 X111.764 Y39.684 E1.47742
G1 X112.783 Y39.904 E.03267
G1 X114.653 Y40.669 E.06336
G1 X116.396 Y41.622 E.06228
G1 X118.034 Y42.754 E.06244
G1 X119.03 Y43.58 E.04058
G1 X120.299 Y44.82 E.05561
G1 X121.644 Y46.434 E.06588
G1 X122.815 Y48.181 E.06595
G1 X124.415 Y51.311 E.11022
G1 X125.14 Y53.338 E.0675
G1 X126.093 Y58.243 E.15664
G1 X126.335 Y62.135 E.12229
G1 X126.336 Y78.242 E.50502
G1 X127.738 Y76.634 E.06689
G1 X131.783 Y73.916 E.15279
G1 X136.183 Y71.939 E.15125
G1 X137.483 Y71.667 E.04166
G1 X184.245 Y71.668 E1.46619
G1 X185.418 Y71.904 E.03751
G1 X187.251 Y72.651 E.06206
G1 X188.998 Y73.601 E.06236
G1 X190.697 Y74.775 E.06473
G1 X191.666 Y75.581 E.03953
G1 X192.909 Y76.792 E.0544
G1 X194.256 Y78.403 E.06585
G1 X195.393 Y80.084 E.06363
G1 X197.061 Y83.337 E.11462
G1 X197.8 Y85.425 E.06945
G1 X198.738 Y90.317 E.15621
G1 X198.972 Y94.171 E.12104
G1 X198.971 Y115.89 E.68099
G1 X198.73 Y119.748 E.12121
G1 X198.228 Y122.949 E.10158
G1 X197.716 Y124.872 E.06241
G1 X197.038 Y126.719 E.0617
G1 X196.253 Y128.395 E.058
G1 X195.331 Y130.022 E.05865
G1 X194.236 Y131.623 E.0608
G1 X192.878 Y133.239 E.06618
G1 X190.941 Y135.031 E.08273
G1 X189.123 Y136.321 E.0699
G1 X187.189 Y137.379 E.06913
G1 X185.399 Y138.103 E.06053
G1 X184.2 Y138.334 E.03829
G1 X137.31 Y138.315 E1.47021
G1 X136.157 Y138.05 E.03708
G1 X131.783 Y136.083 E.15038
G1 X127.714 Y133.344 E.15381
G1 X126.336 Y131.759 E.06581
G1 X126.336 Y147.855 E.50466
G1 X126.092 Y151.766 E.12288
G1 X125.575 Y155.028 E.10356
G1 X125.07 Y156.907 E.061
G1 X124.401 Y158.72 E.06059
G1 X123.596 Y160.435 E.0594
G1 X122.651 Y162.091 E.0598
G1 X121.555 Y163.683 E.0606
G1 X120.242 Y165.239 E.06384
G1 X118.305 Y167.031 E.08272
G1 X116.449 Y168.345 E.07132
G1 X114.452 Y169.426 E.07119
G1 X112.762 Y170.104 E.05711
G1 X111.564 Y170.335 E.03823
G1 X64.839 Y170.333 E1.46503
G1 X63.522 Y170.051 E.04223
G1 X59.087 Y168.05 E.15256
G1 X54.922 Y165.204 E.15818
G1 X52.412 Y162.214 E.1224
G1 X51.333 Y159.925 E.07935
G1 X51.028 Y158.554 E.04403
G1 X51.046 Y115.281 E1.35681
G1 X51.319 Y114.115 E.03755
G1 X52.441 Y111.74 E.08235
G1 X54.947 Y108.772 E.12179
G1 X59.116 Y105.933 E.15814
G1 X61.181 Y105 E.07104
G1 X59.116 Y104.066 E.07104
G1 X54.923 Y101.205 E.15917
G1 X52.44 Y98.256 E.12087
G1 X51.319 Y95.885 E.08224
G1 X51.046 Y94.719 E.03756
G1 X51.028 Y51.445 E1.35681
G1 X51.335 Y50.069 E.04421
G1 X52.553 Y47.567 E.08725
G1 X53.731 Y46.212 E.0563
M204 S2000
G1 X54.014 Y46.457 F10800
M204 S1000
G1 F3600
G1 X55.334 Y44.932 E.06323
G1 X59.4 Y42.207 E.15349
G1 X63.682 Y40.292 E.14706
G1 X64.706 Y40.06 E.03294
G1 X111.705 Y40.057 E1.47362
G1 X112.656 Y40.26 E.03049
G1 X114.482 Y41.005 E.06183
G1 X116.19 Y41.938 E.06102
G1 X117.813 Y43.06 E.06187
G1 X118.773 Y43.856 E.03908
G1 X120.016 Y45.069 E.05446
G1 X121.336 Y46.653 E.06465
G1 X122.485 Y48.363 E.06459
G1 X124.064 Y51.45 E.10874
G1 X124.773 Y53.425 E.06577
G1 X125.717 Y58.278 E.15504
G1 X125.958 Y62.141 E.12135
G1 X125.959 Y79.258 E.53669
G1 X127.969 Y76.933 E.09637
G1 X131.98 Y74.238 E.15149
G1 X136.319 Y72.292 E.14911
G1 X137.503 Y72.044 E.03793
G1 X184.227 Y72.045 E1.465
G1 X185.292 Y72.26 E.03408
G1 X187.099 Y72.996 E.06117
G1 X188.809 Y73.927 E.06106
G1 X190.462 Y75.07 E.06301
G1 X191.409 Y75.856 E.03857
G1 X192.639 Y77.055 E.05386
G1 X193.96 Y78.637 E.06464
G1 X195.075 Y80.285 E.06237
G1 X196.72 Y83.497 E.11316
G1 X197.432 Y85.51 E.06694
G1 X198.363 Y90.353 E.15462
G1 X198.595 Y94.177 E.12012
G1 X198.594 Y115.872 E.68026
G1 X198.354 Y119.716 E.12075
G1 X197.857 Y122.88 E.10044
G1 X197.354 Y124.767 E.06121
G1 X196.687 Y126.582 E.06063
G1 X195.915 Y128.228 E.05701
G1 X195.007 Y129.829 E.05772
G1 X193.93 Y131.402 E.05977
G1 X192.613 Y132.97 E.0642
G1 X190.694 Y134.746 E.08197
G1 X188.914 Y136.007 E.0684
G1 X187.018 Y137.042 E.06775
G1 X185.275 Y137.746 E.05894
G1 X184.182 Y137.957 E.03489
G1 X137.331 Y137.938 E1.46897
G1 X136.295 Y137.699 E.03336
G1 X131.98 Y135.761 E.1483
G1 X127.945 Y133.045 E.1525
G1 X125.959 Y130.741 E.09537
G1 X125.959 Y147.837 E.53603
G1 X125.718 Y151.716 E.12185
G1 X125.205 Y154.959 E.10296
G1 X124.708 Y156.8 E.05979
G1 X124.05 Y158.582 E.05954
G1 X123.258 Y160.268 E.0584
G1 X122.336 Y161.884 E.05834
G1 X121.249 Y163.461 E.06006
G1 X119.977 Y164.97 E.06188
G1 X118.058 Y166.746 E.08197
G1 X116.259 Y168.019 E.0691
G1 X114.302 Y169.08 E.06981
G1 X112.638 Y169.747 E.0562
G1 X111.546 Y169.958 E.03486
G1 X64.859 Y169.956 E1.46384
G1 X63.659 Y169.699 E.03849
G1 X59.286 Y167.729 E.15039
G1 X55.193 Y164.941 E.15526
G1 X52.743 Y162.03 E.1193
G1 X51.683 Y159.783 E.07792
G1 X51.405 Y158.534 E.04013
G1 X51.418 Y115.344 E1.35417
G1 X51.669 Y114.257 E.03498
G1 X52.772 Y111.923 E.08093
G1 X55.218 Y109.036 E.11868
G1 X59.314 Y106.255 E.15523
G1 X62.1 Y105 E.09581
G1 X59.315 Y103.745 E.0958
G1 X55.194 Y100.942 E.15625
G1 X52.77 Y98.073 E.11777
G1 X51.669 Y95.742 E.08082
G1 X51.418 Y94.655 E.03499
G1 X51.405 Y51.466 E1.35417
G1 X51.684 Y50.213 E.04023
G1 X52.855 Y47.795 E.08424
G1 X53.974 Y46.502 E.05362
M204 S2000
G1 X54.257 Y46.747 F10800
M204 S1000
G1 F3600
G1 X55.565 Y45.231 E.06276
G1 X59.569 Y42.544 E.15118
G1 X63.818 Y40.644 E.14595
G1 X64.768 Y40.433 E.03051
G1 X111.647 Y40.43 E1.46987
G1 X112.53 Y40.615 E.02828
G1 X114.311 Y41.341 E.06029
G1 X115.984 Y42.253 E.05975
G1 X117.592 Y43.365 E.0613
G1 X118.515 Y44.131 E.0376
G1 X119.732 Y45.318 E.05332
G1 X121.029 Y46.871 E.06343
G1 X122.154 Y48.545 E.06323
G1 X123.713 Y51.59 E.10726
G1 X124.405 Y53.511 E.06404
G1 X125.342 Y58.314 E.15343
G1 X125.581 Y62.147 E.12042
G1 X125.582 Y80.277 E.56845
G1 X128.201 Y77.231 E.12594
G1 X132.176 Y74.56 E.15018
G1 X136.454 Y72.644 E.14696
G1 X137.522 Y72.421 E.03421
G1 X184.208 Y72.422 E1.4638
G1 X185.166 Y72.616 E.03066
G1 X186.947 Y73.341 E.06028
G1 X188.62 Y74.254 E.05975
G1 X190.228 Y75.366 E.0613
G1 X191.151 Y76.131 E.0376
G1 X192.368 Y77.318 E.05332
G1 X193.665 Y78.871 E.06343
G1 X194.756 Y80.487 E.06111
G1 X196.379 Y83.658 E.1117
G1 X197.064 Y85.595 E.06443
G1 X197.987 Y90.388 E.15303
G1 X198.218 Y94.182 E.11919
G1 X198.217 Y115.855 E.67952
G1 X197.978 Y119.684 E.12028
G1 X197.486 Y122.812 E.09929
G1 X196.992 Y124.661 E.06001
G1 X196.336 Y126.444 E.05956
G1 X195.577 Y128.061 E.05602
G1 X194.683 Y129.636 E.05678
G1 X193.624 Y131.182 E.05874
G1 X192.348 Y132.701 E.06222
G1 X190.447 Y134.46 E.08121
G1 X188.706 Y135.693 E.06689
G1 X186.847 Y136.706 E.06637
G1 X185.151 Y137.39 E.05734
G1 X184.164 Y137.58 E.0315
G1 X137.394 Y137.565 E1.46645
G1 X136.432 Y137.347 E.03094
G1 X132.177 Y135.439 E.14618
G1 X128.177 Y132.747 E.15119
G1 X125.582 Y129.72 E.125
G1 X125.582 Y147.82 E.5675
G1 X125.342 Y151.684 E.12139
G1 X124.838 Y154.871 E.10118
G1 X124.351 Y156.678 E.05868
G1 X123.7 Y158.444 E.05902
G1 X122.927 Y160.088 E.05694
G1 X122.021 Y161.677 E.05736
G1 X120.955 Y163.226 E.05895
G1 X119.712 Y164.701 E.06049
G1 X117.811 Y166.461 E.08121
G1 X116.07 Y167.693 E.0669
G1 X114.151 Y168.734 E.06843
G1 X112.514 Y169.39 E.05529
G1 X111.528 Y169.581 E.03149
G1 X64.879 Y169.578 E1.46265
G1 X63.795 Y169.347 E.03475
G1 X59.484 Y167.408 E.14823
G1 X55.464 Y164.678 E.15234
G1 X53.073 Y161.847 E.11619
G1 X52.032 Y159.641 E.07649
G1 X51.782 Y158.513 E.03623
G1 X51.791 Y115.407 E1.35157
G1 X52.019 Y114.399 E.03238
G1 X53.102 Y112.107 E.07949
G1 X55.489 Y109.299 E.11555
G1 X59.512 Y106.576 E.15232
G1 X63.022 Y105 E.12063
G1 X59.513 Y103.423 E.12063
G1 X55.465 Y100.678 E.15334
G1 X53.101 Y97.889 E.11465
G1 X52.019 Y95.6 E.07938
G1 X51.791 Y94.593 E.03239
G1 X51.782 Y51.486 E1.35157
G1 X52.033 Y50.357 E.03627
M73 Q0 S135
G1 X53.157 Y48.022 E.08124
G1 X54.218 Y46.792 E.05095
M204 S2000
G1 X54.502 Y47.036 F10800
M204 S1000
G1 F3600
G1 X55.797 Y45.53 E.06227
G1 X59.737 Y42.882 E.14886
G1 X63.954 Y40.996 E.14482
G1 X64.828 Y40.806 E.02805
G1 X111.59 Y40.803 E1.46619
G1 X112.404 Y40.971 E.02606
G1 X114.159 Y41.686 E.05941
G1 X115.794 Y42.58 E.05843
G1 X117.358 Y43.661 E.0596
G1 X118.257 Y44.406 E.03663
G1 X119.462 Y45.581 E.05277
G1 X120.733 Y47.105 E.06222
G1 X121.824 Y48.727 E.06127
G1 X123.372 Y51.751 E.10653
G1 X124.046 Y53.625 E.06245
G1 X124.969 Y58.374 E.15169
G1 X125.204 Y62.165 E.11908
G1 X125.205 Y81.413 E.60353
G1 X125.499 Y81.48 E.00944
G1 X126.067 Y80.292 E.04131
G1 X128.433 Y77.53 E.114
G1 X132.373 Y74.882 E.14886
G1 X136.589 Y72.997 E.14481
G1 X137.541 Y72.798 E.03049
G1 X184.189 Y72.799 E1.4626
G1 X185.04 Y72.972 E.02724
G1 X186.795 Y73.686 E.05939
G1 X188.43 Y74.58 E.05843
G1 X189.994 Y75.661 E.0596
G1 X190.893 Y76.407 E.03663
G1 X192.098 Y77.581 E.05277
G1 X193.369 Y79.105 E.06222
G1 X194.437 Y80.688 E.05986
G1 X196.028 Y83.796 E.10947
G1 X196.697 Y85.681 E.06271
G1 X197.611 Y90.423 E.15143
G1 X197.841 Y94.188 E.11827
G1 X197.84 Y115.837 E.67879
G1 X197.603 Y119.651 E.11982
G1 X197.115 Y122.743 E.09815
G1 X196.63 Y124.555 E.05881
G1 X195.985 Y126.305 E.0585
G1 X195.239 Y127.894 E.05503
G1 X194.359 Y129.443 E.05584
G1 X193.318 Y130.961 E.0577
G1 X192.083 Y132.432 E.06024
G1 X190.2 Y134.175 E.08045
G1 X188.497 Y135.379 E.06538
G1 X186.676 Y136.369 E.06499
G1 X185.027 Y137.033 E.05575
G1 X184.146 Y137.203 E.02812
G1 X137.456 Y137.193 E1.46396
G1 X136.568 Y136.995 E.02851
G1 X132.374 Y135.118 E.14406
G1 X128.409 Y132.448 E.14987
G1 X126.066 Y129.705 E.11312
G1 X125.499 Y128.519 E.04122
G1 X125.205 Y128.585 E.00944
G1 X125.205 Y147.814 E.60289
G1 X124.967 Y151.651 E.12056
G1 X124.471 Y154.783 E.0994
G1 X123.989 Y156.572 E.05809
G1 X123.349 Y158.306 E.05796
G1 X122.589 Y159.92 E.05595
G1 X121.706 Y161.47 E.05592
G1 X120.66 Y162.99 E.05785
G1 X119.447 Y164.433 E.0591
G1 X117.564 Y166.175 E.08045
G1 X115.861 Y167.379 E.06538
