; generated by PrusaSlicer 2.2.0+win64 on 2021-12-22 at 22:52:16 UTC

; 

; external perimeters extrusion width = 0.45mm
; perimeters extrusion width = 0.45mm
; infill extrusion width = 0.45mm
; solid infill extrusion width = 0.45mm
; top infill extrusion width = 0.40mm
; first layer extrusion width = 0.42mm

M73 P0 R50
M73 Q0 S50
M201 X1000 Y1000 Z200 E5000 ; sets maximum accelerations, mm/sec^2
M203 X200 Y200 Z12 E120 ; sets maximum feedrates, mm/sec
M204 P1250 R1250 T1250 ; sets acceleration (P, T) and retract acceleration (R), mm/sec^2
M205 X8.00 Y8.00 Z0.40 E4.50 ; sets the jerk limits, mm/sec
M205 S0 T0 ; sets the minimum extruding and travel feed rate, mm/sec
M107
M862.3 P "MK3S" ; printer model check
M862.1 P0.4 ; nozzle diameter check
M115 U3.10.0 ; tell printer latest fw version
G90 ; use absolute coordinates
M83 ; extruder relative mode
M104 S215 ; set extruder temp
M140 S60 ; set bed temp
M190 S60 ; wait for bed temp
M109 S215 ; wait for extruder temp
G28 W ; home all without mesh bed level
G80 ; mesh bed leveling
G1 Y-3.0 F1000.0 ; go outside print area
G92 E0.0
G1 X60.0 E9.0 F1000.0 ; intro line
M73 Q0 S50
M73 P0 R50
G1 X100.0 E12.5 F1000.0 ; intro line
G92 E0.0
M221 S95

; Don't change E values below. Excessive value can damage the printer.

M907 E538 ; set extruder motor current
G21 ; set units to millimeters
G90 ; use absolute coordinates
M83 ; use relative distances for extrusion
M900 K0.05 ; Filament gcode LA 1.5
M900 K30 ; Filament gcode LA 1.0
;BEFORE_LAYER_CHANGE
G92 E0.0
;0.2


G1 E-0.80000 F2100.00000
G1 Z0.400 F10800.000
;AFTER_LAYER_CHANGE
;0.2
G1 X195.937 Y113.497
G1 Z0.200
G1 E0.80000 F2100.00000
M204 S1000
G1 F1200.000
G1 X196.109 Y113.013 E0.01609
G1 X196.379 Y112.581 E0.01597
G1 X209.502 Y95.897 E0.66556
G1 X210.947 Y94.360 E0.06613
G1 X212.472 Y93.119 E0.06165
G1 X213.395 Y92.508 E0.03472
G1 X214.365 Y91.966 E0.03484
G1 X216.114 Y91.199 E0.05986
G1 X218.241 Y90.590 E0.06939
G1 X220.134 Y90.314 E0.05998
G1 X221.267 Y90.262 E0.03555
G1 X223.219 Y90.370 E0.06129
G1 X224.309 Y90.539 E0.03460
G1 X225.388 Y90.788 E0.03472
G1 X227.197 Y91.397 E0.05986
G1 X229.182 Y92.377 E0.06939
G1 X230.768 Y93.446 E0.05998
G1 X231.619 Y94.149 E0.03460
G1 X232.419 Y94.914 E0.03472
G1 X233.665 Y96.366 E0.05998
G1 X234.867 Y98.219 E0.06927
G1 X235.684 Y99.949 E0.05998
G1 X236.058 Y100.992 E0.03472
G1 X236.353 Y102.059 E0.03472
G1 X236.683 Y103.955 E0.06034
G1 X236.771 Y106.063 E0.06618
G1 X235.720 Y143.807 E1.18390
G1 X234.395 Y183.662 E1.25029
G1 X234.211 Y185.612 E0.06142
G1 X233.996 Y186.710 E0.03508
G1 X233.396 Y188.670 E0.06427
G1 X232.535 Y190.543 E0.06463
G1 X231.431 Y192.283 E0.06463
G1 X230.107 Y193.858 E0.06451
G1 X228.579 Y195.247 E0.06475
G1 X226.885 Y196.415 E0.06451
G1 X225.050 Y197.346 E0.06451
G1 X223.162 Y198.008 E0.06272
G1 X221.084 Y198.437 E0.06653
G1 X219.066 Y198.575 E0.06344
G1 X196.018 Y198.575 E0.72266
G1 X195.474 Y198.511 E0.01716
G1 X194.946 Y198.317 E0.01763
G1 X194.479 Y198.004 E0.01763
G1 X194.098 Y197.590 E0.01763
G1 X193.825 Y197.098 E0.01763
G1 X193.661 Y196.443 E0.02119
G1 X193.463 Y193.595 E0.08951
G1 X195.935 Y113.557 E2.51074
G1 F8640.000
G1 X196.109 Y113.013 E-0.13176
G1 X196.379 Y112.581 E-0.11763
G1 X197.746 Y110.843 E-0.51061
G1 E-0.04000 F2100.00000
G1 Z0.600 F10800.000
G1 X198.642 Y109.399
G1 Z0.200
G1 E0.80000 F2100.00000
G1 F1200.000
G1 X197.338 Y109.389 E0.04087
G1 X196.353 Y109.695 E0.03232
G1 X195.434 Y110.240 E0.03353
G1 X194.344 Y111.358 E0.04893
G1 X193.824 Y112.327 E0.03449
G1 X193.555 Y113.416 E0.03518
G1 X193.492 Y116.471 E0.09582
G1 X193.687 Y117.351 E0.02825
G1 X193.705 Y119.269 E0.06014
G1 X193.925 Y120.226 E0.03080
G1 X194.383 Y121.166 E0.03278
G1 X195.475 Y122.340 E0.05028
G1 X195.845 Y122.591 F10800.000
G1 F1200.000
G1 X196.628 Y123.042 E0.02834
G1 X197.889 Y123.352 E0.04073
G1 X221.435 Y123.352 E0.73824
G1 X222.633 Y123.308 E0.03761
G1 X223.824 Y123.185 E0.03755
G1 X224.914 Y122.999 E0.03466
G1 X225.989 Y122.746 E0.03464
G1 X227.216 Y122.369 E0.04022
G1 X228.412 Y121.904 E0.04025
G1 X229.413 Y121.435 E0.03466
G1 X230.382 Y120.904 E0.03465
G1 X231.454 Y120.221 E0.03983
G1 X232.453 Y119.479 E0.03903
G1 X233.296 Y118.762 E0.03471
G1 X234.108 Y117.977 E0.03539
G1 X234.948 Y117.049 E0.03927
G1 X235.684 Y116.112 E0.03736
G1 X236.329 Y115.169 E0.03582
G1 X236.724 Y114.502 F10800.000
G1 F1200.000
G1 X236.964 Y114.094 E0.01483
G1 X237.496 Y113.032 E0.03726
G1 X237.955 Y111.936 E0.03725
G1 X238.341 Y110.811 E0.03728
G1 X238.653 Y109.650 E0.03770
G1 X238.883 Y108.483 E0.03728
G1 X239.034 Y107.304 E0.03728
G1 X239.107 Y106.104 E0.03770
G1 X239.098 Y104.915 E0.03729
G1 X239.008 Y103.716 E0.03768
G1 X238.840 Y102.540 E0.03726
G1 X238.593 Y101.378 E0.03725
G1 X238.268 Y100.234 E0.03728
G1 X237.863 Y99.104 E0.03765
G1 X237.394 Y98.026 E0.03685
G1 X236.841 Y96.959 E0.03768
G1 X236.224 Y95.943 E0.03727
G1 X235.541 Y94.971 E0.03725
G1 X234.794 Y94.047 E0.03725
G1 X233.987 Y93.176 E0.03725
G1 X233.124 Y92.360 E0.03725
G1 X232.207 Y91.604 E0.03725
G1 X231.242 Y90.911 E0.03725
G1 X230.233 Y90.285 E0.03725
G1 X229.184 Y89.727 E0.03725
G1 X228.100 Y89.241 E0.03725
G1 X226.986 Y88.829 E0.03725
G1 X225.847 Y88.492 E0.03725
G1 X224.688 Y88.233 E0.03724
G1 X223.515 Y88.052 E0.03720
G1 X222.323 Y87.949 E0.03752
G1 X221.207 Y87.926 E0.03501
G1 X220.098 Y87.972 E0.03479
G1 X218.755 Y88.123 E0.04238
G1 X217.600 Y88.337 E0.03683
G1 X216.475 Y88.623 E0.03638
G1 X215.372 Y88.982 E0.03638
G1 X214.261 Y89.427 E0.03752
G1 X213.239 Y89.916 E0.03554
G1 X212.258 Y90.465 E0.03523
G1 X211.139 Y91.199 E0.04198
G1 X210.194 Y91.919 E0.03723
G1 X209.322 Y92.681 E0.03630
G1 X208.501 Y93.498 E0.03633
G1 X207.735 Y94.367 E0.03633
G1 X207.026 Y95.285 E0.03636
G1 X206.378 Y96.251 E0.03649
G1 X205.723 Y97.392 E0.04123
G1 X205.209 Y98.453 E0.03698
G1 X204.769 Y99.540 E0.03678
G1 X204.405 Y100.642 E0.03637
G1 X204.112 Y101.779 E0.03681
G1 X203.948 Y102.653 E0.02790
G1 X203.837 Y103.404 F10800.000
G1 F1200.000
G1 X203.749 Y104.147 E0.02347
G1 X203.691 Y105.244 E0.03444
G1 X203.617 Y109.436 E0.13146
G1 X199.118 Y109.403 E0.14106
G1 X198.829 Y109.771 F10800.000
G1 F1200.000
G1 X203.988 Y109.817 E0.16175
G1 X204.068 Y105.261 E0.14288
G1 X204.124 Y104.186 E0.03376
G1 X204.301 Y102.814 E0.04335
G1 X204.451 Y102.014 F10800.000
G1 F1200.000
G1 X204.765 Y100.754 E0.04071
G1 X205.121 Y99.676 E0.03559
G1 X205.551 Y98.612 E0.03599
G1 X206.053 Y97.574 E0.03615
G1 X206.702 Y96.445 E0.04081
G1 X207.336 Y95.501 E0.03567
G1 X208.029 Y94.602 E0.03558
G1 X208.779 Y93.752 E0.03555
G1 X209.583 Y92.952 E0.03555
G1 X210.437 Y92.207 E0.03553
G1 X211.351 Y91.511 E0.03602
G1 X212.448 Y90.791 E0.04115
G1 X213.418 Y90.248 E0.03483
G1 X214.418 Y89.770 E0.03478
G1 X215.495 Y89.338 E0.03636
G1 X216.574 Y88.987 E0.03560
G1 X217.687 Y88.704 E0.03599
G1 X218.817 Y88.495 E0.03603
G1 X220.121 Y88.349 E0.04114
G1 X221.217 Y88.303 E0.03440
G1 X222.309 Y88.326 E0.03426
G1 X223.464 Y88.425 E0.03635
G1 X224.612 Y88.602 E0.03641
G1 X225.746 Y88.856 E0.03645
G1 X226.862 Y89.185 E0.03645
G1 X227.952 Y89.588 E0.03645
G1 X229.013 Y90.063 E0.03645
G1 X230.040 Y90.608 E0.03645
G1 X231.028 Y91.221 E0.03645
G1 X231.972 Y91.899 E0.03645
G1 X232.869 Y92.639 E0.03645
G1 X233.715 Y93.437 E0.03645
G1 X234.505 Y94.290 E0.03645
G1 X235.236 Y95.194 E0.03645
G1 X235.905 Y96.144 E0.03645
G1 X236.509 Y97.138 E0.03647
G1 X237.051 Y98.183 E0.03689
G1 X237.511 Y99.237 E0.03605
G1 X237.907 Y100.343 E0.03685
G1 X238.225 Y101.463 E0.03648
G1 X238.467 Y102.600 E0.03645
G1 X238.633 Y103.751 E0.03646
G1 X238.721 Y104.924 E0.03688
G1 X238.730 Y106.088 E0.03650
G1 X238.659 Y107.263 E0.03690
G1 X238.512 Y108.417 E0.03648
G1 X238.287 Y109.558 E0.03648
G1 X237.982 Y110.695 E0.03691
G1 X237.605 Y111.796 E0.03649
G1 X237.156 Y112.869 E0.03645
G1 X236.747 Y113.686 E0.02866
G1 X236.350 Y114.395 F10800.000
G1 F1200.000
G1 X236.040 Y114.923 E0.01921
G1 X235.384 Y115.884 E0.03648
G1 X234.664 Y116.801 E0.03654
G1 X233.832 Y117.719 E0.03886
G1 X233.047 Y118.479 E0.03424
G1 X232.223 Y119.180 E0.03393
G1 X231.234 Y119.915 E0.03862
G1 X230.185 Y120.583 E0.03900
G1 X229.237 Y121.101 E0.03388
G1 X228.258 Y121.560 E0.03390
G1 X227.086 Y122.015 E0.03944
G1 X225.897 Y122.381 E0.03899
G1 X224.845 Y122.629 E0.03388
G1 X223.767 Y122.812 E0.03428
G1 X222.601 Y122.933 E0.03677
G1 X221.431 Y122.975 E0.03670
G1 X197.913 Y122.975 E0.73740
G1 X196.746 Y122.683 E0.03771
G1 X195.858 Y122.164 E0.03226
G1 X195.491 Y121.816 F10800.000
G1 F1200.000
G1 X194.709 Y120.974 E0.03603
G1 X194.287 Y120.118 E0.02991
G1 X194.082 Y119.244 E0.02815
G1 X194.064 Y117.306 E0.06078
G1 X193.869 Y116.455 E0.02736
G1 X193.932 Y113.445 E0.09442
G1 X194.168 Y112.482 E0.03108
G1 X194.634 Y111.600 E0.03128
G1 X195.649 Y110.550 E0.04578
G1 X196.487 Y110.048 E0.03063
G1 X197.422 Y109.758 E0.03068
G1 X198.353 Y109.767 E0.02919
G1 X198.540 Y110.138 F10800.000
G1 F1200.000
G1 X204.358 Y110.198 E0.18242
G1 X204.445 Y105.271 E0.15453
G1 X204.499 Y104.224 E0.03288
G1 X204.633 Y103.086 E0.03593
G1 X204.804 Y102.174 E0.02908
G1 X205.014 Y101.297 F10800.000
G1 F1200.000
G1 X205.125 Y100.866 E0.01396
G1 X205.473 Y99.811 E0.03481
G1 X205.893 Y98.770 E0.03521
G1 X206.383 Y97.756 E0.03532
G1 X207.025 Y96.639 E0.04039
G1 X207.645 Y95.716 E0.03486
G1 X208.316 Y94.847 E0.03443
G1 X209.050 Y94.015 E0.03478
G1 X209.845 Y93.224 E0.03516
G1 X210.681 Y92.496 E0.03476
G1 X211.564 Y91.822 E0.03482
G1 X212.639 Y91.117 E0.04032
G1 X213.586 Y90.586 E0.03406
G1 X214.576 Y90.112 E0.03439
G1 X215.617 Y89.695 E0.03519
G1 X216.685 Y89.347 E0.03521
G1 X217.773 Y89.071 E0.03520
G1 X218.879 Y88.867 E0.03524
G1 X220.143 Y88.725 E0.03989
G1 X221.215 Y88.680 E0.03364
G1 X222.295 Y88.703 E0.03388
G1 X223.413 Y88.799 E0.03518
G1 X224.536 Y88.971 E0.03562
G1 X225.646 Y89.219 E0.03566
G1 X226.737 Y89.541 E0.03566
G1 X227.804 Y89.935 E0.03566
G1 X228.842 Y90.399 E0.03566
G1 X229.847 Y90.932 E0.03566
G1 X230.813 Y91.532 E0.03566
G1 X231.738 Y92.194 E0.03566
G1 X232.615 Y92.917 E0.03566
G1 X233.443 Y93.698 E0.03566
G1 X234.216 Y94.532 E0.03566
G1 X234.932 Y95.416 E0.03566
G1 X235.586 Y96.346 E0.03566
G1 X236.177 Y97.318 E0.03567
G1 X236.708 Y98.340 E0.03610
G1 X237.158 Y99.370 E0.03526
G1 X237.546 Y100.453 E0.03606
G1 X237.858 Y101.547 E0.03569
G1 X238.095 Y102.660 E0.03566
G1 X238.257 Y103.786 E0.03567
G1 X238.344 Y104.933 E0.03608
G1 X238.353 Y106.072 E0.03570
G1 X238.285 Y107.221 E0.03610
G1 X238.140 Y108.350 E0.03569
G1 X237.921 Y109.467 E0.03568
G1 X237.623 Y110.579 E0.03611
G1 X237.255 Y111.657 E0.03569
G1 X236.772 Y112.794 E0.03873
G1 X236.372 Y113.593 F10800.000
G1 F1200.000
G1 X235.724 Y114.716 E0.04065
G1 X235.083 Y115.656 E0.03568
G1 X234.380 Y116.552 E0.03572
G1 X233.557 Y117.462 E0.03846
G1 X232.798 Y118.195 E0.03310
G1 X231.993 Y118.881 E0.03315
G1 X231.015 Y119.608 E0.03821
G1 X229.988 Y120.261 E0.03817
G1 X229.062 Y120.768 E0.03310
G1 X228.104 Y121.216 E0.03315
G1 X226.956 Y121.661 E0.03863
G1 X225.804 Y122.015 E0.03776
G1 X224.764 Y122.260 E0.03350
G1 X223.710 Y122.439 E0.03352
G1 X222.569 Y122.557 E0.03599
G1 X221.428 Y122.597 E0.03578
G1 X197.937 Y122.597 E0.73654
G1 X196.866 Y122.325 E0.03464
G1 X195.981 Y121.800 E0.03226
G1 X195.873 Y121.684 E0.00500
G1 X195.507 Y121.291 F10800.000
G1 F1200.000
G1 X195.035 Y120.783 E0.02175
G1 X194.635 Y119.971 E0.02838
G1 X194.459 Y119.220 E0.02419
G1 X194.441 Y117.260 E0.06146
G1 X194.247 Y116.439 E0.02645
G1 X194.308 Y113.474 E0.09298
G1 X194.528 Y112.595 E0.02840
G1 X194.925 Y111.841 E0.02672
G1 X195.867 Y110.859 E0.04266
G1 X196.621 Y110.401 E0.02768
G1 X197.505 Y110.127 E0.02901
G1 X198.064 Y110.133 E0.01753
G1 X198.252 Y110.504 F10800.000
G1 F1200.000
G1 X204.728 Y110.580 E0.20308
G1 X204.822 Y105.281 E0.16619
G1 X204.875 Y104.249 E0.03238
G1 X205.005 Y103.149 E0.03475
G1 X205.217 Y102.018 E0.03607
G1 X205.359 Y101.468 E0.01780
G1 F8640.000
G1 X205.217 Y102.018 E-0.13107
G1 X205.005 Y103.149 E-0.26562
G1 X204.875 Y104.249 E-0.25590
G1 X204.851 Y104.714 E-0.10741
G1 E-0.04000 F2100.00000
G1 Z0.600 F10800.000
G1 X205.644 Y100.497
G1 Z0.200
G1 E0.80000 F2100.00000
G1 F1200.000
G1 X205.829 Y99.935 E0.01854
G1 X206.240 Y98.917 E0.03443
G1 X206.714 Y97.938 E0.03411
G1 X207.342 Y96.844 E0.03956
G1 X207.948 Y95.942 E0.03407
G1 X208.611 Y95.082 E0.03404
G1 X209.328 Y94.269 E0.03400
G1 X210.106 Y93.496 E0.03438
G1 X210.923 Y92.784 E0.03398
G1 X211.787 Y92.126 E0.03403
G1 X212.829 Y91.443 E0.03907
G1 X213.765 Y90.918 E0.03366
G1 X214.733 Y90.455 E0.03362
G1 X215.752 Y90.047 E0.03442
G1 X216.796 Y89.708 E0.03442
G1 X217.860 Y89.438 E0.03442
G1 X218.940 Y89.239 E0.03445
G1 X220.165 Y89.102 E0.03865
G1 X221.225 Y89.057 E0.03325
G1 X222.281 Y89.079 E0.03313
G1 X223.374 Y89.174 E0.03440
G1 X224.472 Y89.343 E0.03483
G1 X225.558 Y89.586 E0.03487
G1 X226.624 Y89.901 E0.03487
G1 X227.667 Y90.286 E0.03487
G1 X228.682 Y90.741 E0.03487
G1 X229.664 Y91.262 E0.03487
G1 X230.609 Y91.849 E0.03487
G1 X231.513 Y92.497 E0.03487
G1 X232.371 Y93.204 E0.03487
G1 X233.179 Y93.968 E0.03487
G1 X233.935 Y94.783 E0.03487
G1 X234.634 Y95.648 E0.03487
G1 X235.274 Y96.558 E0.03487
G1 X235.852 Y97.508 E0.03488
G1 X236.370 Y98.508 E0.03530
G1 X236.810 Y99.515 E0.03447
G1 X237.189 Y100.574 E0.03526
G1 X237.493 Y101.644 E0.03489
G1 X237.725 Y102.732 E0.03487
G1 X237.883 Y103.833 E0.03487
G1 X237.967 Y104.955 E0.03529
G1 X237.976 Y106.068 E0.03490
G1 X237.909 Y107.192 E0.03530
G1 X237.767 Y108.296 E0.03489
G1 X237.552 Y109.388 E0.03489
G1 X237.260 Y110.475 E0.03531
G1 X236.900 Y111.528 E0.03489
G1 X236.800 Y111.766 E0.00809
G1 F8640.000
G1 X236.900 Y111.528 E-0.05955
G1 X237.260 Y110.475 E-0.25697
G1 X237.552 Y109.388 E-0.26003
G1 X237.706 Y108.608 E-0.18345
G1 E-0.04000 F2100.00000
G1 Z0.600 F10800.000
G1 X236.397 Y112.700
G1 Z0.200
G1 E0.80000 F2100.00000
G1 F1200.000
G1 X235.973 Y113.549 E0.02975
G1 X235.403 Y114.519 E0.03529
G1 X234.776 Y115.439 E0.03489
G1 X234.088 Y116.314 E0.03492
G1 X233.290 Y117.195 E0.03725
G1 X232.549 Y117.912 E0.03234
G1 X231.754 Y118.590 E0.03276
G1 X230.807 Y119.293 E0.03698
G1 X229.802 Y119.933 E0.03736
G1 X228.886 Y120.434 E0.03272
G1 X227.950 Y120.872 E0.03239
G1 X226.838 Y121.303 E0.03740
G1 X225.711 Y121.649 E0.03696
G1 X224.695 Y121.889 E0.03274
G1 X223.665 Y122.065 E0.03275
G1 X222.549 Y122.180 E0.03520
G1 X221.425 Y122.220 E0.03527
G1 X197.961 Y122.220 E0.73567
G1 X196.989 Y121.967 E0.03152
G1 X196.199 Y121.491 E0.02891
G1 X195.889 Y121.158 E0.01427
G1 X195.524 Y120.766 F10800.000
G1 F1200.000
G1 X195.361 Y120.591 E0.00749
G1 X194.983 Y119.825 E0.02680
G1 X194.831 Y119.157 E0.02147
G1 X194.818 Y117.213 E0.06097
G1 X194.624 Y116.421 E0.02554
G1 X194.685 Y113.503 E0.09152
G1 X194.874 Y112.748 E0.02440
G1 X195.217 Y112.082 E0.02349
G1 X196.121 Y111.139 E0.04096
G1 X196.794 Y110.737 E0.02457
G1 X197.586 Y110.497 E0.02597
G1 X197.777 Y110.499 E0.00597
G1 X197.964 Y110.870 F10800.000
G1 F1200.000
G1 X204.976 Y110.961 E0.21985
G1 X205.101 Y110.840 E0.00546
G1 X205.198 Y105.291 E0.17401
G1 X205.252 Y104.275 E0.03188
G1 X205.377 Y103.212 E0.03357
G1 X205.584 Y102.106 E0.03527
G1 X205.852 Y101.067 E0.03366
G1 X205.981 Y100.678 E0.01282
G1 F8640.000
G1 X205.852 Y101.067 E-0.09440
G1 X205.584 Y102.106 E-0.24790
G1 X205.377 Y103.212 E-0.25971
G1 X205.297 Y103.891 E-0.15798
G1 E-0.04000 F2100.00000
G1 Z0.600 F10800.000
G1 X206.394 Y99.543
G1 Z0.200
G1 E0.80000 F2100.00000
G1 F1200.000
G1 X206.588 Y99.064 E0.01620
G1 X207.050 Y98.108 E0.03331
G1 X207.659 Y97.048 E0.03831
G1 X208.257 Y96.157 E0.03366
G1 X208.906 Y95.318 E0.03326
G1 X209.607 Y94.523 E0.03323
G1 X210.368 Y93.768 E0.03361
G1 X211.166 Y93.073 E0.03320
G1 X212.010 Y92.430 E0.03325
G1 X213.019 Y91.768 E0.03783
G1 X213.944 Y91.250 E0.03326
G1 X214.890 Y90.798 E0.03285
G1 X215.886 Y90.400 E0.03364
G1 X216.906 Y90.068 E0.03364
G1 X217.946 Y89.805 E0.03364
G1 X219.002 Y89.611 E0.03365
G1 X220.188 Y89.478 E0.03742
G1 X221.223 Y89.434 E0.03248
G1 X222.267 Y89.456 E0.03274
G1 X223.335 Y89.549 E0.03362
G1 X224.408 Y89.715 E0.03404
G1 X225.469 Y89.952 E0.03407
G1 X226.511 Y90.260 E0.03407
G1 X227.530 Y90.638 E0.03407
G1 X228.522 Y91.082 E0.03407
